Wnight963/UAV_optim/maddpg-master/experiments/learning_curves/exp_4_1/agent_1_traj.csv
,q_loss,p_loss,target_q,rew,target_q_next,target_q_std
0,4599.13134765625,-1123.9588623046875,1148.6364039214104,223.0966217787711,1156.9248046875,324.79648710021524
1,4331.583984375,-1139.1021728515625,1166.4183398065788,226.210533982299,1175.259765625,240.37002528107072
2,4182.166015625,-1149.000244140625,1164.271971811298,227.15486480141038,1171.396484375,171.92594641901746
3,3926.0107421875,-1179.8876953125,1169.3224588702847,230.0529905627894,1174.0869140625,168.2028696605496
4,3302.655029296875,-1191.4129638671875,1171.4945199425713,231.62107123689805,1174.841796875,167.55788318533968
5,3617.3857421875,-1178.5665283203125,1164.3936620591085,229.69098285416754,1168.37841796875,165.53908248713213
6,3708.975341796875,-1159.04296875,1165.2400900170953,230.31276176430302,1168.6591796875,174.23197428621174
7,10806.8935546875,-1138.740234375,1155.5268348341044,224.25372716236666,1164.09130859375,301.30086409338895
8,3699.746337890625,-1152.3863525390625,1160.9311753276627,225.44057078397688,1169.36328125,176.2707880965139
9,8441.640625,-1157.1749267578125,1156.3273413252537,224.28468237635542,1165.0533447265625,315.7754888876494
10,3633.699951171875,-1178.4041748046875,1164.6250419389246,229.58440978636708,1168.80078125,174.37587913014852
11,3337.008544921875,-1170.9007568359375,1157.1601582625708,227.86482294591278,1161.619140625,173.42461081600462
12,4263.6240234375,-1160.3970947265625,1159.058729139663,226.85007559428325,1165.2608642578125,182.97924852395778
13,4483.70654296875,-1133.5386962890625,1152.269505454099,223.27942795852414,1161.237548828125,264.0230827742421
14,3987.701171875,-1136.496826171875,1162.3840601531965,227.90438255948865,1168.099609375,213.0862821033669
15,3835.219482421875,-1145.7564697265625,1160.6021142698291,228.67069546947516,1164.914306640625,166.15937147257875
16,3537.354248046875,-1172.8599853515625,1161.4284519515895,228.83456600531582,1165.742431640625,167.60703612306833
17,3137.658203125,-1180.2484130859375,1158.9785765603415,227.87748884709987,1163.87646484375,165.46416620522885
18,3891.5498046875,-1177.25146484375,1164.7442941738705,228.26080995336562,1170.6043701171875,173.27305164177784
19,3775.563232421875,-1144.7840576171875,1151.8958472440886,224.40233442289104,1159.3668212890625,251.36314139349298
20,3499.150634765625,-1154.078125,1164.6027487189795,225.76456719947106,1173.5477294921875,166.61346814657628
21,3274.12841796875,-1160.3740234375,1164.7098363871255,227.87864808985378,1171.0389404296875,172.15960858720698
22,3116.596923828125,-1174.0963134765625,1157.882490733824,226.00887766238213,1164.842041015625,179.3303576931306
23,3198.47265625,-1176.363525390625,1158.5775140674587,225.917804089355,1165.82470703125,177.87103261534034
24,3177.3662109375,-1165.19775390625,1167.1108823814,230.36603255649447,1170.93115234375,225.22401348495836
25,3789.322998046875,-1127.01708984375,1143.1325216203488,222.49302701051596,1150.79931640625,447.76158231338
26,3522.609619140625,-1150.334716796875,1161.0155947520416,226.36240480682062,1168.31640625,170.66529865152643
27,3732.017333984375,-1157.45068359375,1159.4867607465087,227.82061511185756,1164.582763671875,223.85459539087088
28,3175.302001953125,-1178.583251953125,1162.4357836618121,227.71879290482352,1168.396240234375,171.82327456541753
29,6213.97705078125,-1168.82373046875,1150.5492597334091,223.82288258001256,1158.407958984375,346.0661895013678
30,3488.326171875,-1168.2259521484375,1166.029099850704,230.72421579842728,1169.131103515625,261.15981054000315
31,3215.171630859375,-1141.14892578125,1155.5133414647994,226.28458460788084,1161.535888671875,259.4302150502277
32,3388.332763671875,-1148.1822509765625,1163.6590144849647,229.05233657129907,1168.2584228515625,172.5027773393452
33,4280.12841796875,-1155.431640625,1160.6426364365368,227.3866008702068,1166.570068359375,309.37831370502374
34,3795.636962890625,-1167.67236328125,1151.5757996804923,227.22795426919168,1155.434814453125,286.59120044686796
35,3817.97802734375,-1173.2530517578125,1148.4530941295475,223.95579283712792,1155.62158203125,170.55805698429808
36,3649.656005859375,-1161.8218994140625,1149.47171768803,224.5855506863058,1156.107666015625,284.299407978224
37,3068.024658203125,-1163.0052490234375,1178.803486505,232.9077785162608,1182.36962890625,174.6361800860525
38,3299.757080078125,-1140.994384765625,1158.2894474068055,226.12469344524231,1165.2059326171875,171.30981110807863
39,5385.54443359375,-1139.686279296875,1149.4263829891345,224.83384935304116,1155.74072265625,332.3411680808958
40,4481.5478515625,-1157.23974609375,1150.6525282684001,226.25799599320004,1155.4931640625,280.0443906589808
41,3073.720703125,-1171.796875,1159.5770273865733,226.1820977391277,1166.74365234375,172.16136898130065
42,3576.8759765625,-1161.064453125,1162.8753101428988,230.0129791339875,1166.077880859375,169.6232522813396
43,4570.30859375,-1140.5614013671875,1150.3868024615235,222.48334596433114,1159.8792724609375,335.54664094842525
44,3527.49267578125,-1147.1402587890625,1159.1377994019597,225.82088164874,1166.646240234375,207.50333342762272
45,3510.4443359375,-1157.25390625,1155.3334875900955,224.71307910277554,1163.2755126953125,170.0250427944245
46,2968.37109375,-1185.183349609375,1163.0053547900634,231.75838795122687,1164.058837890625,167.0077295736591
47,4055.76806640625,-1202.15087890625,1164.4293962767983,225.92783821138391,1173.126953125,174.05303435952027
48,4155.67822265625,-1189.0169677734375,1165.4808481665339,228.746950337478,1170.9173583984375,212.29300209822605
49,5038.1630859375,-1146.3516845703125,1143.6711876411466,222.24973821831023,1151.77685546875,360.31264879961606
50,3388.642578125,-1130.1380615234375,1154.0569174352195,223.0546229424977,1163.7529296875,170.22324484383608
51,3882.9443359375,-1116.169677734375,1155.1812694468404,227.85356672190662,1159.15966796875,165.8566635983989
52,4714.900390625,-1127.2022705078125,1160.989089571363,227.67685464513912,1166.640380859375,171.35650562326458
53,4215.83251953125,-1142.0223388671875,1155.471074379058,226.3479056721643,1161.4039306640625,184.541007029029
54,3709.853759765625,-1178.85595703125,1163.048736172202,227.63956184912018,1169.261474609375,176.79269893002513
55,3484.092529296875,-1185.0126953125,1156.9870206864466,227.49152081328526,1161.869384765625,172.9343410529915
56,4126.06005859375,-1183.224609375,1157.0860676896573,226.65625299334528,1163.037353515625,173.2665114741004
57,5175.529296875,-1157.2430419921875,1147.3570174315105,224.03743194128378,1154.1494140625,290.9042791038167
58,4540.07080078125,-1143.5140380859375,1156.9457246206355,227.3702201746059,1161.9693603515625,313.9868268040075
59,3108.663818359375,-1146.16455078125,1164.1189131196984,226.9919151243219,1171.40869140625,175.98024027701427
60,3350.5712890625,-1153.368408203125,1162.9800769392882,227.48608537358388,1169.367431640625,177.31218131492898
61,2993.83837890625,-1177.970458984375,1162.843073451025,227.30072220514492,1169.427978515625,169.1072909019217
62,4192.73828125,-1174.5797119140625,1153.4840699098272,224.98986023880667,1160.6177978515625,263.2900846684927
63,2836.772705078125,-1168.4425048828125,1163.2565836911795,231.19297895485116,1165.07958984375,172.90138424760565
64,3060.090087890625,-1141.736328125,1153.8983707705559,227.5933842221321,1157.8812255859375,168.92334535835562
65,4048.77099609375,-1134.977294921875,1150.771169261283,223.71511185581105,1158.820068359375,310.36939798281094
66,3637.14697265625,-1146.1363525390625,1154.9388548800016,225.19717978921182,1162.177001953125,190.8999828691232
67,3352.18359375,-1173.2220458984375,1160.4696609884322,226.12804969845422,1167.927001953125,332.7555673098204
68,3706.1953125,-1176.781982421875,1158.9505469338483,227.57467719777281,1164.2198486328125,183.1519319081333
69,3362.396484375,-1151.5965576171875,1142.1692970228464,222.16040725233847,1150.010986328125,431.14507461156177
70,2877.638427734375,-1143.447021484375,1157.843288115193,227.71720164172785,1162.6575927734375,285.195540462011
71,3321.521728515625,-1137.5321044921875,1156.2977771156934,227.28427096544763,1161.266845703125,326.2645408447812
72,3336.682373046875,-1145.1728515625,1151.0551310310775,225.76668460468585,1156.610595703125,288.52752631234534
73,3352.82763671875,-1182.8824462890625,1164.3100790001326,226.43742997272534,1172.3408203125,184.14332527411904
74,3667.302490234375,-1171.197021484375,1150.7103338046327,224.63361699416782,1157.595947265625,325.0565758228452
75,3862.60205078125,-1166.708984375,1152.4686077414794,224.2145180641457,1160.317626953125,262.415767272927
76,3242.421875,-1145.2216796875,1153.9104979163458,226.1953325396824,1159.6439208984375,172.30402495242828
77,3311.63720703125,-1131.53955078125,1149.1000092143177,224.6315505141375,1155.5855712890625,348.5215901208269
78,3255.7158203125,-1147.9833984375,1152.9325462938557,224.60319036257357,1160.41162109375,266.5033519549098
79,3209.5068359375,-1187.1624755859375,1173.7166215373145,230.89007381926632,1178.533203125,169.63372237400233
80,3513.81103515625,-1183.8614501953125,1162.7825299387316,226.08758782199428,1170.86865234375,171.69420824036357
81,3474.50244140625,-1164.167724609375,1155.3450628832773,223.88065071858915,1164.33056640625,162.61527068778122
82,3653.03759765625,-1127.514404296875,1140.7231512107894,223.2383689680144,1146.85595703125,400.7755169876863
83,3409.33251953125,-1148.9700927734375,1170.6957584712354,233.38472167585786,1171.638916015625,176.93023681504252
84,3277.233642578125,-1143.837890625,1152.442993855382,225.17075011720755,1159.09033203125,167.29481597286986
85,2900.45361328125,-1159.2027587890625,1147.2920462374732,226.89889302301845,1150.491455078125,283.90209699227836
86,3091.552490234375,-1180.771240234375,1157.2274130264132,225.68436307104497,1164.4288330078125,317.181362758696
87,4262.40673828125,-1173.5927734375,1157.140568722933,227.02823776170544,1162.640380859375,247.27659143859447
88,3184.378173828125,-1148.0875244140625,1156.7852891377263,228.17536777771033,1160.762451171875,176.9693625675639
89,3141.14404296875,-1148.2825927734375,1159.6513559086793,226.19834301309515,1166.8162841796875,260.87458175898263
90,2901.15087890625,-1149.1702880859375,1145.4024375837175,219.832381741318,1156.962646484375,271.51150967103155
91,3378.133544921875,-1163.914306640625,1147.6794615429592,228.06184854998702,1149.52197265625,348.76923693692214
92,3610.797119140625,-1188.5042724609375,1161.3570932355226,227.8468075719179,1166.8878173828125,167.2942621793158
93,3739.116455078125,-1177.382568359375,1157.4147395076789,223.3609520854986,1167.5672607421875,183.94783834152489
94,3314.705078125,-1144.9473876953125,1152.8331228886334,223.9224932823864,1161.1383056640625,240.1355681089402
95,4154.42041015625,-1122.194580078125,1135.9408391745508,217.6389077724636,1147.87744140625,330.6742782744245
96,3267.76708984375,-1142.390869140625,1150.9146578652387,224.53910544939095,1157.969482421875,169.7164716173251
97,3049.239013671875,-1159.8359375,1146.4303347904915,224.4732503254648,1152.4464111328125,265.1384095152758
98,3248.904052734375,-1168.4024658203125,1150.2908586635422,224.24495359800565,1157.557373046875,291.8652346953419
99,3364.621337890625,-1165.5849609375,1155.4387711113645,226.36599627196313,1161.3409423828125,171.70856861580353
100,3149.530029296875,-1141.3863525390625,1157.401774623664,228.20609476831754,1161.49462890625,171.73371476174455
101,3763.620849609375,-1124.640625,1147.201727923558,224.0249930946092,1153.970947265625,206.33273279895076
102,3724.16650390625,-1148.845947265625,1159.1753231451364,227.1487539217325,1165.033203125,176.16157248989558
103,3563.267578125,-1172.2076416015625,1162.3947263993255,228.38506458177497,1167.5120849609375,174.21972916012393
104,3376.59033203125,-1173.5875244140625,1151.4891172806097,223.9222189346624,1159.458740234375,263.034990560828
105,3537.519775390625,-1153.224365234375,1142.7883640299415,223.16224443417548,1149.5325927734375,347.22009524405735
106,3076.249755859375,-1146.94775390625,1159.598643468244,226.86279742561095,1165.919921875,180.20445110633062
107,3257.231201171875,-1132.254150390625,1149.8184980842307,227.5314381095602,1152.8587646484375,334.82541872597903
108,3285.99609375,-1155.5745849609375,1158.4217132663182,226.4212780093601,1165.00048828125,171.21477366761053
109,3196.2490234375,-1174.473876953125,1156.5844132821976,225.93446561507562,1163.3125,182.88254825837717
110,3258.09228515625,-1181.836669921875,1157.3227363554386,226.50762061752351,1163.5189208984375,163.1049548434112
111,3659.045654296875,-1172.6953125,1158.803693824403,228.2656480842753,1163.172607421875,171.9863068726407
112,3462.5,-1134.048095703125,1139.3908040768047,221.38334162296263,1147.5093994140625,442.5103501895696
113,2976.115478515625,-1132.52294921875,1145.2793647950216,224.84442195349175,1150.543701171875,404.98622343054353
114,3242.165283203125,-1141.407470703125,1145.0595957632186,223.61139384461637,1151.810302734375,358.091901758301
115,3368.413330078125,-1170.2747802734375,1153.7047340997528,225.95936276400784,1159.6817626953125,203.4628455381709
116,2995.353515625,-1176.68896484375,1158.19921756084,227.69167070682073,1163.1343994140625,170.1203196193955
117,3671.4130859375,-1170.341064453125,1162.323237182672,227.46534276204818,1168.5723876953125,173.32348830569012
118,2542.980712890625,-1140.78125,1154.9255082007094,228.58973373133364,1157.919677734375,171.14218778204278
119,3137.67724609375,-1154.0985107421875,1168.6617437787986,226.29519092060423,1177.9581298828125,178.49899544605714
120,3424.546142578125,-1155.00244140625,1161.5617882814283,229.36006999872876,1165.252197265625,171.31033880262754
121,2887.47119140625,-1165.216064453125,1146.204648262688,223.44927566690086,1153.4442138671875,164.97565112934774
122,3179.21875,-1177.954345703125,1155.4199876379682,229.3347269129468,1157.606689453125,179.76311453620448
123,3976.54443359375,-1161.9173583984375,1143.9943035830374,222.92319083107677,1151.3388671875,356.70830190603033
124,3692.509521484375,-1141.829345703125,1144.7828141433308,221.9828105193684,1153.5,179.4541757601009
125,3228.658447265625,-1148.7216796875,1160.7369438009455,227.46393535902018,1166.59130859375,175.6307306110748
126,3443.8310546875,-1140.817138671875,1144.7339196110465,224.4375753784875,1150.370361328125,326.5489832884557
127,3031.28564453125,-1177.7403564453125,1158.9416485281838,224.50969838818435,1168.0399169921875,174.1372620514936
128,2979.601806640625,-1154.2640380859375,1134.163609595436,220.5268899692478,1142.0458984375,185.58421921857774
129,3366.7685546875,-1151.531494140625,1142.7395009289012,223.59912495710685,1148.925537109375,389.90762877067027
130,2986.1240234375,-1138.1007080078125,1153.300522603778,227.85384510972887,1156.808349609375,339.4240075896275
131,3811.816650390625,-1127.6343994140625,1145.8975531240894,222.25616731252197,1154.5517578125,320.96555580800793
132,3757.211181640625,-1136.2105712890625,1145.8554862347326,223.82573586375312,1152.537109375,330.9673245109244
133,3304.857666015625,-1175.0439453125,1161.0862538133103,226.82018726210168,1167.8326416015625,167.54897996757416
134,3366.0546875,-1174.6282958984375,1157.0964899337614,228.29431774083017,1161.002685546875,323.03571561798014
135,3959.200927734375,-1159.573486328125,1147.0567513856017,221.9761435004794,1156.3507080078125,332.9894659628902
136,3479.983642578125,-1146.5546875,1153.7438567160932,222.97248191827214,1163.4642333984375,192.1118061614957
137,3220.751953125,-1138.3349609375,1150.1577517228534,224.28411294988894,1157.342041015625,182.86227489570183
138,3304.977294921875,-1153.29833984375,1158.5246156886938,227.21658098257805,1164.135009765625,213.81062484648965
139,3120.404541015625,-1169.0963134765625,1150.661602169941,225.62724245257172,1156.2928466796875,175.2438733111493
140,3595.036865234375,-1167.1944580078125,1146.1303037970922,223.8114652454516,1152.8984375,393.99629556743173
141,3729.356201171875,-1174.43408203125,1159.9036125190637,225.28900106028524,1168.268310546875,195.64116939988773
142,3177.62158203125,-1138.1171875,1148.1601588502913,224.18626542244243,1154.96728515625,186.2472700230016
143,3128.843017578125,-1135.5040283203125,1153.2751268026286,227.57131544322283,1157.1297607421875,171.08871576188722
144,3619.40625,-1153.59326171875,1161.0451787400941,226.91574655062954,1167.661865234375,275.0710538263476
145,3333.54931640625,-1169.52001953125,1157.1865952563464,226.77694966317995,1163.0120849609375,179.2673550557334
146,2998.6845703125,-1180.102783203125,1162.2074479974963,229.29825932161583,1166.136474609375,180.6821350764834
147,3320.363525390625,-1179.1868896484375,1167.348218200043,229.72987810416532,1172.02294921875,184.8296400447426
148,3233.0927734375,-1153.03173828125,1164.161372889222,228.997312749566,1168.955078125,176.95752949500744
149,3262.54541015625,-1137.9595947265625,1149.8404045674663,223.7200227353434,1157.6505126953125,167.82908040300674
150,3489.25439453125,-1155.007080078125,1154.611329450169,225.5306295950798,1161.3509521484375,178.27954649413343
151,3214.7802734375,-1176.377197265625,1157.85592193913,226.59870529484277,1164.071533203125,178.1477073257213
152,4034.197998046875,-1165.2266845703125,1135.7254687085338,219.25696947719527,1145.585693359375,485.3484430757625
153,3611.86474609375,-1177.8240966796875,1156.9836954817392,224.0401976332286,1166.1793212890625,173.90691039292784
154,3172.7353515625,-1156.4608154296875,1160.1248284649814,225.83728513240465,1167.859375,185.4663320830097
155,2969.17333984375,-1147.5545654296875,1158.7971760832795,227.0956402861604,1164.626953125,183.26177766073187
156,3157.28857421875,-1153.98291015625,1155.9507188742193,225.49053567099892,1163.0751953125,175.91516287163904
157,2839.206298828125,-1173.981201171875,1157.181119043304,225.72737975187437,1164.317138671875,178.1229466463038
158,3276.5078125,-1179.3782958984375,1157.769793598083,224.2099101466212,1166.94970703125,175.32918088474895
159,3901.1904296875,-1159.789794921875,1151.108366385045,223.90077790314191,1159.009521484375,269.1379634013902
160,2929.50732421875,-1145.1219482421875,1159.3010856649578,227.9838939926326,1164.146484375,180.50167602954198
161,3063.72802734375,-1142.7432861328125,1156.5474735366406,224.70994428864122,1164.796875,198.6740674344288
162,3656.8251953125,-1133.9901123046875,1131.5351904378845,218.57682442531126,1141.197998046875,442.42268767081333
163,3248.92333984375,-1170.8653564453125,1152.3864390377305,226.81282482187962,1156.967041015625,237.6562978322825
164,3736.213134765625,-1188.1741943359375,1157.4874915315886,223.94662605962947,1166.926025390625,181.92249849382046
165,3144.613525390625,-1182.186279296875,1164.5647637092534,227.07480031484977,1171.8624267578125,178.33790253308817
166,3859.678955078125,-1147.236083984375,1148.7472065153106,224.2461789312347,1155.626220703125,179.6361261429485
167,3428.023193359375,-1135.0750732421875,1148.1554526048772,224.21054642676017,1154.93115234375,295.60792191568464
168,3551.37744140625,-1149.947021484375,1151.282571591609,224.8858412520819,1157.9959716796875,184.36673654745658
169,4467.0068359375,-1152.6417236328125,1137.6038520665347,219.45257159187184,1147.6890869140625,415.6609264744315
170,3326.16259765625,-1166.853271484375,1154.1830650551838,223.56393947439602,1163.27392578125,171.35453212641372
171,3883.484375,-1145.6966552734375,1147.5883645401368,220.38371274629904,1159.005859375,380.6055638288046
172,3741.682861328125,-1139.7208251953125,1142.4267534392352,220.09686023168513,1152.912353515625,386.52832947549774
173,3160.184326171875,-1158.626220703125,1154.6237735469758,227.19654772476548,1159.2840576171875,230.89632379219424
174,3683.1240234375,-1156.84619140625,1151.939031177632,224.98120544540058,1158.697265625,267.8502900727073
175,3437.731689453125,-1145.8681640625,1150.0245224697262,220.486455265966,1161.922607421875,194.22629835308095
176,3415.61767578125,-1154.1046142578125,1158.7922672415611,224.70073074349125,1167.614501953125,185.94939346090018
177,3212.6396484375,-1149.1680908203125,1138.8939329460723,220.46570833478995,1148.0352783203125,427.6284452114751
178,2854.076416015625,-1157.3319091796875,1145.981651424112,225.42278098935094,1150.698486328125,361.52527792850884
179,3142.88134765625,-1150.651611328125,1146.571437337379,223.59401734111714,1153.7218017578125,245.40328349481698
180,3264.388916015625,-1163.5709228515625,1164.4080931288686,229.25106888837468,1168.9462890625,177.8461538856236
181,3067.184326171875,-1168.82763671875,1153.6038446989878,226.2010533061847,1159.25341796875,261.576107554296
182,3217.422607421875,-1172.291015625,1160.9776325840892,228.22258035134683,1165.9437255859375,174.74928851473072
183,3420.431640625,-1148.0762939453125,1155.1056191815146,225.14480770957553,1162.4510498046875,175.7960511704436
184,3072.476318359375,-1143.40234375,1150.9226899864261,223.13206690569558,1159.73828125,185.896785111868
185,3533.37060546875,-1154.8321533203125,1152.9413240987396,226.48292990509032,1158.072998046875,278.960821057091
186,3731.014892578125,-1171.480712890625,1150.307930750823,223.66618586895464,1158.3021240234375,311.3187897135291
187,3619.71875,-1175.9276123046875,1154.3934145202204,224.5826839824483,1162.263427734375,183.53513750798365
188,3790.115966796875,-1153.2525634765625,1146.5339965190162,222.49873979942706,1155.0440673828125,357.26181711701776
189,3055.30078125,-1140.395263671875,1157.4493500350602,224.31205917583776,1166.421630859375,180.59310612109974
190,4177.5703125,-1126.5263671875,1148.2777090771458,223.00272552802778,1156.59375,282.8045680797215
191,3967.554931640625,-1136.806640625,1150.349349176554,224.3217027780098,1157.53466796875,180.48610358544255
192,4351.70703125,-1151.758544921875,1144.901561744396,224.18058830041113,1150.9012451171875,274.322873024244
193,3306.06396484375,-1179.5186767578125,1161.8177095532042,224.39710630174682,1171.7757568359375,188.18537435417147
194,3346.7890625,-1166.5601806640625,1155.4996227417214,224.49204136469197,1163.759521484375,185.42402919267732
195,3425.99072265625,-1147.1976318359375,1158.1693348561857,226.52662016502376,1164.553466796875,176.2768456757142
196,3299.427734375,-1139.9542236328125,1153.896478398128,225.83406594543018,1160.0780029296875,304.7146530260724
197,4392.009765625,-1142.986572265625,1144.366826939765,222.04950730669825,1152.896728515625,331.61684606557924
198,3222.775146484375,-1184.298583984375,1166.539679943658,229.3477863899244,1171.4898681640625,176.98309790669276
199,3318.32421875,-1173.18115234375,1147.0469470925814,222.69246107118178,1155.443115234375,196.46703443305927
200,3469.719482421875,-1176.50341796875,1158.8751032361251,228.69297876446078,1162.7276611328125,223.67365445125478
201,2987.53173828125,-1146.27783203125,1147.2951371514155,222.30334654235372,1156.23974609375,213.37149703085768
202,3229.3154296875,-1141.823974609375,1150.2829914515235,222.77205547740238,1159.388671875,182.80731830341915
203,3276.21630859375,-1162.553466796875,1161.738291342466,226.82125714561235,1168.646240234375,181.34038915828717
204,3282.859619140625,-1181.30517578125,1162.116135719237,227.79488399308653,1167.901611328125,171.31474090679217
205,3012.458251953125,-1180.27978515625,1157.525280820213,224.40846451409868,1166.39599609375,172.99605886941697
206,3338.239501953125,-1166.383544921875,1153.0747977628341,225.738619650804,1159.1702880859375,209.30412303846936
207,3240.27587890625,-1143.345947265625,1154.8406219288563,225.73313589541664,1161.38427734375,181.15004326028276
208,3383.58154296875,-1128.657470703125,1147.395180604256,222.0011429261632,1156.7425537109375,199.9416045124945
209,3703.346923828125,-1145.3836669921875,1154.5314738201346,223.9125322388852,1163.273681640625,183.05868856598133
210,3355.126708984375,-1163.60888671875,1148.1494758895183,222.24359668703318,1157.38232421875,189.83987725721556
211,3264.228271484375,-1177.2198486328125,1157.7214587214976,226.21074252162276,1164.388427734375,177.8011658379872
212,3024.623291015625,-1172.4637451171875,1160.834812886269,225.97994604781388,1168.568603515625,169.3793325597886
213,3296.22412109375,-1144.3795166015625,1156.676617919266,224.26682449465972,1165.51220703125,180.68439909758274
214,3189.26904296875,-1127.232177734375,1145.414019158517,224.45413570705526,1151.199951171875,367.1133699451804
215,3685.951416015625,-1148.04296875,1155.118494259248,224.6787309665779,1163.0496826171875,378.71804010337087
216,3416.11767578125,-1174.2127685546875,1157.038739176017,224.45820179126864,1165.7255859375,186.87886375816748
217,3205.857666015625,-1158.1534423828125,1136.3716046682043,220.03331667319372,1145.4228515625,424.9151782898793
218,3236.45556640625,-1167.0858154296875,1151.7314015202242,222.79004276320492,1161.1767578125,171.43229583423442
219,3471.191162109375,-1138.3433837890625,1146.2102173036023,224.2711840814037,1152.423828125,197.04415745929253
220,3052.141845703125,-1149.4176025390625,1160.7803606221992,226.76127616861623,1167.52392578125,180.0602258306566
221,3645.49560546875,-1154.9722900390625,1155.13234852798,225.4467502618552,1162.10693359375,191.659013976034
222,3137.5537109375,-1178.77197265625,1158.056002555998,226.66654010883173,1164.23681640625,184.82199505967893
223,3531.59130859375,-1174.4544677734375,1149.6374784677855,221.98618004616415,1159.5640869140625,304.38655165898166
224,3314.5888671875,-1173.5091552734375,1160.2770025101136,224.92343624500714,1169.19189453125,172.4323221759581
225,3187.04736328125,-1151.03662109375,1162.290450753303,226.73855222615768,1169.43994140625,179.53211261746335
226,3028.396240234375,-1141.348876953125,1165.4352193615996,230.67670848589745,1168.4481201171875,170.6705902914255
227,3573.3642578125,-1136.9708251953125,1144.0711264444158,220.94493219085186,1153.90771484375,185.64121857345884
228,3302.046875,-1177.4371337890625,1164.9973607922689,229.54132129203225,1169.320068359375,176.5649456967598
229,3393.434326171875,-1171.5799560546875,1152.4647661629513,223.6320456925227,1161.040771484375,180.11347882913003
230,3496.27880859375,-1165.3065185546875,1154.4496477444186,224.0346574981225,1163.018798828125,200.02053876302904
231,2725.33349609375,-1147.5618896484375,1160.0434231175082,226.42869464289103,1167.0184326171875,180.11440865157522
232,3363.785888671875,-1141.461669921875,1160.3424081111893,226.18667966375193,1167.694580078125,194.10116940890202
233,3652.443359375,-1142.0435791015625,1150.6565845217792,226.39508676196004,1155.3267822265625,175.55987722110885
234,3570.07763671875,-1176.691162109375,1158.3628471267168,224.03020054220593,1167.915771484375,190.05083766595303
235,3407.55029296875,-1178.7041015625,1152.938205633472,222.57242408783299,1162.957275390625,230.41720433385905
236,2888.861083984375,-1172.1490478515625,1161.4309235870087,226.86155098073107,1168.211669921875,176.57490967858985
237,2730.3525390625,-1137.5650634765625,1148.2990236727169,223.32872948549888,1156.212890625,221.91361111619648
238,3214.095703125,-1142.0458984375,1155.232036404146,223.08259883357394,1165.186767578125,196.789840318752
239,3478.38671875,-1156.6585693359375,1164.4205874505687,228.95992081791638,1169.325927734375,184.23799548334125
240,3231.766357421875,-1168.0391845703125,1150.5319403240057,224.88633266776526,1157.0570068359375,377.73910086102285
241,3280.5400390625,-1170.1861572265625,1148.637392900971,221.40001371958573,1159.046630859375,183.29192091936736
242,3420.166259765625,-1155.321044921875,1144.463149986459,221.1727372385988,1154.113037109375,261.7270624912618
243,2867.951171875,-1156.0875244140625,1167.6971779433475,228.3144287434799,1174.228515625,186.96032506191423
244,3369.620849609375,-1125.333740234375,1140.8203881348977,220.91416404205657,1149.8828125,351.01858578722283
245,3249.89208984375,-1156.45751953125,1160.5275973342264,226.35986296161045,1167.7095947265625,177.81308010346194
246,3235.6015625,-1165.76220703125,1146.07550316766,221.50426804140295,1155.714111328125,376.4743452545503
247,3199.453857421875,-1185.2559814453125,1157.9707737720744,223.5155320204034,1168.0689697265625,185.01527644627947
248,3938.10888671875,-1161.599365234375,1142.9003334895174,219.13204618845361,1154.7103271484375,269.50458653630915
249,3702.396240234375,-1152.1165771484375,1155.563446020184,223.29350462764307,1165.33740234375,183.30608566318494
250,3061.111083984375,-1150.8599853515625,1164.9548169619138,226.60007836881215,1172.943359375,178.81225423350605
251,3140.486572265625,-1159.217041015625,1160.5918259380612,226.62649433596482,1167.4566650390625,168.9941795752509
252,2742.7412109375,-1184.0679931640625,1166.7143360093369,226.46108011753705,1175.3165283203125,179.7898697331486
253,3234.930419921875,-1187.19921875,1163.699124746518,227.66874683399638,1170.0379638671875,180.6720416044868
254,3345.6923828125,-1167.465576171875,1153.9936857319763,226.42226585516235,1159.46435546875,233.53684371684142
255,3119.608154296875,-1146.119873046875,1157.53872023828,227.0498888612504,1163.111083984375,179.25651418856452
256,3272.90185546875,-1130.0159912109375,1145.8157499506258,222.55383126280532,1154.077392578125,247.14209553161876
257,3291.751708984375,-1141.5521240234375,1149.4436814145156,223.95010541239446,1156.866943359375,374.8888861629659
258,2902.5556640625,-1176.777587890625,1160.1918071887007,224.9649858734121,1169.033447265625,177.74418980421572
259,3150.47509765625,-1176.11669921875,1154.6145464656797,224.506122803494,1162.635498046875,331.26732597057276
260,2979.2607421875,-1168.60986328125,1158.9530412099966,226.44172913056696,1165.63916015625,187.88747976151637
261,3216.916748046875,-1139.08984375,1151.1597430146778,223.84652225743156,1159.1416015625,276.0470680356354
262,3192.04638671875,-1148.2113037109375,1161.8097864192137,224.56753123217885,1171.552734375,176.95777034479138
263,3482.70556640625,-1146.9781494140625,1151.8394903775732,222.741212761072,1161.372802734375,293.2610290584318
264,2834.354248046875,-1166.919189453125,1147.3449871935372,223.1736936964515,1155.214111328125,309.48665299969826
265,3031.4541015625,-1171.2933349609375,1146.8261172453608,224.6907668272701,1152.669189453125,295.2422767661632
266,3543.196533203125,-1157.8804931640625,1141.3672785858453,219.69142671458582,1152.0948486328125,434.6157507087461
267,2800.42626953125,-1155.128173828125,1162.3976505261846,227.76283755125468,1168.29345703125,172.32541407712552
268,3408.12109375,-1139.3876953125,1149.8623514926596,222.8794341838521,1158.728759765625,183.64826803581497
269,3361.341064453125,-1149.3726806640625,1156.0611991783665,225.30215717759586,1163.44873046875,176.33750536442042
270,3435.19873046875,-1168.151123046875,1149.8018465039,222.94498023955651,1158.571044921875,250.11133372859845
271,3538.88623046875,-1180.690185546875,1158.697226282211,226.02534169778406,1165.83984375,277.12065392557787
272,3063.47509765625,-1170.7200927734375,1160.392960115989,226.92454495104153,1166.83544921875,345.0608317118348
273,3687.248779296875,-1143.068359375,1152.5328202192936,223.0749379639779,1161.8223876953125,275.03346266989735
274,3200.034912109375,-1126.626708984375,1144.004596041841,221.03474512020998,1153.71240234375,307.8588860161394
275,3922.9384765625,-1141.9786376953125,1150.6286715810838,221.2746091669144,1161.692626953125,207.08169059086686
276,3438.60205078125,-1167.638671875,1154.5425013579124,224.76963868510666,1162.216064453125,182.1601504160609
277,3231.403564453125,-1174.982421875,1153.7249221456875,224.01595944293643,1162.13623046875,173.38067065139344
278,3314.41064453125,-1155.7791748046875,1144.8130961489653,221.3269221317745,1154.3577880859375,366.71674391952973
279,3067.885009765625,-1146.9415283203125,1155.5555866044128,223.71428986006612,1164.8017578125,179.9430046339267
280,3034.55078125,-1137.8641357421875,1155.9515660211932,225.287455640782,1163.330078125,248.54936895716986
281,3872.833984375,-1152.062744140625,1155.686813930112,223.5268079195796,1165.199951171875,192.97179975816815
282,3170.229736328125,-1168.10888671875,1149.5088446393574,221.6237837091053,1159.8563232421875,456.396691468018
283,3649.16357421875,-1170.72802734375,1145.5296647229998,221.15356877239634,1155.4700927734375,284.83178343087087
284,3146.5693359375,-1175.494873046875,1163.9371503335242,228.17040530264416,1169.70849609375,183.12335557407377
285,3379.5048828125,-1148.019775390625,1156.7449568429854,223.7969673911001,1166.1849365234375,183.88445307316582
286,3749.500244140625,-1129.9488525390625,1146.5530630331973,222.57136257705497,1154.9771728515625,353.3925121729947
287,3304.802001953125,-1161.27783203125,1166.8068481054975,226.32777027756686,1175.598876953125,191.4552838899521
288,3271.761474609375,-1170.1199951171875,1152.9528869989504,223.36773331195008,1161.9814453125,190.92510015415854
289,3480.91845703125,-1171.99169921875,1149.4489550564142,221.6524958762975,1159.74560546875,237.72565938008438
290,3482.30615234375,-1166.17431640625,1155.2182044896515,225.88113946050723,1161.6712646484375,378.53086970489096
291,3069.17529296875,-1148.39501953125,1158.1250971779893,224.1947527394364,1167.4129638671875,173.97753009747734
292,3537.35498046875,-1140.4024658203125,1153.9410719500324,220.48709192140305,1166.8173828125,181.53409372459876
293,3570.52392578125,-1140.6072998046875,1145.0670063936266,218.89619494910565,1157.713623046875,207.13034070334527
294,3090.697021484375,-1172.0101318359375,1154.004088139688,222.10829301491887,1164.86962890625,183.20562064561713
295,2916.5,-1179.5015869140625,1160.0635256787373,227.8317870040965,1165.2896728515625,178.29457847611675
296,3742.763916015625,-1164.25634765625,1151.7294771178138,222.74063609079218,1161.236083984375,288.2458576166988
297,3105.004638671875,-1139.871826171875,1151.3443095124494,227.23959678776384,1155.130859375,447.21140773200653
298,3191.057373046875,-1131.0279541015625,1140.96477156734,219.04250542526952,1152.40283203125,359.5449370509413
299,3743.603515625,-1150.525390625,1143.7308735994789,221.0895511297675,1153.3016357421875,326.02841441242725
300,3293.14404296875,-1181.660888671875,1161.3635132255306,224.79572142980015,1170.709716796875,182.32428964212932
301,3432.024658203125,-1180.936279296875,1163.4029549007473,225.55207124996758,1172.3134765625,184.503440706565
302,3355.8291015625,-1149.90087890625,1148.969188878931,222.86117100516685,1157.635009765625,193.45852443092951
303,2915.736572265625,-1163.5093994140625,1165.2203794536044,228.76059067816055,1170.5748291015625,179.06456812857374
304,3290.462646484375,-1166.65380859375,1156.6966361351028,224.235790533544,1165.5760498046875,193.18309217845513
305,3393.63525390625,-1161.830322265625,1158.0835357689773,227.9056559377824,1162.722412109375,186.01059558346188
306,4210.36083984375,-1147.5634765625,1151.6504945806666,223.3140984348459,1160.42041015625,360.08948825275587
307,3430.00146484375,-1140.491455078125,1146.7801777422274,223.2884445130668,1154.36474609375,287.8591225966699
308,3791.0859375,-1165.9146728515625,1156.8835837829192,223.78438801647027,1166.3739013671875,257.4612619048971
309,2980.89111328125,-1169.6339111328125,1160.2518003854534,224.33676709268315,1169.893798828125,180.80972874880771
310,3449.480712890625,-1153.692138671875,1156.6410526653635,225.28466763700118,1164.195556640625,247.76600934988417
311,3836.69775390625,-1139.78466796875,1142.3573631559318,220.41829890355507,1152.423828125,434.3571830764739
312,3368.4384765625,-1168.4241943359375,1162.8560750642196,227.46833569196596,1169.234619140625,173.6155826658206
313,3130.578125,-1151.7283935546875,1144.400720947308,220.84736306003975,1154.441650390625,307.61943871291726
314,3510.90966796875,-1142.498779296875,1145.782363753341,219.82467332365349,1157.4471435546875,191.38634479425988
315,3244.8427734375,-1157.1385498046875,1163.1583723025628,226.81095866730885,1170.434326171875,179.7877712427663
316,3572.598388671875,-1168.4488525390625,1159.2346754080181,226.70614609779153,1165.66064453125,182.0995964898354
317,3615.625,-1165.7825927734375,1153.535398445155,222.89085799219754,1163.3056640625,183.58362537194864
318,3625.87109375,-1150.2584228515625,1151.1702019574839,221.15049783017213,1162.524658203125,197.51556122903798
319,3152.828857421875,-1149.4305419921875,1154.2553692978247,224.53973660882554,1162.14453125,180.77963876328883
320,4237.7060546875,-1144.8741455078125,1140.1115625558577,220.5737162528715,1149.42236328125,380.2535178872549
321,3211.47412109375,-1147.9429931640625,1147.2134928214755,223.25858538033634,1154.943603515625,198.9066723819782
322,2929.0986328125,-1163.44921875,1156.2475828843517,223.03838271669562,1166.511474609375,197.53381780938625
323,3104.649169921875,-1145.5523681640625,1144.2525000403623,222.79854372246055,1151.8173828125,376.65439207189553
324,3049.80615234375,-1161.8460693359375,1154.0420292406889,223.1437631159635,1163.622802734375,177.8175213724119
325,2843.64794921875,-1160.9373779296875,1158.5146831089114,226.65868640481,1164.820068359375,174.18459621808918
326,3081.58642578125,-1159.2442626953125,1163.423700817404,226.33661337691333,1171.35888671875,183.58392313369856
327,3432.1240234375,-1154.70068359375,1153.713936894167,224.97649085425206,1160.921875,191.822046869385
328,3247.24365234375,-1175.9100341796875,1156.681231216003,224.41671309809828,1165.33056640625,188.28143675344208
329,2927.025634765625,-1185.48974609375,1167.2531161987652,228.90526332496282,1172.934814453125,179.40584271517122
330,3522.5556640625,-1155.8184814453125,1150.7025430242388,221.4965044001905,1161.507568359375,274.18906943093594
331,3159.406494140625,-1135.92626953125,1152.046876510474,222.91563214907347,1161.4140625,192.02929852990474
332,3813.576904296875,-1124.4649658203125,1145.7907355354055,220.94363208272318,1156.058837890625,297.2175549889826
333,3692.53125,-1140.8453369140625,1148.642988145957,221.304843128333,1159.172607421875,189.51236933816716
334,3434.046630859375,-1159.99462890625,1147.277043910366,223.93551677022543,1154.1768798828125,223.60717871898578
335,3136.450439453125,-1180.03515625,1159.78611221736,226.17190837090527,1167.017822265625,177.88521485944506
336,3089.65087890625,-1156.6817626953125,1145.0297457992838,221.86169512865985,1153.960205078125,179.33553891563076
337,3096.30224609375,-1135.7130126953125,1144.204395096554,220.58989134560375,1154.51806640625,267.8885029875463
338,3215.66943359375,-1133.1915283203125,1145.7022258770498,222.79650709748586,1153.632080078125,176.76925425832943
339,3202.698486328125,-1153.32958984375,1157.4237292858697,224.8372692677117,1165.7330322265625,270.20464711857227
340,3024.38720703125,-1183.28662109375,1160.924571780067,225.48589501748603,1169.29833984375,179.4148898464705
341,3152.87451171875,-1192.71484375,1169.2371879478342,229.08553861578756,1175.1895751953125,182.24314549561174
342,3619.373046875,-1157.8634033203125,1142.0888364733532,219.3208699168043,1153.4599609375,319.8191742252445
343,3123.36083984375,-1143.095947265625,1152.1986223139827,224.38042573118844,1159.772705078125,178.51195981448333
344,3152.6689453125,-1142.9879150390625,1154.4224340721062,221.3910078807762,1166.289306640625,190.8330184206029
345,3684.64990234375,-1140.8785400390625,1146.9511142137408,221.83273924616566,1156.39794921875,332.1097696731448
346,3092.298583984375,-1172.8714599609375,1158.5061848268117,224.6305955514515,1167.344482421875,241.15557141333878
347,3797.50244140625,-1165.60791015625,1145.0694244589583,220.1990673508422,1156.087890625,385.35089093662555
348,3360.75390625,-1165.3570556640625,1155.5532630394873,226.0824937771734,1161.8385009765625,295.4471762629488
349,3466.99462890625,-1153.809326171875,1163.4936688454281,223.46441054655406,1175.0364990234375,184.13942541338528
350,3464.53271484375,-1139.38037109375,1156.942482990614,225.03907219826334,1164.8792724609375,206.70062929130683
351,3308.456298828125,-1154.5487060546875,1161.8472800745026,226.51351944341815,1169.167236328125,186.45872940809852
352,3639.86572265625,-1175.6231689453125,1157.6708134825565,223.48730398968232,1167.7293701171875,177.41310031727582
353,2919.203125,-1174.0404052734375,1154.02790461718,224.57666923939152,1161.8140869140625,185.58400048805865
354,3536.643310546875,-1173.8653564453125,1161.1706777747017,226.77025334194707,1168.00048828125,182.54557153102968
355,3281.531494140625,-1146.0194091796875,1154.6744821487061,223.282457917749,1164.239990234375,176.94995411374256
356,3283.43359375,-1144.8592529296875,1163.963261026807,226.64657639927407,1171.645751953125,200.94985911458335
357,3544.0869140625,-1155.100341796875,1164.5359261299634,227.6898519302869,1171.0576171875,186.36656419630168
358,3291.18310546875,-1171.169677734375,1156.0840513197827,223.2809437422202,1166.00390625,205.80368962172605
359,3224.729736328125,-1172.08837890625,1149.9878438042833,222.84378929607405,1158.9300537109375,177.7604019730192
360,3047.120361328125,-1165.2718505859375,1155.128570721876,225.0728182060833,1162.569580078125,183.4167431753418
361,2807.75927734375,-1146.4915771484375,1157.4371064273282,224.90040355600553,1165.6708984375,184.3563814795973
362,3589.619140625,-1137.6817626953125,1153.6928819566458,222.99550227219743,1163.371826171875,193.7333473462049
363,3452.6240234375,-1154.1165771484375,1162.4861803608314,225.64912076763068,1171.04638671875,175.20168302140584
364,3192.566650390625,-1185.428955078125,1168.181160765821,225.61845262044102,1178.203369140625,192.45699394243616
365,2945.533203125,-1170.723876953125,1147.1578513245327,220.69593466923055,1158.077392578125,212.78998826511045
366,3229.97265625,-1160.515625,1149.4291196389693,224.50510387854737,1156.155029296875,178.49177585000675
367,2728.084228515625,-1144.1610107421875,1156.0563886703194,225.35320432793506,1163.37890625,185.35441388585593
368,3228.1220703125,-1140.0125732421875,1160.8983406000357,227.44095391561794,1166.82177734375,178.3264808154329
369,3875.71142578125,-1147.7947998046875,1157.51223781388,227.72148978989324,1162.2384033203125,265.20462939210256
370,3516.98583984375,-1177.0108642578125,1161.637965594322,224.17592921116983,1171.8275146484375,193.2094659425728
371,2969.12451171875,-1182.6533203125,1159.6557122017462,224.03373275056666,1169.5274658203125,196.69093775324612
372,3221.83203125,-1161.9600830078125,1147.2678944800327,219.65369851331198,1159.517822265625,189.0350729880319
373,3050.334716796875,-1134.2454833984375,1144.796900491251,224.0459315223828,1150.938720703125,293.4899946485503
374,3012.428466796875,-1142.5870361328125,1157.0175101756267,225.9405682264977,1163.84619140625,184.38828172473177
375,3073.895751953125,-1152.428466796875,1155.2810653249849,224.2532033722032,1163.7847900390625,177.1611408347238
376,3345.890625,-1175.697998046875,1157.4728889223038,225.32693057021476,1165.1824951171875,175.49562570776422
377,3240.283203125,-1178.6319580078125,1153.3417844762107,224.30330991642685,1161.298095703125,176.7322056611152
378,3622.18798828125,-1160.5916748046875,1141.4374679634418,219.5452874252643,1152.365234375,321.9935563334419
379,3104.438720703125,-1149.3890380859375,1155.9694729715493,224.58470008670344,1164.23095703125,181.68785635837617
380,3407.501953125,-1148.9344482421875,1163.8966173015,226.59191563943642,1171.630859375,181.21210198592345
381,3242.620361328125,-1157.009033203125,1162.6730277373883,225.65580540443398,1171.271484375,181.97858525512032
382,3009.241943359375,-1163.8341064453125,1144.255410984866,221.4455574191731,1153.5123291015625,349.1423121735138
383,3066.74462890625,-1184.800537109375,1161.4956184336306,224.9613647886873,1170.667724609375,176.03643615112773
384,4087.7705078125,-1173.3189697265625,1158.1594671945727,223.2573851804887,1168.627685546875,188.4446571227173
385,2800.72412109375,-1149.3704833984375,1161.188371422741,226.4930813817713,1168.369140625,227.85628212986825
386,3098.76611328125,-1142.48486328125,1159.4398546102561,227.49896534710285,1164.9261474609375,187.0482090370862
387,3451.919189453125,-1152.0653076171875,1155.0134609993247,220.4528012212064,1168.2008056640625,187.48010694841204
388,2797.937255859375,-1169.783203125,1153.3878221409918,225.55595532828568,1159.789794921875,180.24223929422638
389,3304.476318359375,-1177.4857177734375,1153.920841959529,224.13159633021849,1162.236572265625,182.87403690848515
390,3523.8662109375,-1159.128173828125,1144.6945284208252,218.6699417492345,1157.53076171875,208.55767758140897
391,2949.273193359375,-1122.796142578125,1134.3930779463178,219.9214183336622,1143.089599609375,503.54095538117696
392,3448.49267578125,-1131.5487060546875,1145.3320276487834,220.27693636307794,1156.31884765625,351.43512809164855
393,3338.252197265625,-1151.8521728515625,1158.5757713759676,227.4747046912447,1163.876220703125,179.27427633286734
394,2846.93310546875,-1186.0262451171875,1166.4476436499658,227.22504981794964,1174.0283203125,187.94304517468797
395,3293.71044921875,-1178.192138671875,1153.930714306464,223.8090608926916,1162.652099609375,187.45517470404994
396,3699.24951171875,-1157.421875,1146.6025577146352,224.5678325254263,1152.54345703125,424.39559251792883
397,3051.145751953125,-1149.6405029296875,1158.9894270259488,226.86686509433875,1165.1531982421875,174.17812695449427
398,3107.1435546875,-1148.9576416015625,1161.3057205234472,224.3942295466366,1171.139404296875,188.30952802812496
399,3389.95458984375,-1146.9609375,1152.2616683642684,224.33834687874895,1159.9041748046875,183.27703067155903
400,2787.85791015625,-1171.409912109375,1152.609564310254,226.03453017169363,1158.21875,183.52831105215375
401,2841.385009765625,-1186.88427734375,1164.481917897664,227.18191649099435,1171.625,186.25831735734587
402,3616.652099609375,-1166.907958984375,1151.4875583333037,223.4986113709471,1159.9862060546875,241.48318920711532
403,2852.783203125,-1136.9188232421875,1148.5671457490193,222.736846347736,1157.287841796875,322.4512160456346
404,2834.674072265625,-1134.6055908203125,1149.9919629872816,223.22634270796948,1158.45703125,305.1870611175228
405,3406.422119140625,-1144.654052734375,1150.5973824462565,222.3196247062354,1160.3472900390625,188.50227700156313
406,2954.622314453125,-1187.761474609375,1173.5769639773864,230.61926017241652,1178.6971435546875,183.84153478640675
407,2994.989990234375,-1189.2591552734375,1168.4191030019228,226.57834572729496,1177.301025390625,178.60067530190662
408,3805.08349609375,-1165.2327880859375,1151.8482416318298,221.96298648580324,1162.3565673828125,320.13139259430386
409,3036.755615234375,-1149.449951171875,1160.4481306545938,224.59494891097194,1169.81640625,187.97676152200142
410,2803.51123046875,-1141.42138671875,1160.2267964423008,226.22075853946873,1167.507568359375,177.38138399982864
411,3607.08154296875,-1158.306396484375,1164.7260982241341,226.97713162562337,1172.1861572265625,187.2257627822337
412,3135.8662109375,-1182.069091796875,1162.1981425926394,226.27649008485741,1169.902099609375,174.386198307533
413,3454.452392578125,-1163.411865234375,1136.8128714637267,219.05496187968114,1147.1973876953125,430.37433239298133
414,3360.266845703125,-1181.884521484375,1164.5590322270132,226.27793672225238,1172.851318359375,187.1100678106816
415,3285.649169921875,-1159.5208740234375,1161.0784547592993,223.81317214029983,1171.58154296875,192.75643119467287
416,3180.41064453125,-1156.1917724609375,1165.3148370121808,225.4516404603809,1174.8291015625,180.12094196604136
417,3431.04296875,-1154.54638671875,1153.6888956124114,222.30841994827267,1164.2255859375,186.44151204678363
418,2678.0263671875,-1171.8109130859375,1151.483880159331,223.159919449759,1160.405029296875,298.5291858336479
419,3248.25341796875,-1180.785888671875,1154.7196121921736,223.0050337066847,1164.643310546875,315.89568860168293
420,3058.795654296875,-1172.3115234375,1160.3431174660896,225.29851330768784,1168.8056640625,385.02709506515316
421,2954.375244140625,-1140.18603515625,1151.0972598856201,223.05754085237874,1160.049560546875,255.79562821807545
422,3211.1904296875,-1141.3182373046875,1157.3885074140892,225.28917155288315,1165.124267578125,178.34709809989232
423,3386.991455078125,-1154.971923828125,1159.2409822784125,222.61966269833425,1170.7767333984375,186.80386852558783
424,3236.59423828125,-1168.114990234375,1156.4769031442213,225.97135054240704,1163.1319580078125,179.9755492127955
425,3292.827392578125,-1159.961181640625,1139.563134230407,219.83758303049393,1149.6568603515625,449.95915873924787
426,3372.37158203125,-1172.32861328125,1166.2769188640882,229.24387934191722,1171.291259765625,176.21484990871713
427,3384.368896484375,-1145.048095703125,1156.7673353635487,224.73172075383025,1165.04443359375,190.99193995564633
428,3093.568603515625,-1143.0745849609375,1162.734069392103,227.0387062996806,1169.619140625,171.59028485399688
429,3396.9677734375,-1147.35498046875,1156.563176748596,224.71235015138225,1164.8134765625,184.81846359377673
430,3376.7646484375,-1164.4483642578125,1151.1593275283935,223.4442327713135,1159.643798828125,314.4715950671044
431,2949.83447265625,-1193.8941650390625,1173.4518472378118,229.3410618965488,1180.138427734375,178.33575102275992
432,3452.1767578125,-1160.1488037109375,1145.493000256476,222.38015335744342,1153.89111328125,326.76376550737285
433,3048.349609375,-1146.397705078125,1153.6512616908742,222.9411824500752,1163.3876953125,188.13031610096644
434,3413.4775390625,-1141.507568359375,1154.104675612342,223.12170762766556,1163.728759765625,193.73451740823813
435,3200.708251953125,-1150.634033203125,1151.9694508716957,223.52464729999468,1160.5560302734375,267.23563616000035
436,2825.465576171875,-1178.6763916015625,1154.215971426489,222.68821292352874,1164.40966796875,188.67228076317772
437,3244.546875,-1187.7393798828125,1163.4862369119721,227.93871880169678,1169.434326171875,179.56286215869193
438,3817.5146484375,-1175.56103515625,1157.05247460199,223.53636561227452,1166.8951416015625,183.095666418436
439,3478.000244140625,-1148.893310546875,1149.4132804105564,219.5547557542605,1162.3232421875,291.97181448009565
440,3213.49609375,-1147.2437744140625,1158.9452450341755,222.37798183627672,1170.7091064453125,187.86685758716584
441,3231.681640625,-1138.2725830078125,1142.6412316043748,222.03717143133989,1150.755126953125,359.3633090000424
442,3640.640380859375,-1171.5755615234375,1154.1997655528232,221.67065140182223,1165.661376953125,270.16902510842846
443,3156.1005859375,-1181.37646484375,1161.4728377829133,227.2090467939911,1167.829833984375,172.96514897319096
444,3361.071044921875,-1158.6302490234375,1146.6932200256124,222.87102521093024,1154.7777099609375,273.13525166490774
445,3105.6865234375,-1129.80859375,1142.424923726835,218.8919140665909,1154.416259765625,183.3721146069525
446,3293.7734375,-1142.7606201171875,1157.5457599156912,223.4211536878164,1167.65576171875,180.8296781946251
447,3574.77685546875,-1136.5191650390625,1142.0223007866662,221.09109820812156,1151.1640625,301.61996233371
448,2924.36767578125,-1171.6802978515625,1153.4625809017653,223.30484538712437,1162.697021484375,183.46821653940665
449,2929.155517578125,-1184.350830078125,1159.91142925316,225.2079707294096,1168.37939453125,186.85719047757237
450,4024.902099609375,-1164.628173828125,1143.2799609968192,217.38785150737834,1157.365234375,182.83763983499867
451,2957.004150390625,-1157.184814453125,1163.0093376262198,224.5753897173414,1173.04248046875,192.00143392743016
452,3478.465087890625,-1141.533935546875,1154.666043033275,224.821374358806,1162.305908203125,182.43294506770656
453,3576.35791015625,-1156.4984130859375,1157.4405306393578,221.2448258454277,1170.24462890625,181.17927438356784
454,3130.455078125,-1161.406494140625,1146.021181272337,222.88652269727902,1153.9183349609375,376.8815220800315
455,2969.150390625,-1177.8162841796875,1154.6184012821345,223.5862965038447,1163.7900390625,242.49562988847245
456,3277.73779296875,-1164.85595703125,1156.2531828220938,224.8307568844412,1164.2779541015625,178.58641149385542
457,3167.782470703125,-1129.822021484375,1143.3950715240553,221.78213142720026,1152.01611328125,448.04358722388145
458,3619.776123046875,-1135.459228515625,1152.3253759068507,222.470377294447,1162.31884765625,189.93673574232682
459,3330.048828125,-1148.2752685546875,1158.5590048970384,225.18485185519864,1166.7177734375,182.51191427997378
460,3082.8427734375,-1166.41162109375,1148.8103184785718,222.35674448870378,1158.06689453125,220.2826003717418
461,3211.800537109375,-1177.0052490234375,1153.248829560349,223.3619265843129,1162.358642578125,301.87042390123736
462,3388.93212890625,-1171.7567138671875,1158.0190944915803,225.01764972267466,1166.2518310546875,327.8936540157075
463,3081.66796875,-1158.097900390625,1162.6809119248371,223.28965391158857,1174.239013671875,193.76984330219284
464,2961.7939453125,-1142.6102294921875,1150.2024880933131,221.78933257931132,1160.5164794921875,261.8267537380489
465,3157.223876953125,-1159.7242431640625,1161.760160266017,225.63366795048614,1170.158203125,191.4714199643613
466,2987.169677734375,-1176.369384765625,1154.0848073450225,223.98535756741927,1162.624267578125,222.47376416520774
467,3329.078125,-1187.392578125,1158.9340200504541,221.34206157534112,1171.989990234375,187.04215606838278
468,3156.199951171875,-1158.21728515625,1139.549077807001,220.01679862552047,1149.4154052734375,451.57243202743234
469,3875.8759765625,-1152.5035400390625,1157.815961356761,223.48944205820746,1167.908203125,191.65102808373953
470,3163.96044921875,-1139.44921875,1149.5752105307201,221.14428805228255,1160.53857421875,273.93548058983873
471,3230.14501953125,-1159.378173828125,1163.3161683641601,225.9627845607924,1171.6917724609375,194.91702290958895
472,2956.266357421875,-1182.406982421875,1161.3040942749924,225.4140459141677,1169.862548828125,181.67362625721734
473,3206.82470703125,-1174.8292236328125,1147.9368302747994,220.09766046259676,1159.799072265625,282.29940685962083
474,3495.681884765625,-1177.6297607421875,1163.8805878192495,226.27896321120954,1172.001953125,178.16412776741365
475,3521.287841796875,-1146.71875,1151.7431539458803,220.657633106189,1163.85693359375,188.85213830453185
476,3412.44189453125,-1140.52490234375,1155.4180571885136,223.66405353260308,1164.6925048828125,221.6752943038223
477,3429.260986328125,-1157.8948974609375,1164.5785244461051,228.17305500469118,1170.5068359375,184.87719813807718
478,2888.899658203125,-1180.683349609375,1163.4707679839166,225.04483028960544,1173.032470703125,191.34036262499683
479,3333.325927734375,-1163.049560546875,1140.4794428046557,219.2233706410737,1151.570068359375,247.98397387573624
480,3276.96044921875,-1166.265380859375,1154.069573545797,223.9778107884957,1162.61474609375,271.5396314076647
481,2839.57763671875,-1149.14013671875,1159.9955030745195,224.437220675342,1169.4478759765625,177.68866650738622
482,3917.42626953125,-1135.6368408203125,1153.2278077798055,222.96345791985246,1162.830322265625,200.26389303357604
483,3450.195068359375,-1151.8624267578125,1159.0546529176672,221.98515287665907,1171.3369140625,188.36011002387906
484,3195.11279296875,-1174.697265625,1161.2630263411536,225.6922125005259,1169.4635009765625,194.01976839466167
485,3000.74951171875,-1182.394287109375,1158.4818826760434,223.1171824897907,1169.205810546875,194.8067790483109
486,3453.192626953125,-1182.244140625,1170.131730501004,227.3185255926331,1178.516357421875,177.51984646742483
487,3313.14404296875,-1130.8697509765625,1138.5549780046497,218.57305463905664,1149.977294921875,279.48071547838214
488,3064.8603515625,-1152.84814453125,1170.5246896300675,228.11020756105188,1178.01806640625,175.44810473110394
489,3444.7236328125,-1147.153076171875,1154.0155887076294,222.70078570336455,1164.1435546875,298.34366089929523
490,2833.2021484375,-1175.2479248046875,1159.3857686498486,225.97420182016714,1166.764404296875,201.00736124123551
491,3312.42041015625,-1170.5250244140625,1147.2022629473777,222.63747427206937,1155.7059326171875,390.94454533694875
492,3334.208984375,-1178.458740234375,1163.8330844811476,225.13930997171764,1173.3671875,179.74860561778502
493,3556.85595703125,-1155.291259765625,1162.3395542370936,223.39766716834487,1173.6773681640625,192.83322295236098
494,3117.113037109375,-1135.5421142578125,1145.5444533988507,220.87044936862304,1155.842529296875,339.3684203169013
495,3305.669189453125,-1161.709716796875,1163.9253963652818,225.72962231075434,1172.74462890625,173.2812358737474
496,3227.539794921875,-1180.3533935546875,1159.7851150257225,221.9147845012779,1172.337890625,220.6605573337724
497,3460.663330078125,-1175.766357421875,1151.2759312217918,222.03027840311188,1161.55712890625,193.49719550463445
498,3344.757080078125,-1178.4610595703125,1165.1323578777988,224.7055628481584,1175.533447265625,182.5525670634829
499,2779.62646484375,-1155.7142333984375,1166.626332597073,228.9611588161551,1172.0814208984375,187.896198198335
500,3234.92578125,-1140.122314453125,1153.6729642538116,221.46525757589785,1165.259521484375,187.5465624932022
501,3325.27392578125,-1163.09228515625,1166.914167667776,226.49317443504862,1175.526123046875,182.97490781745657
502,3096.799072265625,-1185.972412109375,1164.4140557077117,227.57200572754812,1171.052490234375,182.07659753799007
503,3376.7158203125,-1194.8902587890625,1165.6611434905954,226.63121790580223,1173.7874755859375,182.56836028285534
504,4162.55859375,-1178.765625,1157.4173179244308,224.2900717829973,1166.408935546875,184.28193443803622
505,3671.430419921875,-1158.763427734375,1159.63608218627,225.81276280479454,1167.2791748046875,210.29900348746608
506,2997.424072265625,-1148.2158203125,1156.1636643980457,222.67550555214416,1166.8602294921875,180.1186200617081
507,4087.24267578125,-1147.818359375,1146.2712959854598,219.65325888085312,1158.2724609375,290.30055140450895
508,3227.35107421875,-1187.176025390625,1169.3146866903746,229.29283376793484,1175.0272216796875,190.37823302233025
509,3218.78515625,-1177.137939453125,1152.2910861197279,223.1641720000073,1161.40869140625,181.71531662133012
510,3187.5947265625,-1181.6346435546875,1167.986426670156,226.04851160725195,1177.42236328125,190.74147125083024
511,3465.289306640625,-1146.4146728515625,1154.345956328362,221.62071061417444,1165.906494140625,183.04240097877135
512,3128.04931640625,-1146.3994140625,1165.0236173156056,226.7137092593466,1172.887451171875,192.7071917346523
513,3839.03955078125,-1151.009521484375,1159.6686160563231,223.86635659921154,1169.7529296875,195.8661475836203
514,3430.197998046875,-1167.639892578125,1154.5832111387617,224.84083156875448,1162.177978515625,181.4732207199026
515,3226.91552734375,-1174.54345703125,1155.6180475430551,225.07754382658624,1163.175537109375,183.3698170180247
516,3072.963623046875,-1163.7943115234375,1151.2496802796013,221.7547873605375,1161.86865234375,181.2462487085617
517,3343.38330078125,-1143.813720703125,1150.90037850737,220.84886795877856,1162.564453125,187.20983459100682
518,3430.42578125,-1139.6143798828125,1153.3109453870748,221.58838721055724,1164.6531982421875,325.3432476826725
519,3329.9384765625,-1135.9044189453125,1139.7602587644856,219.00434557841214,1150.9449462890625,346.1767380822319
520,3146.623291015625,-1182.42578125,1163.67221349026,225.55368304396893,1172.648193359375,194.1358654809112
521,3397.487060546875,-1187.688720703125,1161.0320502155296,223.86019843749926,1171.46484375,192.97842779786063
522,4034.09033203125,-1168.6993408203125,1149.4812084742698,222.26348655902476,1159.022216796875,196.05030228494255
523,3349.46533203125,-1149.03271484375,1155.8586403970878,223.33701514054945,1165.6519775390625,187.15598535536944
524,3062.0439453125,-1151.12744140625,1161.4473243948391,223.7536281820706,1172.1171875,187.17163515659766
525,3241.48046875,-1147.7578125,1145.8333674681783,221.29817352420105,1155.6690673828125,388.38431270166757
526,3032.20068359375,-1184.4539794921875,1162.7142029103484,223.0801709589208,1174.54248046875,181.15293892190036
527,2994.5615234375,-1181.6134033203125,1158.2393788446034,225.0122562397563,1166.533935546875,186.03598522564096
528,3870.048828125,-1158.0931396484375,1142.7849072344575,218.93111404254762,1154.817138671875,278.9488036106042
529,3380.371826171875,-1141.955810546875,1153.755481618294,222.24681138361373,1164.3857421875,184.50440222974828
530,3257.27490234375,-1126.9493408203125,1144.6718262290979,221.1772379970574,1154.3681640625,274.3942063001637
531,3303.64794921875,-1151.2803955078125,1159.5748733874514,225.43392443620695,1167.67626953125,188.6127919311044
532,3236.694580078125,-1172.02783203125,1159.2832195980263,223.92236418554313,1169.201171875,178.67213216573015
533,3246.11962890625,-1176.7845458984375,1153.480444393043,222.8194645499032,1163.326171875,178.67081274321518
534,3285.407470703125,-1158.7760009765625,1144.152792129029,218.16184078167814,1157.48876953125,281.2486701124864
535,2931.981689453125,-1149.7369384765625,1159.7872444151822,222.3839672326032,1171.754150390625,194.67964860220178
536,3523.990966796875,-1138.8360595703125,1152.3469746251812,224.37437931497007,1159.9658203125,292.74534965821914
537,3633.871826171875,-1151.2911376953125,1149.974598755777,221.3657190942167,1160.760986328125,197.6823320083482
538,3194.229736328125,-1172.5906982421875,1150.4184091096238,222.25090622952735,1160.2093505859375,283.9145607873927
539,3447.250244140625,-1197.3023681640625,1167.5657032708993,226.36457614706654,1176.50146484375,185.8811797270268
540,3743.447998046875,-1182.09033203125,1162.3514996485844,224.6554017024173,1172.1201171875,181.988254823837
541,3081.62255859375,-1157.1466064453125,1159.8880688966515,223.23017984044557,1170.822265625,182.69301899826183
542,3105.781494140625,-1147.41357421875,1158.1914517610528,223.83257966332206,1167.9486083984375,205.75907364969171
543,3153.86865234375,-1157.3565673828125,1157.840059268006,224.23374146176187,1167.0078125,225.6973594687118
544,3057.43896484375,-1172.265625,1154.296675399607,223.81325918688435,1163.104248046875,308.3619619487392
545,3894.451171875,-1191.34765625,1164.3397164533567,222.5727040956448,1177.208740234375,187.25462815000753
546,3312.68359375,-1175.2171630859375,1159.8383372395933,223.5577992289961,1170.3507080078125,181.11400989925045
547,2852.001220703125,-1141.2310791015625,1149.3988313233265,220.64402385109724,1160.9434814453125,179.2465692606916
548,3370.009033203125,-1146.82080078125,1161.6836847481404,223.282995527712,1173.000732421875,181.00979649177722
549,3608.488525390625,-1145.4149169921875,1153.735559045184,222.37687947641626,1164.1983642578125,186.48485326584952
550,3298.787841796875,-1172.2987060546875,1159.942822378086,225.98235439579372,1167.4505615234375,192.10806077308192
551,3009.07177734375,-1169.28076171875,1148.1334895036134,223.25347932790834,1156.0999755859375,183.27524528760046
552,2742.53271484375,-1166.6866455078125,1155.6351930437186,224.54525647736565,1163.8624267578125,178.13079451381472
553,3665.195556640625,-1143.84033203125,1152.7544018302156,221.61319866516115,1163.926513671875,278.4130479702006
554,3509.90673828125,-1128.4935302734375,1144.9425108746436,221.9851561859991,1153.6966552734375,398.9352594355771
555,3493.09033203125,-1154.6068115234375,1158.3694177268203,222.8907187102492,1169.348388671875,187.40871485713055
556,3990.5341796875,-1177.9959716796875,1158.6029942712091,223.16965376942392,1169.291748046875,194.03013789014176
557,3432.337890625,-1179.97705078125,1155.0918493868417,223.72862149491976,1164.2041015625,206.61526058733136
558,3304.93310546875,-1169.8370361328125,1154.8780515873168,222.72007357713943,1165.197509765625,186.87077341139508
559,2988.195556640625,-1152.96875,1163.622558911708,225.7005110105542,1172.402587890625,178.52299006341826
560,3123.32177734375,-1148.90869140625,1160.4963813201157,223.29754783069762,1171.49853515625,173.79239244954198
561,3237.171142578125,-1153.8719482421875,1158.727252750466,222.97449112422254,1169.69091796875,194.7680446362409
562,3178.2529296875,-1168.92138671875,1148.086137408129,219.5222874344502,1160.704833984375,204.24237412115608
563,3147.11279296875,-1181.5147705078125,1154.6345605484853,221.11805008572443,1166.895751953125,186.69907523274233
564,3142.81396484375,-1178.431640625,1167.6711697789005,228.20260684211763,1174.335693359375,189.28705201192525
565,3155.82373046875,-1153.0662841796875,1160.5833946444786,225.47650763771904,1168.883544921875,189.43596285541892
566,3015.71630859375,-1135.055908203125,1150.5277934285261,223.5693459960081,1158.6981201171875,185.06341186060294
567,3366.5234375,-1147.330810546875,1151.5813235009668,221.97005569288712,1162.01416015625,185.7707669771813
568,3199.87158203125,-1179.9952392578125,1163.6302354274853,226.87142657624327,1170.948486328125,189.46222349027977
569,3945.41796875,-1173.034423828125,1146.0669330355877,219.18882906410636,1158.59765625,188.69504893572307
570,4299.2236328125,-1161.635986328125,1144.2686836310354,220.29935372552538,1154.961669921875,346.9404297898992
571,2949.85107421875,-1150.86181640625,1158.9565987200624,224.59824949215707,1167.947998046875,186.90032483878213
572,2911.55517578125,-1141.38037109375,1156.7428346137694,225.39772442385478,1164.181396484375,179.78364257226514
573,3533.895751953125,-1142.7696533203125,1143.8284842082405,218.34777112688062,1156.850830078125,204.12398970649372
574,3208.23095703125,-1173.95654296875,1155.2879356780454,223.63951422361583,1164.560546875,182.68349856202846
575,2969.481201171875,-1186.0430908203125,1160.1143783535204,225.55715816871728,1168.196533203125,182.4223456908981
576,3848.078369140625,-1177.413330078125,1161.2063083777975,222.40952841144318,1173.4959716796875,181.8885169631075
577,3376.8984375,-1148.261962890625,1155.3741941693274,223.03342871694232,1165.4259033203125,196.81777019978796
578,3737.10498046875,-1145.5762939453125,1157.2421983452937,222.55180193208676,1168.363037109375,221.806481217719
579,3382.0634765625,-1161.7188720703125,1164.584701711674,225.16513341142652,1174.2745361328125,184.1802246413309
580,3201.795654296875,-1186.5545654296875,1170.7625688654605,227.41685849253554,1179.18212890625,188.60579552918858
581,3391.24462890625,-1178.0350341796875,1153.124045810875,220.71032610910788,1165.5172119140625,194.61347809738047
582,2930.5771484375,-1169.36279296875,1153.6156279597617,222.3587121997213,1164.0711669921875,173.8917211771769
583,2853.935302734375,-1157.200439453125,1167.8715324522852,227.55007270592455,1175.4017333984375,189.1809037907065
584,3505.01611328125,-1152.2646484375,1162.859030624309,222.15068808404487,1175.885498046875,193.05381982021356
585,3505.6826171875,-1152.8629150390625,1151.859949702376,220.8356623831927,1163.7802734375,243.6009004503967
586,3039.01708984375,-1181.1021728515625,1164.2108358539322,226.89386126172332,1171.646240234375,181.6666939945059
587,3188.072998046875,-1164.968505859375,1141.9981460985719,221.7075351414261,1150.36328125,239.06404830934693
588,3057.79833984375,-1173.19580078125,1159.2073437612758,225.56989745313984,1167.0467529296875,184.12531885492868
589,3040.1142578125,-1141.089599609375,1148.691009077514,222.0559615702279,1158.2938232421875,344.5384268779741
590,3252.69482421875,-1153.010498046875,1167.321106949728,226.16883610812926,1176.4403076171875,193.8323988463418
591,3666.832763671875,-1149.2218017578125,1154.447814463365,223.69556243299246,1163.440185546875,189.48650334157477
592,3252.797119140625,-1166.949462890625,1148.6736030409475,222.4338368008275,1157.7998046875,189.04316087992342
593,2867.913818359375,-1184.896728515625,1163.390204488132,224.49955040106528,1173.61328125,192.07023096357574
594,3308.0595703125,-1170.3919677734375,1155.1362614624636,222.88838038374354,1165.309814453125,187.10206465832337
595,2958.853271484375,-1158.9942626953125,1168.1658491404412,225.73317089394303,1178.0408935546875,192.80881928639303
596,3551.406005859375,-1146.795654296875,1160.524507871608,224.00438696477818,1170.650146484375,192.43542237902602
597,3267.64697265625,-1129.6041259765625,1134.6611394081692,217.0545099471192,1147.00830078125,506.0499811487365
598,3090.2197265625,-1170.2030029296875,1152.0342714557119,222.4645776280828,1161.962158203125,180.2407615742428
599,3200.642822265625,-1185.7840576171875,1159.8479951435033,224.70037463244833,1168.9344482421875,191.4299288913132
600,3275.373046875,-1168.2874755859375,1156.816700266482,224.79384845364257,1165.028564453125,190.71894883378545
601,2973.908203125,-1157.2347412109375,1168.218275231925,226.99931860646333,1176.523681640625,190.6500975812335
602,3156.228515625,-1131.5281982421875,1145.381881497613,221.46902690958112,1154.89111328125,193.13830355853926
603,3514.61474609375,-1164.2171630859375,1165.7676184267393,224.3283497423521,1176.799072265625,187.4926422027701
604,2908.1162109375,-1175.2008056640625,1154.8388527887078,223.2927215116233,1164.4326171875,195.0224713233029
605,2783.8974609375,-1190.6776123046875,1170.410281850882,230.40927932459863,1175.0013427734375,182.02926624553848
606,3441.9013671875,-1159.5772705078125,1142.7704190618206,221.00154110256915,1152.211181640625,362.8360769568417
607,3247.60986328125,-1149.1011962890625,1154.378069448891,221.223411208811,1166.4432373046875,198.39413564906687
608,3467.34619140625,-1138.8485107421875,1150.946936468195,221.58595495612525,1161.701171875,193.74544303300624
609,3530.65283203125,-1143.5333251953125,1147.8989877070785,223.9483170546145,1154.9383544921875,326.48941099313674
610,3233.13037109375,-1173.38818359375,1154.2197148957662,224.02026034979147,1162.749267578125,244.100158609336
611,2765.65625,-1193.0897216796875,1169.3162308096412,227.49430144424468,1177.27734375,187.48776491627302
612,3042.607177734375,-1169.4871826171875,1154.2231226438155,222.39544154344682,1164.78466796875,306.84407528310265
613,3427.78466796875,-1146.656005859375,1152.598930881422,219.59907100002076,1166.2498779296875,188.19780786136155
614,3102.22802734375,-1155.0802001953125,1169.103799442797,226.1312064929297,1178.7156982421875,179.5036951432747
615,3673.4111328125,-1141.5125732421875,1147.6278037103002,219.4206075044458,1160.259033203125,193.8808119286071
616,3579.278564453125,-1162.5828857421875,1144.5574865182016,221.0408432562922,1154.3958740234375,184.64091647911005
617,3301.7333984375,-1180.9241943359375,1156.2944372207176,221.96843396725765,1167.907470703125,191.92159831987902
618,3192.8095703125,-1173.6917724609375,1162.0058148469388,224.55500288862606,1171.8134765625,191.27469234768427
619,2963.560791015625,-1151.1253662109375,1160.7441924866398,223.9143871124943,1171.037353515625,187.6211991252373
620,3427.3544921875,-1142.241943359375,1156.7759700067481,222.56788208560556,1167.760009765625,190.77717581296275
621,3373.8212890625,-1153.954833984375,1164.1311664168034,227.71997831503452,1170.513916015625,183.56907730429853
622,2971.071044921875,-1170.0245361328125,1154.8053610172087,223.69499013088284,1163.887939453125,185.65241111468964
623,2799.86572265625,-1181.4964599609375,1158.1462530594765,223.99779605683682,1167.685546875,180.1808935593251
624,3234.44873046875,-1158.242919921875,1147.2332967697448,221.88942250896145,1156.679931640625,377.0975328478745
625,3273.9208984375,-1133.8121337890625,1142.7811947726304,219.65692476263595,1153.9053955078125,206.63895119404725
626,2890.239501953125,-1135.56982421875,1152.4102342621572,222.91181881587573,1161.873046875,362.6726910587418
627,3717.023193359375,-1160.384033203125,1162.7087444652354,223.11286057126884,1174.494873046875,193.23819494791437
628,2993.775146484375,-1174.223876953125,1156.6624555948508,223.5167993667853,1166.43212890625,189.70832081180808
629,3169.332275390625,-1190.8736572265625,1167.2029827158526,226.14525342393654,1176.322265625,175.24317669238863
630,3619.126953125,-1167.6934814453125,1150.696466908541,221.69313100346596,1161.254150390625,195.74099855947617
631,3287.04345703125,-1135.296875,1140.3039344945066,219.7745431103818,1150.6617431640625,358.5506496518646
632,3143.432861328125,-1147.67626953125,1157.3852659239478,222.59844054123835,1168.4835205078125,193.20692234444337
633,3102.44091796875,-1160.1717529296875,1162.8189613374964,225.57848210661558,1171.550537109375,190.2427663642377
634,3158.493896484375,-1179.83740234375,1158.6059527990287,224.06365166873388,1168.1778564453125,181.77113286009103
635,3462.77197265625,-1172.1834716796875,1147.881754270226,220.43908207717567,1159.3033447265625,357.35206957218674
636,3475.12890625,-1179.53076171875,1165.5065181446255,224.63197304727444,1176.0931396484375,186.74335165087027
637,2850.854736328125,-1148.98486328125,1161.7654148851182,223.15299918396724,1173.2655029296875,185.15440132676446
638,3244.1357421875,-1139.049072265625,1160.6011006603217,224.9510163078283,1169.562744140625,192.21695755034264
639,3879.78759765625,-1139.5615234375,1152.269966791781,223.97891459337086,1160.36376953125,377.85109644639124
640,2963.610595703125,-1172.777099609375,1161.8104278668673,224.85518922655882,1171.194091796875,199.84600421220614
641,3211.8720703125,-1185.20458984375,1163.3461140042618,225.17986616515392,1172.707763671875,200.7871919916301
642,3209.275146484375,-1173.896240234375,1166.4317035948188,226.5214429651647,1174.887939453125,185.07892923308503
643,3360.61279296875,-1145.8250732421875,1156.5526155234452,222.65149543296053,1167.37646484375,196.0966040970743
644,3335.252197265625,-1148.640625,1161.3475969117749,225.3501997274027,1169.996826171875,191.27735589128935
645,3037.509765625,-1153.054931640625,1155.981099504262,225.48357972505656,1163.121826171875,374.34615263728267
646,3275.114990234375,-1182.0740966796875,1160.3806912458804,224.27323257097268,1170.13427734375,190.94582501601508
647,3314.41552734375,-1191.737548828125,1165.8981462263578,228.93376798863343,1171.2054443359375,194.25935693117106
648,3884.58251953125,-1185.474609375,1164.0312103132608,224.99936188262706,1173.789794921875,188.9236045785799
649,3156.21875,-1148.2454833984375,1152.532132731438,222.01622256493584,1163.1448974609375,277.6390891468627
650,2997.11083984375,-1146.3782958984375,1156.92881073047,224.06229683448157,1166.0831298828125,219.8312062520151
651,3225.98876953125,-1146.4998779296875,1144.274946877947,220.0550649380593,1155.27490234375,392.5945943539643
652,3160.420166015625,-1183.9002685546875,1161.554252737621,222.5666825710333,1173.734375,194.055435043603
653,3255.948486328125,-1183.0577392578125,1158.3576706197962,224.35387664110488,1167.5047607421875,185.9828543548352
654,4052.26513671875,-1169.3214111328125,1149.6914767289468,218.43552899602116,1164.06982421875,314.6612828730591
655,3475.857421875,-1147.6239013671875,1155.2622124649558,221.8524893466356,1166.76220703125,302.58141951141823
656,3375.71630859375,-1139.46533203125,1157.0091662299872,220.2921903026343,1170.896240234375,194.14939878268342
657,3557.785400390625,-1153.382568359375,1161.2544774428443,225.01523050223142,1170.299072265625,302.44288251477656
658,3572.705322265625,-1173.474365234375,1155.985157309131,219.40665587003642,1170.72314453125,194.60603785084197
659,3298.074951171875,-1182.94580078125,1164.2675597243633,224.88183630040547,1174.232177734375,186.66909860011967
660,3228.45849609375,-1170.357177734375,1163.350437507222,224.320416268895,1173.78759765625,182.83393976861313
661,3254.59228515625,-1140.9090576171875,1151.074823382862,220.4477534446791,1163.283935546875,219.76357764127727
662,3667.85986328125,-1143.356201171875,1156.7538406160206,224.14972734716824,1165.755126953125,369.60972549715495
663,4354.47119140625,-1146.89208984375,1149.71940160956,222.43556046452153,1159.1048583984375,318.9397881889714
664,3755.819580078125,-1171.0291748046875,1154.3092900404365,220.09937255472244,1167.762451171875,197.0306769467086
665,2861.62744140625,-1156.3031005859375,1150.6361590581246,223.97951198390194,1158.32080078125,350.3715612380573
666,2736.06494140625,-1151.813720703125,1152.3737236065704,223.2430857224304,1161.413330078125,327.72610423377563
667,3473.5634765625,-1169.41796875,1163.8460265091594,224.0950374177629,1174.688720703125,204.60810652166845
668,3587.42822265625,-1154.81884765625,1145.559429560205,219.9244487147535,1157.043701171875,303.8563288291563
669,3228.543701171875,-1162.9677734375,1160.480100452041,222.4695004991047,1172.5133056640625,200.2310216163115
670,3336.3349609375,-1154.512939453125,1152.084181952564,220.86907578715505,1164.018798828125,197.4977525527191
671,3249.905517578125,-1176.6048583984375,1163.772634050593,224.82785777781908,1173.6810302734375,192.95604423947742
672,2762.260986328125,-1174.5643310546875,1168.0308072663947,229.9093768216772,1172.6517333984375,180.08703279696238
673,2728.6279296875,-1160.855712890625,1163.3187087170124,223.76035538830757,1174.4478759765625,182.71001044612223
674,3354.35498046875,-1154.88671875,1158.283095211913,221.05867388956707,1171.530517578125,202.9446526185998
675,3682.578125,-1160.623046875,1147.0460626132776,217.71753231361393,1161.66064453125,361.998720397887
676,3427.122314453125,-1169.2264404296875,1160.141736722304,222.8591252568496,1171.603271484375,192.17031271230465
677,3062.951171875,-1163.00830078125,1168.4704512035673,225.04327687380953,1179.283935546875,187.63293523892602
678,3273.9560546875,-1152.8643798828125,1153.1238895613951,220.39085664341877,1165.916259765625,369.4625863077047
679,3508.582275390625,-1163.5640869140625,1149.8346385785621,220.92248588290622,1161.14013671875,195.22549406599538
680,3576.10009765625,-1174.00634765625,1159.0814699378423,220.24777141479768,1173.5419921875,205.42936918685075
681,3398.582763671875,-1163.9071044921875,1165.9150517401022,223.07363464205685,1178.5517578125,193.093307325387
682,3688.459716796875,-1154.7476806640625,1158.5917114905103,222.7027985981686,1169.861083984375,188.51465767848535
683,3500.8291015625,-1166.787353515625,1156.2521929707136,221.38634388109105,1168.582275390625,189.6165859077929
684,3387.57373046875,-1158.486083984375,1150.862289570348,220.309426806943,1163.191162109375,202.0247348410971
685,3479.8759765625,-1161.019287109375,1164.695550476066,224.39346374129423,1175.3775634765625,176.22707481373735
686,3079.755859375,-1161.90771484375,1157.3688226408601,221.73270656534424,1169.545166015625,199.2944307434292
687,3578.902099609375,-1159.5594482421875,1148.9658461007116,219.85811462279509,1161.3846435546875,212.97716446866008
688,3230.17236328125,-1144.7369384765625,1141.5587118792373,219.66949578998845,1152.361572265625,406.96699522954407
689,3556.57958984375,-1165.66650390625,1162.9097650427352,223.9433445114621,1173.7080078125,210.53374493004526
690,3664.333740234375,-1156.710693359375,1150.7376448447908,220.03739996506795,1163.375244140625,262.0910462196414
691,3215.267578125,-1170.597900390625,1158.5751650976722,224.7494744944159,1167.2821044921875,314.8887136554809
692,3433.01513671875,-1156.4091796875,1145.5223803066897,220.42413213488334,1156.372802734375,318.11738705382203
693,3840.7724609375,-1150.8990478515625,1153.5888711972261,221.69595593047393,1164.8662109375,194.83932687862566
694,3613.29052734375,-1147.5120849609375,1149.919393689539,218.10749439707,1164.764892578125,218.72370829875166
695,3713.263427734375,-1167.5548095703125,1155.8435612194799,220.46302657058442,1169.2257080078125,204.9876132395707
696,3007.14697265625,-1168.3668212890625,1162.6450832145997,223.4992809074708,1173.932373046875,179.07404843767296
697,3318.230712890625,-1154.1781005859375,1157.0311648783656,220.90617586946217,1170.15625,188.97059962327415
698,4315.64111328125,-1147.21142578125,1149.719063470854,220.81537796069523,1161.129638671875,423.5745828349901
699,3142.58740234375,-1165.1966552734375,1154.9031327955443,220.88635566160264,1167.52099609375,192.4990957631349
700,4063.49267578125,-1163.283203125,1152.7611104853306,220.55573521925544,1165.2567138671875,199.16131955366933
701,3591.50439453125,-1154.947509765625,1156.7157539563336,220.37684728671692,1170.423583984375,198.23830888142442
702,3029.96826171875,-1154.8753662109375,1156.9732334111782,224.68278565154975,1165.363037109375,186.97717986212382
703,3529.49267578125,-1183.9910888671875,1167.3596595689319,227.83194127526514,1174.40966796875,199.63095738563092
704,3663.37451171875,-1169.4901123046875,1146.5291554577898,218.37423266249402,1160.193603515625,290.7149555855716
705,3624.173095703125,-1155.8348388671875,1150.2548584174663,220.87580828185378,1161.723876953125,336.2005111435765
706,3398.29296875,-1137.33349609375,1150.0697532524532,221.57330922383733,1160.62060546875,195.22608850362758
707,3320.968017578125,-1144.1156005859375,1159.6427818759448,222.31264755568554,1171.662841796875,199.11058040700195
708,3630.24072265625,-1155.97509765625,1157.8816870571009,223.30874594458248,1168.2161865234375,193.55817871011257
709,3329.5478515625,-1178.0142822265625,1157.1721266471623,222.4289373599767,1168.428955078125,187.54455591719608
710,3621.17333984375,-1184.5391845703125,1158.9944868153534,226.64058371247853,1165.4423828125,176.72810007641877
711,3939.341552734375,-1166.51318359375,1147.9586412749209,220.3146561942018,1159.554931640625,253.68612668438405
712,3768.6923828125,-1139.4852294921875,1141.9650637530017,218.59108939396612,1154.2174072265625,340.55111449894963
713,3403.507080078125,-1151.4639892578125,1158.7449502761738,222.70902612761398,1170.0450439453125,190.8186414127324
714,3511.7333984375,-1153.798583984375,1152.0444081673575,219.5374115357351,1165.6336669921875,239.22464847822124
715,3251.92529296875,-1180.9920654296875,1160.8029767959868,222.5671673506056,1172.794677734375,191.46890032922568
716,3368.98828125,-1195.15087890625,1166.9350003542036,225.1257170023054,1177.26171875,191.6797743101477
717,3561.486572265625,-1179.443603515625,1161.622544558421,222.38152881421166,1174.05126953125,189.68162474856484
718,3339.2509765625,-1157.249755859375,1166.9233729846983,224.98146224098485,1177.4273681640625,189.00795050877545
719,3363.6435546875,-1140.633544921875,1156.5167637886832,222.0565284313987,1168.0753173828125,192.80637316047913
720,3720.90771484375,-1157.6806640625,1163.959640022104,224.55874927837147,1174.251220703125,188.24733294612486
721,3192.002197265625,-1173.3504638671875,1158.655296088971,225.3987947004212,1166.5706787109375,184.4655700882728
722,3167.4326171875,-1163.3192138671875,1138.0719291145733,217.8994038755826,1150.215576171875,459.4134027309958
723,3878.3427734375,-1171.022705078125,1154.3611045727687,219.34565895890748,1168.769287109375,283.82852787221157
724,3781.93359375,-1151.4439697265625,1161.5218920661475,224.65183929934773,1171.087646484375,189.46599467247682
725,3321.77392578125,-1138.3387451171875,1152.748150902747,220.85595439052486,1164.865234375,189.90037057382662
726,3795.46240234375,-1156.7396240234375,1164.8543554980158,226.48168294018495,1172.9658203125,231.707888835544
727,3222.287109375,-1184.6956787109375,1167.8833362500425,226.39978112385216,1176.8544921875,187.69173222899994
728,3120.41748046875,-1191.2181396484375,1166.270687211489,225.94987925384004,1175.401123046875,190.52240925388364
729,4182.20361328125,-1171.54541015625,1153.5580552316123,221.72859196428595,1164.7867431640625,206.60495742520564
730,3205.774169921875,-1144.9285888671875,1153.1140192986359,222.03420829781183,1163.849853515625,199.0147475877919
731,3503.978759765625,-1135.8533935546875,1145.5301985434023,219.99097468170785,1156.924072265625,201.34212184998037
732,3338.117431640625,-1163.51904296875,1164.3576039339355,225.24530368102094,1173.890380859375,190.72512395941632
733,3619.71923828125,-1171.1402587890625,1148.9664829755584,218.56346977003,1163.003662109375,203.45484281447892
734,3280.349853515625,-1179.90673828125,1155.296676465129,221.17673549280082,1167.6500244140625,189.89808299135643
735,3415.55078125,-1177.8675537109375,1165.4775267600098,225.91445953836828,1174.453857421875,192.92348200584257
736,3388.145263671875,-1139.61572265625,1152.0585592710486,224.02177269096268,1160.0458984375,189.13662116931735
737,3710.068359375,-1146.3671875,1163.411923848408,226.77466403128457,1170.7965087890625,189.96237813656376
738,3629.7255859375,-1151.4415283203125,1158.0474616180327,222.77609345420854,1169.0892333984375,208.76900259254464
739,3203.075439453125,-1178.291748046875,1157.7893694915263,221.72690763849877,1170.0780029296875,198.25340738480182
740,3201.56396484375,-1177.8358154296875,1154.6277034420302,222.57025228922873,1165.07177734375,255.8198988207428
741,3681.281982421875,-1160.615478515625,1147.2741448261258,221.75026303310366,1156.9049072265625,197.00968486639732
742,3329.07763671875,-1137.2587890625,1145.8975037819291,218.02585480274203,1159.839599609375,268.06511459023477
743,3678.88427734375,-1145.4886474609375,1158.531135670353,222.5899674693834,1169.926513671875,193.1564407470602
744,3561.636474609375,-1148.28662109375,1149.6672949486479,219.4339369469388,1162.7916259765625,186.42751162412978
745,3140.079833984375,-1170.0257568359375,1153.3874449008856,223.76804828585713,1162.024169921875,377.4265156413974
746,3750.154052734375,-1172.9873046875,1148.0802162431914,221.47767586938906,1158.253173828125,397.1349058049053
747,3394.260498046875,-1153.8809814453125,1136.8818305785394,218.70764995166996,1147.7177734375,378.24543950555585
748,2939.043212890625,-1161.7867431640625,1169.8902095870485,227.38009062571427,1178.1375732421875,196.88796882102807
749,3628.7763671875,-1141.521728515625,1155.7821725605927,222.65451598753572,1166.4095458984375,216.56337013631241
750,3777.403076171875,-1144.017578125,1148.2064175124965,221.5144730087124,1158.364990234375,307.3730922315228
751,3568.425537109375,-1178.57861328125,1158.848630327801,222.3490830429594,1170.62451171875,193.78692351412877
752,3203.81982421875,-1183.810791015625,1163.016217530173,225.78512476722582,1171.538818359375,189.56147928318256
753,2891.587890625,-1174.225830078125,1162.2413989826482,223.73669299328722,1173.130859375,196.8121666279901
754,3122.157470703125,-1148.8629150390625,1156.1443106972379,222.02230609587843,1167.652587890625,272.67806679893425
755,3189.832763671875,-1140.7762451171875,1155.5443473508853,221.8969683816929,1167.059326171875,186.32966145266883
756,4063.344970703125,-1140.59765625,1144.5456162654518,219.83188848129475,1155.8922119140625,313.0807973958307
757,3353.074462890625,-1167.775634765625,1147.3203974205858,219.09497167652918,1160.28173828125,309.5677819516644
758,3041.34716796875,-1176.5882568359375,1152.4307938803795,220.92389759913695,1164.3836669921875,205.6843614455881
759,3454.6162109375,-1175.34912109375,1161.2024618268838,222.67412900336876,1173.160400390625,343.8082388086229
760,3713.5361328125,-1142.952880859375,1150.4444602437784,220.26853545387277,1162.7198486328125,202.11496859934076
761,3357.843994140625,-1148.9339599609375,1161.3327750139997,220.5568836622998,1175.9697265625,195.26779404210555
762,3916.010498046875,-1157.9310302734375,1163.3999747387918,225.30964337511375,1172.6129150390625,200.07113601503306
763,3783.9228515625,-1179.175537109375,1161.5358306933658,222.7464649726169,1173.4866943359375,190.49082389684148
764,3320.6015625,-1190.42822265625,1165.2136177048296,224.8045952066986,1175.51123046875,199.13631043071882
765,3676.8916015625,-1162.29443359375,1146.2529628980187,219.99488003135008,1157.8226318359375,353.26238262669756
766,2877.029541015625,-1162.883544921875,1173.219125358995,229.25323948138578,1179.9573974609375,182.22957921177644
767,3569.398193359375,-1142.2799072265625,1153.0898722708607,218.8868367851161,1167.7537841796875,207.02400037786106
768,3314.141357421875,-1160.8626708984375,1161.255376646257,220.70149428579845,1175.6923828125,195.35146980131495
769,3161.99560546875,-1176.4844970703125,1156.2587021461318,221.28886221783253,1168.71240234375,207.10077621663297
770,3637.713134765625,-1188.20703125,1164.6327522438964,224.68968085469817,1174.9288330078125,192.8249819688769
771,3512.53369140625,-1170.8013916015625,1157.6441726620378,224.42359833075426,1166.5257568359375,196.0668395041085
772,3524.625244140625,-1150.743896484375,1159.3964171339567,221.86876548126304,1171.9095458984375,200.91052029607803
773,3422.630859375,-1130.890869140625,1148.0145303089828,221.2411714394301,1158.4666748046875,385.2729978579522
774,3565.62255859375,-1158.9183349609375,1164.8157269958763,225.1104216758518,1174.631591796875,220.12152332469074
775,3433.00927734375,-1164.6854248046875,1144.9120779489845,218.65748200171873,1157.8182373046875,349.4948985267445
776,3344.316162109375,-1181.8026123046875,1158.6449221358098,221.49771959636573,1171.43408203125,200.91043553457857
777,2878.00634765625,-1178.3367919921875,1167.3702969518733,226.85182566319233,1175.648193359375,191.68489216063873
778,3281.669677734375,-1135.9228515625,1147.4142995572784,218.26197781331314,1161.4404296875,195.86641743580296
779,3433.0498046875,-1135.6590576171875,1153.869417609572,222.4909186738726,1164.22314453125,201.0820339111658
780,3723.697998046875,-1155.435791015625,1164.9451334154303,226.24147674199892,1173.3795166015625,186.99599876738276
781,3457.045166015625,-1178.4537353515625,1159.3292640917214,221.51792132484042,1172.26416015625,205.17160405747714
782,3203.769775390625,-1174.86572265625,1153.055639314909,222.03821398641594,1163.771728515625,345.1044789449615
783,3472.181640625,-1156.0733642578125,1141.6536798468214,219.53996404915853,1152.64208984375,409.46733032223295
784,3056.74169921875,-1153.3507080078125,1161.0827092077675,223.51641906761557,1171.9578857421875,191.77755100532198
785,2904.29248046875,-1144.26806640625,1156.2175694952782,222.28890609844282,1167.410888671875,189.42556133955296
786,3383.565185546875,-1156.089111328125,1157.1227490438482,225.2047196163199,1164.8974609375,198.10365747169118
787,3018.89892578125,-1175.6761474609375,1154.4815506362147,222.30173560611686,1165.224853515625,186.84705642398288
788,3741.750732421875,-1182.2733154296875,1150.1686715789342,218.29159881549126,1164.8463134765625,204.85786576556652
789,3682.110595703125,-1179.5721435546875,1156.8906537629223,221.19079290400498,1169.624755859375,296.2994444086718
790,3212.714111328125,-1161.255615234375,1160.5640063383344,221.1409577944043,1174.27880859375,194.73699517908767
791,3103.89599609375,-1139.667236328125,1147.4251699742908,219.21388694616508,1160.26416015625,249.37780465537364
792,3383.3232421875,-1143.0291748046875,1142.9011242082183,220.54741261208682,1152.942138671875,212.48619957878086
793,3632.712890625,-1184.7777099609375,1163.9911070040644,223.2495776943148,1175.927001953125,202.08543827782742
794,3484.15576171875,-1176.835205078125,1154.276048826553,221.88994040427363,1165.482666015625,198.91465092570263
795,3324.138671875,-1171.1766357421875,1162.5254751015166,223.11073634509836,1174.2684326171875,201.55504548140377
796,3602.607666015625,-1143.8428955078125,1157.0024577922966,221.3107338614608,1169.61474609375,189.9207122761934
797,3855.569091796875,-1129.09521484375,1157.8336439879636,225.44896476585652,1165.4808349609375,194.08409979306373
798,4635.9150390625,-1137.5302734375,1158.4713013280448,225.60390695522375,1166.084228515625,326.7916529699074
799,4254.5,-1150.846435546875,1147.849052062233,219.90065614243312,1159.9354248046875,420.3295565515485
800,3576.5205078125,-1179.16015625,1151.2203812113962,220.4011994949543,1163.52392578125,198.06521270843652
801,3702.1796875,-1185.645751953125,1153.0479774916848,219.1598112786491,1167.360107421875,205.8125363198151
802,3550.699951171875,-1193.6361083984375,1171.9035434119573,225.50172496439723,1183.0023193359375,196.543671229309
803,3232.6865234375,-1157.33837890625,1162.6006901496482,223.41030390201325,1173.988037109375,202.29934804969568
804,3258.9921875,-1148.1304931640625,1159.577578275096,221.5584242509717,1172.52392578125,193.4901221114077
805,3718.60009765625,-1136.348388671875,1142.6477386078586,217.45604928347962,1156.489501953125,363.27278116455824
806,3154.617431640625,-1180.91455078125,1167.7758271025411,226.72684373128325,1176.311279296875,195.53637112200482
807,3557.43359375,-1172.4395751953125,1151.668339188438,219.6645301178507,1165.0047607421875,193.44190069075898
808,3230.245849609375,-1163.703369140625,1157.3053269663005,222.93788934136904,1167.959228515625,208.09256937864293
809,3542.908203125,-1154.59521484375,1154.8835149013348,222.97212191456035,1164.88916015625,198.93602555887335
810,3387.69287109375,-1167.498291015625,1160.4085083754062,221.20720107865336,1174.001708984375,193.52267869443406
811,3060.94384765625,-1143.466552734375,1141.0749385514428,219.84611955072168,1151.5360107421875,448.18038909023136
812,3138.543701171875,-1166.6688232421875,1158.6624559635586,220.64645644671378,1172.52001953125,191.0471571544679
813,3686.934326171875,-1161.2579345703125,1158.337963752626,220.38465230929705,1172.441650390625,195.89996688350217
814,3346.939697265625,-1163.715087890625,1155.0297578556897,220.58752946690328,1168.052734375,195.85849852514153
815,3289.8671875,-1161.40380859375,1154.9954955140197,219.51470644865884,1169.3509521484375,293.6757504144093
816,3280.66259765625,-1163.2740478515625,1152.769943483987,219.6416136943485,1166.410400390625,195.22828323291802
817,3465.1650390625,-1142.0390625,1136.3986642518557,216.6021878877201,1149.74560546875,380.5893635978578
818,3201.4140625,-1170.42626953125,1161.9555277123584,225.01861813212753,1171.171142578125,212.2751219084098
819,3330.664306640625,-1161.5264892578125,1155.4856608265463,223.16649088798187,1165.3990478515625,200.7743651633685
820,3505.7138671875,-1150.685546875,1152.597151223843,219.3952422897267,1166.50244140625,222.4043951871922
821,3405.797607421875,-1143.8858642578125,1145.5497442008345,219.0645139218658,1158.1064453125,288.86274323194465
822,3255.73388671875,-1172.5106201171875,1161.7103855689745,224.93699432217875,1170.966796875,186.18603520186278
823,3549.9638671875,-1166.537109375,1148.4980390572005,219.19122426742828,1161.633544921875,203.9881017367774
824,3545.1025390625,-1164.2320556640625,1160.5103398602892,221.53643966135246,1173.7174072265625,204.0569342410907
825,3516.566162109375,-1138.601806640625,1137.5983118455886,216.0222099106786,1151.969970703125,302.9144256598652
826,3872.4716796875,-1165.5552978515625,1156.7681659069406,222.85652459529513,1167.3895263671875,201.8393306618573
827,3102.98486328125,-1172.10693359375,1161.9359694548334,224.79265617806578,1171.42919921875,193.5391996393739
828,3042.59423828125,-1157.76806640625,1156.7982346297495,222.616500425457,1167.7271728515625,198.8879366007156
829,3110.10693359375,-1167.1068115234375,1162.9111995668723,223.73880166724464,1173.965576171875,189.23106582533345
830,2838.6796875,-1163.3216552734375,1158.3939022617444,223.05183864999856,1169.177490234375,198.0148347318723
831,2950.88916015625,-1176.530029296875,1163.7812048652067,225.792563483943,1172.48583984375,187.77471673836544
832,3544.86083984375,-1158.228271484375,1145.765300328203,218.60765532917566,1158.947021484375,210.46213295501462
833,3537.3388671875,-1152.9742431640625,1159.2325077651158,221.5621293095961,1172.087890625,216.10006449338385
834,3866.6708984375,-1143.791259765625,1152.2198890135169,222.66157652591437,1161.9478759765625,335.7011661170185
835,3675.5517578125,-1166.4193115234375,1159.4229646112453,224.43913115967615,1168.729736328125,195.91246550846466
836,3436.552978515625,-1162.2528076171875,1149.5414513937867,218.13922651929008,1164.252685546875,416.2743248449876
837,3155.20556640625,-1163.2955322265625,1162.0023072273743,224.24171950233105,1172.2008056640625,193.18001363950233
838,3698.2880859375,-1136.99951171875,1139.0190352228292,218.4220195677883,1150.746337890625,436.34325271060237
839,3166.238525390625,-1162.7078857421875,1157.1457555831778,219.8643664182531,1171.6016845703125,197.51705634734122
840,3438.44677734375,-1170.6429443359375,1152.1561299255802,220.55318921122085,1164.503662109375,203.27583918314807
841,3465.95556640625,-1162.3868408203125,1148.287725817116,219.57021742955038,1160.8968505859375,200.40665717438765
842,4072.33642578125,-1156.61572265625,1156.0896076792458,221.21023620307216,1168.5992431640625,307.0346432081854
843,3667.91650390625,-1144.380859375,1145.2412676295496,220.24408111183402,1156.2464599609375,283.4752339882139
844,4046.10009765625,-1161.4598388671875,1150.6748982645117,220.21136266957163,1163.0794677734375,221.89551608137754
845,3020.111328125,-1166.5599365234375,1158.898211986742,223.34949694367404,1169.4359130859375,181.4969334691722
846,3336.703369140625,-1151.4512939453125,1152.9820546791889,221.8188103840686,1163.9541015625,202.53008554905037
847,3352.731201171875,-1145.06005859375,1143.7019368859133,218.0087325545151,1157.116455078125,201.83095819300544
848,3324.115234375,-1161.3184814453125,1144.3118343302583,217.86811871021723,1158.0546875,216.2840135178616
849,3438.02685546875,-1158.6981201171875,1145.0856281347621,218.7313930995809,1157.94287109375,209.62872323962185
850,4090.314453125,-1159.4422607421875,1159.4705891341655,219.63974857933192,1174.78857421875,204.60030266886545
851,3421.392822265625,-1139.3544921875,1143.7781448483327,220.81195588110464,1153.7076416015625,292.475633460878
852,3376.9560546875,-1168.207275390625,1154.8461389922907,218.69559844968822,1170.188232421875,197.87196634462956
853,3527.61083984375,-1167.0252685546875,1158.4077872400924,223.137857711856,1169.08740234375,195.53796941462997
854,3571.7705078125,-1143.2113037109375,1147.3780006056936,218.4850211745411,1161.1162109375,286.3610662124769
855,3523.392822265625,-1150.5828857421875,1150.7248796467752,221.16663276004516,1161.94775390625,199.88550311582833
856,3462.548583984375,-1160.1875,1147.5053739008113,221.32848426816895,1157.72119140625,327.4704334498587
857,3449.8994140625,-1159.9951171875,1145.1985485675457,218.31754156376144,1158.601318359375,335.7740267249501
858,3303.159912109375,-1171.0943603515625,1169.4565377465813,224.8952255241006,1180.70166015625,191.91169674092572
859,3645.186767578125,-1153.4495849609375,1151.6222974293169,220.1305604927475,1164.36474609375,201.38391250084763
860,3849.84130859375,-1168.7659912109375,1156.5479742112661,221.21346856980568,1169.168212890625,198.45997136812122
861,3478.320068359375,-1166.287109375,1155.979899483386,221.55297109729372,1168.03369140625,194.29804674616202
862,3474.60693359375,-1141.1778564453125,1145.7201652079905,219.52627903223873,1157.742431640625,336.9965094595854
863,4075.6064453125,-1151.5093994140625,1155.9941336925804,220.5173923905669,1169.345947265625,201.13184560320747
864,3542.468505859375,-1164.86279296875,1152.8919724372008,220.56209579974205,1165.412353515625,204.20414707856787
865,3179.66064453125,-1174.5950927734375,1162.5042768716676,222.41358408926544,1175.1134033203125,186.56032916224157
866,3657.69921875,-1167.7645263671875,1166.3658394751815,219.70591134407778,1183.324951171875,194.13309028443467
867,3225.02392578125,-1146.2061767578125,1145.5338213142597,219.59966430036675,1157.417724609375,196.57852408519054
868,3366.50146484375,-1162.0760498046875,1149.147497709229,219.3128449784063,1162.2933349609375,206.18730921745967
869,3644.64794921875,-1157.97900390625,1147.4657216296005,219.06920866821287,1160.49560546875,195.47491103921953
870,3555.114501953125,-1150.12255859375,1154.621017500168,218.74332976580237,1169.84716796875,196.9670874053314
871,2928.864990234375,-1155.483642578125,1160.5623695321183,222.90086159182584,1172.076904296875,194.56091735910027
872,3812.935546875,-1169.354736328125,1158.0037674667708,222.59461026214285,1169.261474609375,341.12666222871064
873,3869.445068359375,-1161.163330078125,1146.5835037953823,218.61917023729967,1159.9554443359375,280.9057225994393
874,3765.3125,-1155.812255859375,1154.9298460232244,222.50371873249878,1165.5325927734375,298.9280504505676
875,3633.095703125,-1157.261962890625,1154.0114806985985,219.80794538618426,1167.75439453125,198.58781533965885
876,3420.811279296875,-1167.8623046875,1153.2280472949974,219.80668462076127,1166.776611328125,198.22243259550882
877,3233.1806640625,-1166.8939208984375,1156.3016194547063,225.05718313404392,1164.055419921875,209.37925126671013
878,3327.422607421875,-1147.6153564453125,1145.8629858612994,220.7846168041209,1156.347900390625,218.51722721500803
879,3288.7255859375,-1155.7008056640625,1155.3438495062323,221.4487227343052,1167.368896484375,214.9411051844916
880,3159.635009765625,-1164.6778564453125,1153.411795695581,220.89535539940798,1165.6455078125,188.81982100782727
881,3334.83837890625,-1156.2259521484375,1142.359268753457,220.20228096716383,1152.6962890625,360.6082349769615
