Wnight963/UAV_optim/maddpg-master/experiments/learning_curves/exp_4_1/agent_2_traj.csv
,q_loss,p_loss,target_q,rew,target_q_next,target_q_std
0,4128.9384765625,-1146.9564208984375,1162.893167951086,222.6853548550396,1175.259765625,191.86281303477858
1,3757.19482421875,-1135.795654296875,1157.9602552515353,227.30762382567772,1163.3157958984375,178.35380677415336
2,3784.5234375,-1161.4835205078125,1169.212422055442,230.1141213123389,1173.872802734375,210.4746733433818
3,3910.316162109375,-1162.2862548828125,1142.534036928385,223.2798206388648,1149.0677490234375,366.2113821116196
4,3742.619384765625,-1198.5782470703125,1165.7339119176195,226.38930575650187,1174.1807861328125,169.55657029099842
5,4637.04345703125,-1190.247314453125,1166.7851122890845,228.1309007202522,1173.3177490234375,182.09843029185802
6,3523.455078125,-1161.343017578125,1164.103236635824,230.65465961327155,1166.810791015625,178.0443529072807
7,3891.31591796875,-1166.478515625,1179.1527525483275,232.24082184421061,1183.639892578125,170.49473098889598
8,4024.386474609375,-1162.8983154296875,1168.110274433374,226.94682533669433,1176.454345703125,172.86199578484934
9,3707.24365234375,-1182.9688720703125,1169.286502211748,227.2391390735493,1177.5592041015625,182.86658510500087
10,3354.93701171875,-1174.750732421875,1159.680887719912,226.17688116721575,1166.8800048828125,259.9715918745269
11,3953.515625,-1175.0447998046875,1172.0225162666256,227.18646523169835,1181.0450439453125,185.77449068768402
12,3357.31884765625,-1142.2816162109375,1149.1073944076586,224.43049278107162,1155.84619140625,277.30069869458583
13,4749.5205078125,-1155.4039306640625,1156.8258759787548,224.2667493155467,1165.698974609375,385.438425247576
14,3276.242431640625,-1173.7762451171875,1159.3019786741256,224.95071763057692,1167.93896484375,206.57548723593416
15,3424.7509765625,-1176.2022705078125,1164.3635883108552,227.0101576582367,1171.6917724609375,340.6438054398751
16,3082.0107421875,-1158.2005615234375,1162.912428186403,228.35890445517134,1168.19189453125,280.0830551130353
17,3344.046142578125,-1156.1837158203125,1158.0322754896165,225.4928642786026,1165.67431640625,172.17336165386357
18,3405.558349609375,-1165.8922119140625,1157.0533964950284,224.67211592976662,1165.4765625,183.83046508141032
19,2790.8427734375,-1159.9329833984375,1158.7662227885326,226.23559897108888,1165.663330078125,171.7127954000993
20,3247.8662109375,-1176.96337890625,1171.8087915181065,229.31600053299906,1178.115966796875,171.62676505706688
21,4861.3994140625,-1156.835205078125,1151.9348419808005,223.63541189657195,1160.374267578125,354.7463323130407
22,3382.4853515625,-1169.47998046875,1168.9367879604233,228.8686939453018,1175.085205078125,177.14664482071578
23,3226.5107421875,-1171.554931640625,1165.5063938165076,227.36667409185242,1172.674560546875,282.8885213863336
24,2977.359619140625,-1167.7052001953125,1162.8167899722264,226.53672867957806,1170.35009765625,281.9023159336812
25,3221.86474609375,-1157.6702880859375,1162.0585567096246,226.89486514124997,1168.95458984375,186.56768141003045
26,3507.69384765625,-1160.4888916015625,1164.0553320990678,228.53976660834513,1169.394287109375,215.65899820259855
27,3079.11376953125,-1178.649658203125,1164.165056478508,227.8202095146255,1170.4310302734375,175.53073245051752
28,4437.5537109375,-1182.1180419921875,1163.733104148249,225.07311598334724,1173.324951171875,267.2191392797187
29,3177.90966796875,-1153.7974853515625,1152.3163079001656,225.60846102020633,1158.384765625,307.2279973586623
30,3117.40673828125,-1176.4107666015625,1175.5446924113437,230.50831450454433,1181.29541015625,174.13044181884845
31,3157.135009765625,-1165.600341796875,1161.757908702835,224.70534284208674,1171.315673828125,265.1733010340166
32,2908.9375,-1176.43994140625,1165.472491306708,229.6379997200229,1169.793212890625,180.50371457214354
33,3052.248046875,-1184.576416015625,1171.9016296743312,228.9490299104608,1178.6907958984375,173.57314652759297
34,4170.0439453125,-1162.0684814453125,1162.65612545602,226.40809827439455,1170.31005859375,273.35274553354884
35,3206.666259765625,-1162.263427734375,1159.5104431550276,226.94075025723072,1165.712158203125,173.64542227828397
36,3188.841552734375,-1181.601806640625,1166.1269746737164,229.36363210245787,1170.9541015625,172.15221153338246
37,2906.942626953125,-1187.88720703125,1174.799881057703,232.46021578785124,1177.924560546875,173.14895125960723
38,3537.39306640625,-1157.17578125,1157.4115728687973,224.09873564955893,1166.64111328125,239.98784434951483
39,3103.791015625,-1171.559326171875,1173.3606394210685,227.07473663481352,1182.857421875,178.01838816485937
40,3551.404541015625,-1176.00439453125,1168.4056329336543,228.3514483538051,1175.0677490234375,292.88078592026625
41,3276.61962890625,-1175.243896484375,1161.1326634891097,226.22946734500562,1168.6290283203125,352.71555723288395
42,3133.24755859375,-1158.49267578125,1155.194748417162,225.35002619388007,1162.305908203125,347.3904753338315
43,3099.171875,-1169.6383056640625,1169.1401364472968,229.0525972989659,1175.109375,174.61431696144015
44,3193.456787109375,-1169.38427734375,1162.4673598112227,226.00354664937265,1170.579833984375,307.74642105146006
45,3125.8603515625,-1174.6656494140625,1169.153441193403,227.24063558846825,1177.3909912109375,171.53887574841886
46,3550.13671875,-1178.136962890625,1169.3498107794628,225.07159355915644,1180.3477783203125,175.41407645302476
47,3144.379150390625,-1176.7774658203125,1161.8727742382794,227.7177289196757,1167.69384765625,176.6407442312664
48,2923.866455078125,-1178.461669921875,1164.2323078473885,226.32037823999715,1172.389892578125,178.47819285136438
49,3192.172119140625,-1165.4608154296875,1168.5593961035047,225.77286513197748,1178.483154296875,171.36331405185598
50,3229.0234375,-1157.7103271484375,1162.593383177751,226.735160287851,1169.8228759765625,179.93457400694058
51,3548.28955078125,-1173.1126708984375,1164.1783265457318,226.4733762130901,1172.1312255859375,202.41903410879434
52,4256.73974609375,-1159.196533203125,1144.249593258075,221.44012904184254,1153.51171875,412.8618055226181
53,3240.9033203125,-1175.9012451171875,1167.4438675021613,226.45094152445435,1176.2412109375,167.8890422432182
54,3058.57666015625,-1176.4959716796875,1170.8120553836936,227.47298687554544,1179.173828125,180.98862470209414
55,3049.82177734375,-1170.500244140625,1166.3702418269959,226.3878555240479,1174.97802734375,170.20391896629206
56,2602.3896484375,-1183.0755615234375,1170.0782358371744,229.10008837814422,1176.22265625,188.2624677157873
57,3016.054443359375,-1180.377685546875,1167.2877317302145,226.87606581377162,1175.5146484375,177.823139276472
58,3232.58349609375,-1159.4493408203125,1161.7406163199907,226.99165673098616,1168.436279296875,177.75409647840073
59,3662.23046875,-1150.447509765625,1154.4626541840485,227.34218981141348,1158.900634765625,277.4651030698885
60,3271.83935546875,-1186.050537109375,1172.645688806405,226.78738754831778,1182.322998046875,174.88287334686987
61,3217.150146484375,-1185.6658935546875,1173.7210665080024,227.4767545077276,1182.805419921875,171.13589334528635
62,6516.490234375,-1164.4088134765625,1158.446838056645,227.08245497902357,1164.20556640625,350.3592148739802
63,2977.41015625,-1167.0888671875,1169.1243594713626,227.94026079849576,1176.4801025390625,181.58456594408932
64,3048.59375,-1181.086181640625,1180.7537833579818,232.21740521276382,1185.6705322265625,170.96113601329407
65,2747.538330078125,-1192.1124267578125,1174.9797427857416,232.8185736382502,1177.701416015625,173.43387961360693
66,3611.571044921875,-1179.5753173828125,1153.638810593695,223.57519512853085,1162.5794677734375,391.327257948236
67,3381.1123046875,-1170.0557861328125,1159.4765204637993,226.0577126711355,1166.7734375,295.3760176508862
68,3255.764892578125,-1133.3968505859375,1144.8363271058126,221.90790875559293,1153.660400390625,398.6957936432117
69,3485.81640625,-1137.0848388671875,1154.9478983650606,224.94488909343866,1162.503662109375,173.46938467009062
70,3512.707763671875,-1165.643310546875,1170.8107621385366,225.27152778642477,1181.924072265625,168.2398611797266
71,3184.3310546875,-1183.4285888671875,1163.8860830345252,227.01280908967038,1171.091552734375,175.5186003674649
72,3357.87109375,-1179.4078369140625,1154.1947344375383,225.57677345998394,1160.7724609375,373.50588093349904
73,3059.45166015625,-1175.0902099609375,1160.043714875127,226.53644592180368,1166.884033203125,295.6887067952585
74,3001.00634765625,-1156.0958251953125,1159.3686887348017,224.72815237882935,1168.3006591796875,175.20256850525908
75,3375.20361328125,-1158.4383544921875,1168.3690327896443,226.23368179934903,1177.669189453125,230.28368526074036
76,3091.615478515625,-1154.9190673828125,1152.4190020716444,222.0776152289166,1162.9267578125,385.5100097288385
77,3189.86376953125,-1181.9710693359375,1158.6744294270839,226.6435771569574,1165.03857421875,356.8510626881435
78,3132.440673828125,-1189.1126708984375,1155.6501414830777,225.31777597022977,1162.91552734375,382.5609283460611
79,3414.861572265625,-1190.257568359375,1167.917196676186,229.48003074829893,1173.04638671875,173.3404008374804
80,3169.177001953125,-1158.837646484375,1156.339772109951,222.83658464428328,1166.8790283203125,209.38408863642957
81,2927.259765625,-1159.504150390625,1166.723891860553,226.9506441417421,1174.716552734375,174.38681940701107
82,3028.676513671875,-1165.9677734375,1166.034387683791,226.69092183105357,1174.1793212890625,170.48262973729857
83,2993.07177734375,-1184.0302734375,1161.6431255615025,223.81960418584637,1172.2794189453125,347.5044049850949
84,3080.93603515625,-1195.66162109375,1174.399037307091,229.0759012635425,1181.6539306640625,174.4051511756154
85,2962.754150390625,-1176.9857177734375,1170.5453035388787,228.57929611547786,1177.45751953125,173.86460281564186
86,2727.01611328125,-1154.9609375,1155.1562287274946,226.95696205536024,1160.2490234375,304.2004306490444
87,2655.7783203125,-1184.7733154296875,1178.5929813959233,233.0857206918829,1181.884033203125,164.21346240654051
88,3000.515869140625,-1156.0118408203125,1151.491748353138,224.9024714671516,1158.236572265625,333.5855439514232
89,3204.937744140625,-1166.825927734375,1165.140924429595,226.03499939411836,1173.8824462890625,254.7667651620609
90,3123.56298828125,-1179.329833984375,1171.3270524085938,229.57529822005597,1177.189697265625,174.40770917454935
91,3133.48486328125,-1170.714111328125,1164.2400751692248,225.65764356674683,1173.22802734375,169.63256294829657
92,3086.81689453125,-1161.7415771484375,1164.6641172536747,227.09642506922648,1171.9595947265625,174.6015872805316
93,2730.157958984375,-1157.1138916015625,1156.2829160237484,226.18118796588703,1162.627197265625,172.05868789017734
94,2889.999755859375,-1187.2767333984375,1168.7674853533267,229.37803656754488,1174.23681640625,179.22202045051583
95,4094.18408203125,-1185.2738037109375,1162.3082619499837,227.89000070807091,1168.0228271484375,309.20108949783975
96,3730.07421875,-1177.338134765625,1165.3807323028566,226.32527089614882,1173.8193359375,250.93911384743808
97,3577.08251953125,-1152.398193359375,1161.013741788405,224.18744955970627,1171.032958984375,180.67234069966787
98,3587.33056640625,-1151.7818603515625,1169.3996968919646,226.5986012155424,1178.5013427734375,192.9131086267331
99,4004.269287109375,-1159.08203125,1163.5286472234075,222.9229096326177,1175.7572021484375,192.82496874958326
100,3001.376708984375,-1175.765869140625,1157.4494530698576,224.01871056764497,1166.788330078125,174.237547837699
101,4039.791259765625,-1173.40478515625,1147.4587694476932,220.95411484945697,1158.130859375,356.2689921741006
102,3723.06591796875,-1167.1123046875,1147.1722858968244,220.17154088644835,1158.7509765625,362.2003268757162
103,3608.766845703125,-1162.891357421875,1163.836040403664,225.94647798758712,1172.3619384765625,239.7064611579798
104,2861.25,-1160.1785888671875,1168.4503815844182,227.45167896295806,1176.248291015625,179.60013478660417
105,3077.139404296875,-1167.608154296875,1165.146820367398,227.2889417300842,1172.322265625,170.22950342105432
106,3413.029052734375,-1158.01513671875,1153.6441608702626,222.6634532248461,1163.725830078125,312.22272255213034
107,3169.556884765625,-1144.8128662109375,1146.6196971274521,221.7593237258102,1156.075439453125,375.2006097104998
108,2960.19580078125,-1151.7481689453125,1149.0480142205597,223.88843308385628,1156.449462890625,396.9978415780848
109,2932.7841796875,-1169.81396484375,1164.3419346327464,226.55692930170696,1172.231201171875,170.25765544787083
110,2636.736328125,-1175.3660888671875,1171.4311452081538,226.92021767405018,1180.638671875,175.85851190514805
111,4150.86962890625,-1158.4520263671875,1154.4520799814438,223.9497507749772,1163.1279296875,382.88597896640425
112,2935.3125,-1169.1026611328125,1165.8410643299187,227.65490743714224,1172.732666015625,170.5331334990017
113,2809.5556640625,-1147.909912109375,1152.5699850398896,222.63348234480594,1162.420654296875,204.8590581532652
114,3536.321533203125,-1156.642822265625,1160.6572665192762,226.61748804828332,1167.5498046875,182.93063289095352
115,3582.810302734375,-1177.3819580078125,1165.608625007867,227.52687156319536,1172.6021728515625,396.18097450495446
116,3567.76220703125,-1172.4822998046875,1159.2601374334897,224.47987248369105,1168.475341796875,357.89733452466356
117,3210.2578125,-1165.859375,1163.7185717119635,224.6897999777258,1173.785888671875,178.25095219673713
118,3670.718994140625,-1154.33056640625,1162.6871195719007,224.12203582975894,1173.206298828125,271.67833362910955
119,3033.61669921875,-1147.6561279296875,1157.8525847805872,227.14502848519243,1163.3843994140625,345.80995229172134
120,3242.04541015625,-1168.1229248046875,1158.1285225005722,224.50553728061664,1167.02880859375,192.03105159029798
121,2686.13916015625,-1189.8739013671875,1177.3519588388,229.94703897605288,1184.256103515625,173.84864697121392
122,3371.469482421875,-1161.45458984375,1153.9412290354107,223.38569209769693,1163.1944580078125,191.9048416198863
123,3061.9267578125,-1158.131103515625,1166.56244198797,226.30068356511845,1175.3271484375,178.22546758646888
124,3050.713623046875,-1169.3284912109375,1178.6018565518748,230.7642243726143,1184.797119140625,175.97496219408936
125,3567.584228515625,-1170.7740478515625,1162.4002331732886,224.49009976378827,1172.3876953125,269.353880522706
126,3345.0751953125,-1179.43505859375,1168.6941615472806,226.21206387386437,1178.1026611328125,176.14440230048507
127,2995.897216796875,-1156.897705078125,1156.757197864485,226.2365892486099,1163.150634765625,263.54001850742253
128,3213.651611328125,-1158.512939453125,1157.671662383945,225.05844443407778,1165.7666015625,382.26597942933785
129,2841.3515625,-1160.1529541015625,1148.0942368330534,220.83951104302935,1159.068359375,378.53958189280814
130,3253.9267578125,-1167.740478515625,1161.7028957355417,225.00409583930133,1170.87353515625,180.48844885977968
131,2703.29736328125,-1163.22021484375,1169.861792244575,226.14058019127606,1179.651611328125,173.1137745989041
132,3807.723388671875,-1166.3067626953125,1172.1627900005017,226.37089866406058,1182.2398681640625,181.56186569961397
133,3532.307373046875,-1164.0445556640625,1155.011349786953,223.47379805012122,1164.421875,379.1082008618019
134,3366.20263671875,-1158.148681640625,1144.414466386967,222.17076798074766,1152.8046875,360.86822552129297
135,3379.5078125,-1167.587890625,1163.8228148614246,226.04762612927738,1172.218994140625,232.0296177985102
136,3290.205322265625,-1155.525390625,1151.6672203603853,224.2538118425478,1159.266845703125,356.1625940903219
137,3057.603271484375,-1176.0546875,1162.9059066431757,227.60761438777408,1169.122802734375,174.54866989837694
138,3089.57958984375,-1163.34912109375,1158.6930005887048,226.00769384889747,1165.856689453125,338.8806550047116
139,3391.49853515625,-1162.218994140625,1169.6317729683856,224.7493658991794,1181.10302734375,324.65737350060476
140,3757.11669921875,-1148.1273193359375,1158.171126914137,225.86481540214336,1165.3829345703125,366.55611452413814
141,3542.728515625,-1168.6397705078125,1162.5358877541134,224.78556646123621,1172.18798828125,175.33175661137653
142,3092.771484375,-1180.0494384765625,1165.1376309641018,224.70427398759247,1175.541748046875,189.96461288682852
143,2957.6552734375,-1160.388916015625,1152.781310626252,224.0828851663901,1160.873046875,361.49141816700524
144,3141.440673828125,-1158.646728515625,1167.4263690381263,228.96553627540789,1173.0760498046875,177.5333497033231
145,3321.85009765625,-1161.05419921875,1168.987082216723,227.36242494343037,1177.0308837890625,181.58110289155826
146,2971.7802734375,-1164.779052734375,1157.8050013334348,226.69599139996296,1163.88623046875,290.8643154870671
147,2983.251708984375,-1172.154052734375,1163.3057521012724,225.06847082647676,1172.796630859375,214.48233609643523
148,3125.718017578125,-1162.5018310546875,1161.4784028864872,226.50194257269015,1168.720458984375,247.0208970320197
149,2874.401123046875,-1157.7918701171875,1155.2341386594003,222.49613933937002,1165.9224853515625,307.3864955378894
150,3198.459716796875,-1160.406494140625,1151.3421584233888,222.75017391296697,1160.739990234375,454.44211471847257
151,2849.667724609375,-1168.2427978515625,1166.703197221252,227.4545166296685,1174.060791015625,184.48893690772164
152,3165.917724609375,-1174.86572265625,1168.670191955921,227.51990785634194,1176.4378662109375,169.3132635853371
153,2885.274658203125,-1164.92626953125,1164.053702410581,227.569237622144,1170.60546875,180.68444687800422
154,2849.57470703125,-1158.733154296875,1155.3936381964832,224.31018768836546,1163.854248046875,177.95293919919934
155,3019.327880859375,-1185.9083251953125,1175.682127341138,230.63122564207188,1181.3135986328125,177.109255657702
156,2985.3525390625,-1169.9322509765625,1162.376802642374,225.98918224099168,1170.484619140625,176.20691936327822
157,3967.815185546875,-1163.88134765625,1169.5179039548543,224.8858529161123,1180.7900390625,175.42391286626835
158,3448.85009765625,-1144.23974609375,1150.1360769234725,221.62167195902532,1160.64306640625,343.03199357882454
159,3108.352783203125,-1173.298828125,1169.5727706447772,225.63107185518044,1179.9271240234375,182.36336611011387
160,3124.85107421875,-1186.5931396484375,1166.8519861817858,228.5946877599259,1172.8216552734375,177.64108252269884
161,3485.969970703125,-1176.4647216796875,1155.7703924013063,226.9955211950226,1160.9686279296875,351.9825202413599
162,3313.764404296875,-1181.3299560546875,1173.4424082415871,229.72242318566356,1179.6500244140625,177.7385052690859
163,3059.7080078125,-1148.0426025390625,1159.729207093782,223.79993105656592,1169.91162109375,176.1295352917741
164,3070.7041015625,-1143.65869140625,1161.0745016839362,223.9018121030188,1171.4658203125,185.1757732645691
165,3481.08544921875,-1151.485595703125,1164.9240852530052,225.98396436524888,1173.6751708984375,179.61088107927014
166,3313.15771484375,-1170.787109375,1162.4613497064543,227.7003685520125,1168.451171875,193.68140793986308
167,3432.994140625,-1175.9595947265625,1159.3680185786436,225.5068697920988,1167.326416015625,180.63587929410556
168,3612.07958984375,-1173.5242919921875,1164.3912532576703,225.93152802077753,1173.07470703125,183.44459126604383
169,2782.14599609375,-1146.5919189453125,1156.5283545339603,224.66442116146277,1164.8299560546875,180.7076449246021
170,3286.7880859375,-1136.8172607421875,1147.189306764472,222.47287943826944,1155.8955078125,422.8571826006485
171,3386.172119140625,-1159.1317138671875,1157.0540595922434,224.9551185045205,1165.1236572265625,178.72426799862515
172,2982.0703125,-1185.5615234375,1162.2437616213165,225.710833249887,1170.6661376953125,177.61855767073968
173,3012.65771484375,-1179.517822265625,1153.9524753645119,224.62169557363342,1161.6634521484375,184.3315912293867
174,3992.053466796875,-1181.186767578125,1158.6387280018516,221.7405571968743,1171.122802734375,216.36496072930595
175,3398.40234375,-1164.5750732421875,1166.759159214197,223.97250900953856,1178.4833984375,188.00014159898328
176,3449.844482421875,-1149.920166015625,1161.2299193248268,224.37701109499875,1171.066162109375,188.3171713687212
177,3602.77099609375,-1141.65771484375,1145.3804386495922,220.72420839065052,1155.8203125,301.1408299149918
178,3488.87890625,-1182.3359375,1162.307992211711,222.57638944758133,1174.66455078125,186.79763416097336
179,2977.45947265625,-1171.7373046875,1155.369642821687,225.342128220933,1162.534423828125,359.25458014806196
180,3153.08984375,-1138.1595458984375,1132.4628091561774,218.66434333205024,1142.248046875,560.8187490259007
181,2426.7412109375,-1176.6568603515625,1172.3688588683942,228.96357889822514,1179.256591796875,214.6651426717024
182,3459.90869140625,-1155.717529296875,1156.8261718721833,224.71243550495757,1165.14208984375,182.14313774210612
183,3221.313232421875,-1165.662109375,1166.6816755376362,225.78541222434274,1176.120361328125,178.7547752084805
184,2539.006591796875,-1181.015625,1167.0022366323567,225.6887670197583,1176.641845703125,247.91772444363824
185,2789.802001953125,-1164.5546875,1154.6469353296643,223.34810696624584,1164.12353515625,276.31995511684136
186,2872.83984375,-1166.512939453125,1171.6696184949074,229.25746711055356,1178.01513671875,182.50334094930645
187,3269.241455078125,-1159.091064453125,1163.9317485052857,226.44399416034554,1171.859619140625,178.39410680775003
188,3242.6240234375,-1168.355224609375,1159.383408294284,224.0152001958724,1169.210205078125,183.59261580123794
189,2825.720703125,-1178.3919677734375,1168.5354865227282,227.56017948728197,1176.21923828125,176.72891890679531
190,2968.43603515625,-1158.9056396484375,1158.1942119572727,222.72545797568262,1169.3359375,187.4503887320176
191,3148.6396484375,-1164.2335205078125,1164.753404806116,227.60013673112655,1171.441650390625,187.35617082172448
192,3198.66650390625,-1178.4613037109375,1164.1484651970359,225.0590352940055,1173.86181640625,190.30770699947377
193,4448.5498046875,-1170.2908935546875,1154.659564203346,224.05798478754792,1163.251953125,334.87478693045955
194,4122.1328125,-1166.9146728515625,1160.5168137923702,225.25275448717917,1169.080078125,398.39241334208526
195,3275.5673828125,-1144.9205322265625,1155.3530888755745,223.82905003623412,1164.405029296875,189.05616611452265
196,3193.889892578125,-1134.254638671875,1149.5274925502017,223.30463347751646,1157.778564453125,311.2540012523884
197,3468.62158203125,-1143.6396484375,1142.9443726048517,219.40142559862602,1154.4287109375,260.0376388212193
198,2811.303466796875,-1190.581298828125,1168.513022906926,227.86318569913163,1175.812255859375,180.0650062805344
199,3559.430908203125,-1200.0980224609375,1169.3765180134242,225.30628319019715,1180.087890625,188.78856739626926
200,3399.626953125,-1186.4573974609375,1168.9578055860509,228.87753081340688,1175.100341796875,179.90789892391254
201,3106.206787109375,-1156.0489501953125,1160.5083940105878,225.27061842255216,1169.0472412109375,187.5395061964363
202,4980.646484375,-1147.0975341796875,1161.264185775738,226.07814659021398,1168.9825439453125,342.31871901240237
203,3842.62646484375,-1147.7589111328125,1158.0495631977303,223.68490530693356,1167.955810546875,186.10759020501104
204,3939.613525390625,-1174.1939697265625,1164.6919837620167,225.10304633640334,1174.486083984375,290.8503908301207
205,3042.600830078125,-1171.3475341796875,1157.5747679049498,226.25206394739206,1164.1534423828125,306.07602090974774
206,4296.46826171875,-1148.5494384765625,1138.6370010794942,219.07866086381125,1149.4478759765625,408.6149485356272
207,2856.45458984375,-1163.377197265625,1173.6429921193853,229.06857972581554,1180.718017578125,178.34094791494937
208,3098.416015625,-1157.0128173828125,1162.7164676791247,225.6335699206408,1171.3536376953125,198.36051235268252
209,3256.9716796875,-1174.0887451171875,1166.507612093798,227.2422327126182,1174.081787109375,179.34233402845288
210,4656.70947265625,-1159.147705078125,1140.4499870079762,220.81159198463004,1149.5479736328125,503.9113075868182
211,3415.796630859375,-1184.6357421875,1167.8163724340684,227.21104900019236,1175.756591796875,175.30013578948578
212,4530.7841796875,-1154.6761474609375,1148.9797322626487,221.24715112403788,1159.665771484375,483.8400784013525
213,3173.7412109375,-1149.8323974609375,1162.7085129584207,225.98371728314305,1170.906005859375,177.87941731301441
214,3274.983154296875,-1146.027099609375,1166.6090572122025,229.07967598470913,1171.9117431640625,188.5402877469056
215,3527.942626953125,-1159.272705078125,1162.5755651154932,225.4691040673667,1171.3831787109375,180.92986376165967
216,3091.4267578125,-1185.455078125,1165.1401861650793,226.64605710338026,1173.11767578125,218.23215501898383
217,3202.292236328125,-1197.468017578125,1171.099209413073,229.69199410392974,1176.759033203125,190.52608378564594
218,3462.3447265625,-1184.810302734375,1165.0970381475504,226.35967349777746,1173.421630859375,181.29838374702604
219,2984.0791015625,-1171.6751708984375,1172.8584111249988,228.84206123715092,1180.0205078125,175.36155248988837
220,2982.0498046875,-1149.2611083984375,1156.0899420356745,222.5514597988124,1166.923095703125,178.02335423354955
221,3669.573486328125,-1167.083740234375,1168.1097585246582,226.83488769984433,1176.593505859375,192.39950737928405
222,3199.9765625,-1175.075927734375,1157.6119570275764,222.4025037666778,1169.01171875,226.9135741008582
223,3096.06103515625,-1178.4215087890625,1159.8906048787073,224.77524099473504,1168.894287109375,190.3590925211672
224,3546.67578125,-1174.1541748046875,1165.8304002191649,227.31926988621774,1173.138916015625,232.06284146387372
225,2864.81396484375,-1162.360595703125,1169.3613220524298,226.33541620488006,1178.7823486328125,183.80426410026348
226,3014.588623046875,-1162.774169921875,1167.8847453307962,227.67939931868068,1175.256591796875,171.7623262286418
227,3114.76806640625,-1177.049560546875,1162.956875971823,223.52928541090978,1174.284423828125,200.65938516058412
228,3286.224609375,-1179.210693359375,1165.415214659256,224.01790344862366,1176.74658203125,195.279331318864
229,3007.638916015625,-1154.82177734375,1152.2810071761537,220.57173686575172,1164.6365966796875,178.76572258356828
230,4912.01806640625,-1145.0618896484375,1151.8595821185895,225.70953991850104,1157.6876220703125,371.4120754899182
231,2800.178466796875,-1149.4947509765625,1149.5796849162607,223.82777899813948,1157.1898193359375,173.8622808203116
232,3104.056640625,-1188.008544921875,1166.0086580091809,227.33093689025372,1173.34716796875,183.39909942831534
233,3144.394775390625,-1194.78662109375,1170.609867998537,226.62398702758213,1179.9822998046875,179.6008600136982
234,3615.861572265625,-1178.9066162109375,1164.4905959322996,224.73820449858385,1174.6905517578125,182.21076916805555
235,3342.0625,-1156.8927001953125,1167.5943473000948,225.40690103964255,1177.734375,210.04369939210042
236,3160.346923828125,-1122.6514892578125,1139.7733971237649,217.48481212849498,1152.8607177734375,394.070336520312
237,3968.54541015625,-1152.34130859375,1160.5312343169849,224.0188742686909,1170.6405029296875,348.10362970500665
238,3383.06494140625,-1179.4974365234375,1166.536001409292,228.48857957243922,1172.559326171875,300.0121764371806
239,3090.26904296875,-1183.1339111328125,1161.824903579171,223.54808072608233,1172.845947265625,183.74674366950114
240,2922.55712890625,-1173.9869384765625,1161.0328035592927,225.22512233256236,1169.759521484375,168.03031474661177
241,2792.841796875,-1153.9241943359375,1161.8500937040767,224.51460743507954,1171.6693115234375,186.2615108015883
242,3285.02880859375,-1150.607421875,1163.4776550302297,224.84335479829593,1173.2928466796875,169.6802099433305
243,3719.77392578125,-1160.122802734375,1160.7707117125547,224.836062817291,1169.918212890625,186.25533232549316
244,3042.095703125,-1177.012451171875,1153.7668460554682,221.81981250115254,1164.933837890625,357.6068993327566
245,3053.41650390625,-1195.8961181640625,1168.5619649516007,225.53396221264802,1178.784912109375,186.68215728982668
246,3776.959716796875,-1168.8541259765625,1149.02062575211,222.301917999882,1158.3984375,178.83652918505052
247,3375.47607421875,-1164.276611328125,1170.615255469207,227.46609041107112,1178.9365234375,179.62780172638534
248,3130.15771484375,-1156.65380859375,1169.1408871267802,227.6101640556818,1176.913330078125,185.08448312994278
249,3199.101318359375,-1158.367431640625,1160.1703604516922,226.18492243861527,1167.4818115234375,189.7475341537422
250,2877.64306640625,-1176.92041015625,1157.350672896598,223.82029326746277,1166.9130859375,390.51176502852087
251,2972.2109375,-1190.697509765625,1167.0878362019766,225.34341581661596,1177.1805419921875,186.03190651014555
252,3167.19921875,-1184.8082275390625,1171.0975220563687,227.138503039149,1179.94873046875,196.280650136917
253,2711.755615234375,-1146.7191162109375,1160.7375790551678,225.86467203650622,1168.5911865234375,191.92701567792048
254,3090.743408203125,-1134.3048095703125,1149.0592260316807,221.35661706485314,1159.628173828125,373.10481471916296
255,3258.0869140625,-1157.9534912109375,1161.9597287221593,224.4728856130284,1171.858642578125,180.0199287991911
256,3058.117431640625,-1186.9866943359375,1168.2376491134942,225.07122126277073,1178.9580078125,179.32672207410027
257,2757.677490234375,-1190.151611328125,1170.724643487311,228.58170983252563,1177.6787109375,182.4548630785495
258,3135.181640625,-1176.3837890625,1163.0595016042366,227.06057174006835,1169.998779296875,190.31650829479474
259,2911.145751953125,-1140.683837890625,1148.6970111212322,221.19420662732813,1159.3785400390625,287.0996582169851
260,3011.063232421875,-1135.710693359375,1150.4542788854433,224.60523341806652,1157.3114013671875,351.25584919120826
261,3307.602294921875,-1169.2923583984375,1174.1588313714058,228.15163470659547,1182.509033203125,177.8261490497536
262,3082.8115234375,-1173.792724609375,1154.3251147732726,223.26699042177103,1163.82275390625,225.87096184768924
263,3269.9130859375,-1179.75634765625,1154.551580502974,222.81276359795226,1164.673583984375,189.12296130655605
264,3034.2490234375,-1173.337646484375,1157.241777740388,225.89499569979188,1164.1834716796875,182.7995481854246
265,3087.5205078125,-1157.615234375,1164.4678669883788,226.00205006142235,1173.082275390625,191.51303181061883
266,2937.468505859375,-1162.1864013671875,1171.8135486354254,228.15799944299687,1179.5694580078125,180.55868772184118
267,3392.594482421875,-1144.8326416015625,1144.8854669069065,221.76332068193102,1153.9027099609375,470.0415986116064
268,3007.1083984375,-1180.6044921875,1156.728961228032,222.72143024076928,1167.50927734375,236.27499804438997
269,3108.249267578125,-1199.2247314453125,1172.4155001381823,227.1229692677446,1181.61572265625,171.98970578431715
270,3433.082275390625,-1176.0928955078125,1163.5190497819792,226.1925713006865,1171.6580810546875,287.7452496138642
271,3143.72216796875,-1159.1837158203125,1169.8217562892055,227.94813107033727,1177.342041015625,191.3240930041191
272,3440.443359375,-1156.1016845703125,1172.9300677683655,225.65688227680346,1184.091552734375,176.59802451584196
273,3695.057861328125,-1155.7220458984375,1164.79092527405,225.67590648308982,1173.893798828125,189.51379282355185
274,3468.859130859375,-1188.433349609375,1175.7106432272953,229.51766117353856,1182.7412109375,181.61867992411484
275,3115.800537109375,-1195.4434814453125,1175.2944870389442,228.9515881753902,1182.9287109375,193.02770926717793
276,3186.551513671875,-1173.246337890625,1160.7469490067567,224.71652841730958,1170.0380859375,192.18561635721971
277,3274.252197265625,-1155.4342041015625,1165.6372466844575,225.748821572687,1174.860595703125,193.73678206887516
278,3181.90869140625,-1148.1729736328125,1161.8246589220817,225.98632126224598,1169.7978515625,190.0405254707294
279,3273.93017578125,-1153.0064697265625,1158.3254301389977,222.88697452156984,1169.298095703125,194.10945405834445
280,3149.628662109375,-1185.8936767578125,1170.9055857276785,229.25927349089244,1177.057861328125,184.2943743523241
281,2860.65869140625,-1204.540771484375,1179.9232029073532,230.56633526018223,1186.696044921875,179.6893952216269
282,3468.691162109375,-1184.7098388671875,1165.8731744230192,226.82940825823962,1173.8046875,176.0736697731957
283,2968.945556640625,-1154.53125,1161.1997528763097,225.2891019077581,1169.8883056640625,177.80799800839864
284,3171.10693359375,-1154.2625732421875,1163.0173774099728,223.37880489591564,1174.5482177734375,194.37081543935898
285,3151.534912109375,-1164.1123046875,1170.1143009824516,229.35780849287522,1175.9456787109375,180.28872127951678
286,3669.42529296875,-1180.489013671875,1161.5082575001015,223.7918490566506,1172.1455078125,189.82389465497775
287,3184.07666015625,-1180.79931640625,1158.483171883271,226.6366759449699,1164.80810546875,188.81221064100072
288,3604.720947265625,-1171.3433837890625,1159.6892922430493,225.5315663843609,1167.6971435546875,253.44687611402964
289,2913.3095703125,-1151.4517822265625,1160.55889393098,225.0226028562272,1169.42041015625,176.3754084844044
290,3203.755615234375,-1147.4520263671875,1165.259014477485,226.28027249788585,1173.723388671875,195.39208101013918
291,3197.98486328125,-1128.3797607421875,1135.0039159592357,219.1488180454935,1144.81884765625,483.83904540319236
292,3229.027099609375,-1180.0267333984375,1160.3450122189201,222.9498882126489,1171.743896484375,188.67379300701904
293,2846.488525390625,-1184.3218994140625,1162.9082253144225,225.340106313034,1171.960205078125,182.091463955355
294,3085.669189453125,-1172.6480712890625,1162.6287458521192,226.11415735305,1170.6431884765625,183.46111150266498
295,3261.401123046875,-1140.146728515625,1146.4866720523933,218.8372765388586,1159.561767578125,397.79164259101077
296,3216.0048828125,-1143.8499755859375,1159.9496225235102,224.36730231019234,1169.47802734375,181.43340696594535
297,3396.29638671875,-1165.2769775390625,1171.553320552859,227.6356687326762,1179.8970947265625,194.6710716850762
298,3166.572021484375,-1183.50830078125,1166.1525457740331,226.83095616107235,1174.1519775390625,174.0042250474196
299,3419.57666015625,-1183.961669921875,1158.9812751836912,223.58478650523588,1169.24560546875,186.77743859111672
300,3382.040771484375,-1172.8253173828125,1153.5432066771223,222.51719200341245,1163.7825927734375,192.96274265874615
301,2786.3349609375,-1161.142578125,1171.6970968750516,230.3741079357663,1176.65380859375,184.1864710900291
302,2989.3544921875,-1143.745361328125,1156.3316565899322,223.23073171658012,1166.376220703125,250.46358645582234
303,3498.122314453125,-1147.00048828125,1147.62723059226,221.20580505896527,1158.02685546875,360.9445393462423
304,3113.47412109375,-1182.3917236328125,1160.2383712021433,223.64621097722898,1170.740234375,188.03670794571894
305,3560.79638671875,-1173.552490234375,1145.2328401212178,220.72343253833873,1155.63671875,390.11226074845206
306,3301.48974609375,-1183.301513671875,1165.036351482739,225.081212465634,1174.9439697265625,181.68716183144326
307,3299.41162109375,-1152.444091796875,1157.2159302635341,221.75814835263776,1169.3221435546875,217.6752730786576
308,3279.552001953125,-1149.5440673828125,1162.0829630089406,226.5494786930683,1169.4169921875,179.04385284807285
309,3337.748291015625,-1165.18994140625,1165.9812949643945,223.92102174623935,1177.575439453125,186.63686824170543
310,3402.228759765625,-1172.34814453125,1152.3870360835679,222.36773465715711,1162.524169921875,266.98632234437525
311,3080.08837890625,-1187.1153564453125,1163.816852103571,224.846224128107,1173.7132568359375,179.0207991575641
312,3835.751220703125,-1166.46875,1150.706691910209,219.77302820819781,1163.6669921875,189.7821384847757
313,2725.4658203125,-1155.2886962890625,1165.7346587444276,225.53670041808795,1175.2474365234375,186.55233900421402
314,3137.6416015625,-1154.4775390625,1172.6440620986318,228.0189927903507,1180.78125,179.3186963230771
315,3242.278076171875,-1157.7044677734375,1167.2902128257451,227.53608643791054,1174.692626953125,191.59792312241242
316,3432.99169921875,-1180.0340576171875,1166.3582546587452,227.1012770052417,1174.0711669921875,183.13520061817192
317,3224.4482421875,-1182.5098876953125,1159.9641121967675,223.49845100482736,1170.58203125,173.93152513344674
318,3108.29736328125,-1176.3045654296875,1162.7912154860385,226.12186343144253,1170.836669921875,175.07925323062196
319,3127.65625,-1152.451904296875,1158.2834074689417,222.89511808886806,1169.2353515625,189.33145351529853
320,3276.2373046875,-1148.41748046875,1163.4814308264624,226.83652688053954,1170.80615234375,181.81680273918107
321,3103.358154296875,-1158.20458984375,1159.16765223346,223.11273823581013,1170.0687255859375,182.41952611703593
322,3102.15283203125,-1179.0225830078125,1160.1604237761612,225.73023821974925,1168.037841796875,237.0138307468104
323,3182.861328125,-1191.478759765625,1163.707246846208,225.9144099774449,1172.240966796875,186.25103521914852
324,3662.027099609375,-1165.764892578125,1146.3103371790685,220.52044041073702,1157.2373046875,256.9587070040188
325,2898.414306640625,-1158.7984619140625,1162.5790753974607,225.54281973382706,1171.2952880859375,189.1876103346066
326,3007.11328125,-1143.6632080078125,1155.1293176906165,223.05945524442754,1165.0872802734375,251.53634992192508
327,2915.093505859375,-1158.4501953125,1160.4459252293668,226.25658082323895,1167.736572265625,169.4309157932319
328,3116.102294921875,-1174.548583984375,1153.313674504591,223.16799524529068,1162.68212890625,251.4626837414729
329,3422.3837890625,-1171.764892578125,1143.9163447378603,218.3135934828249,1157.00341796875,260.0870415820169
330,3704.90869140625,-1163.88720703125,1144.831136278519,216.479676632294,1160.439208984375,293.0062525994414
331,3269.7255859375,-1146.4659423828125,1157.306689449048,224.04208949992628,1166.580810546875,199.65382150064303
332,3417.873291015625,-1140.3470458984375,1155.3421836206387,222.89345086307026,1165.56103515625,194.54685933647545
333,3903.595703125,-1154.5389404296875,1160.9182927351712,223.16092144961334,1172.19677734375,198.61565566521412
334,3206.89599609375,-1180.5926513671875,1167.134695744965,227.26190252349141,1174.841064453125,204.24412173756758
335,3500.22705078125,-1172.7628173828125,1149.0183384625766,223.09449040578338,1157.40478515625,386.51214802600606
336,3929.4892578125,-1168.9287109375,1149.3381835210805,219.64447644834567,1162.1171875,186.3004144586055
337,3074.125732421875,-1152.8870849609375,1158.3007683437577,225.1202967744578,1166.4755859375,194.7096822134509
338,2935.9775390625,-1154.4560546875,1161.2854497523933,224.7179272742897,1170.70947265625,187.6464897759554
339,3179.690673828125,-1159.8421630859375,1159.3375881861853,224.5315439891028,1168.507568359375,270.14401114251507
340,3290.464599609375,-1186.0723876953125,1161.50416893076,223.64769317518744,1172.320556640625,191.2825556784365
341,3809.46337890625,-1171.1864013671875,1139.6576501798304,220.52508863922677,1148.915771484375,329.9017977065532
342,3564.12158203125,-1178.27490234375,1156.5101633641407,222.57148405048105,1167.42333984375,179.95613600334033
343,3563.237548828125,-1163.572998046875,1163.3006134524287,222.84544825696358,1175.5689697265625,209.917673262298
344,3080.14404296875,-1136.654296875,1143.0837542268682,217.77981857985753,1156.6298828125,423.7285826666956
345,3067.593994140625,-1163.979248046875,1164.0230147945767,222.90789381145305,1176.3939208984375,175.75440828530208
346,2928.03759765625,-1167.243896484375,1152.6169117152172,223.81419574613142,1161.00341796875,372.06258058148563
347,3016.0224609375,-1185.4061279296875,1164.8968032115604,227.0691637748384,1172.2845458984375,177.76517503329677
348,3198.664306640625,-1174.8857421875,1163.9769339210384,225.59291080301932,1172.97998046875,183.6668043134826
349,2959.05419921875,-1140.80615234375,1150.5018927932651,218.6401485324771,1164.8271484375,183.69523348814684
350,3464.500732421875,-1153.273681640625,1171.5221109979016,226.66126204656194,1181.0760498046875,192.1192536533138
351,3730.6220703125,-1153.9114990234375,1160.4428883912822,222.86594987836082,1171.97119140625,194.93666039809034
352,3196.9609375,-1181.46484375,1168.6849684324961,226.5689574238757,1177.64501953125,200.8906758890972
353,3241.109619140625,-1184.352294921875,1162.975289501374,226.59593173426896,1170.47412109375,176.80642514410593
354,3565.87353515625,-1180.2718505859375,1164.0611335668955,223.61378058532793,1175.55908203125,187.7068650359522
355,2831.3310546875,-1155.25732421875,1163.0251131775053,224.05699195882377,1173.710205078125,186.7189606887045
356,3017.864013671875,-1146.50732421875,1156.7537007412361,222.63841933668115,1167.64404296875,192.6026661196549
357,3399.39453125,-1162.4722900390625,1164.0501926992306,226.23057310918668,1172.2745361328125,185.3214116050895
358,2863.2490234375,-1184.8099365234375,1162.7651294513742,224.7346889012629,1172.5380859375,186.72678889116744
359,2860.34814453125,-1201.151123046875,1172.469004246328,227.13781678352134,1181.6639404296875,188.08686677339932
360,3382.367919921875,-1188.6177978515625,1168.4398367150593,225.47530047734244,1178.7056884765625,182.99304162396604
361,2898.471435546875,-1157.5146484375,1162.3865778139082,225.09416065721183,1171.615478515625,187.0739093117922
362,2941.28564453125,-1154.53857421875,1166.8711486467664,226.45256158202315,1175.523193359375,179.0046937747852
363,3337.396484375,-1156.3004150390625,1153.2789359825802,221.3021436411093,1164.970947265625,341.2388408744617
364,3067.628662109375,-1187.7177734375,1166.307654211407,225.33275712478664,1176.2186279296875,189.89219158400414
365,3555.315673828125,-1182.280029296875,1154.3124748798177,221.010526094036,1166.62744140625,177.93711673916022
366,3955.34814453125,-1169.7733154296875,1148.8612613165676,218.1839496100246,1163.3466796875,186.70366631709496
367,3789.2578125,-1143.83203125,1147.6771705541646,219.48159425592763,1160.244384765625,409.2765266645417
368,3066.207763671875,-1149.677734375,1162.477736039782,226.27464313092284,1170.25390625,241.4286875037489
369,3456.455810546875,-1156.3653564453125,1163.5496474106524,225.6732351680013,1172.3455810546875,195.67879740090314
370,3383.2431640625,-1174.7064208984375,1153.3574836326318,220.63931347853702,1165.8978271484375,190.10376089824652
371,3489.679443359375,-1194.541015625,1168.1537636590763,224.06466296441982,1180.111328125,178.60695244073133
372,2885.899658203125,-1169.0311279296875,1156.8187113169638,225.54234803952855,1164.095458984375,402.657494222397
373,3144.04296875,-1146.961669921875,1156.1339062541983,223.7801209539436,1165.4422607421875,189.606709742368
374,3180.55029296875,-1145.154052734375,1160.5661491919245,224.807640748092,1169.697998046875,234.32142444124952
375,3273.995361328125,-1155.68505859375,1158.9398829904105,223.126877864888,1169.7662353515625,186.74565846160118
376,2796.088623046875,-1184.59033203125,1165.4353925756839,224.3178955249216,1176.3968505859375,211.04654426359025
377,2870.860107421875,-1182.263427734375,1159.0121765066813,225.48767372862795,1166.9056396484375,177.69171930425273
378,3237.083251953125,-1173.9246826171875,1158.8564661903758,225.0609844131846,1167.244384765625,275.18253581700145
379,3495.058837890625,-1149.6566162109375,1155.5013454444688,220.4319243163319,1168.8367919921875,189.30726161918818
380,4070.72998046875,-1136.731201171875,1148.622992027853,220.16331914171946,1160.5745849609375,399.2337234826942
381,3395.982177734375,-1163.09814453125,1171.9630446606136,228.5437273197628,1179.274169921875,196.0805241785176
382,3300.209228515625,-1179.57568359375,1164.6577294955575,225.3686075816475,1174.111328125,188.31197643080748
383,3273.7470703125,-1172.636474609375,1148.8769514429464,221.29000043748744,1159.483642578125,322.7590605713271
384,3586.0400390625,-1171.261962890625,1153.8753294302828,217.46036557245304,1170.518798828125,203.90527183271203
385,3081.214599609375,-1146.9749755859375,1154.5168951799608,220.78234460851894,1167.168212890625,190.01732737029718
386,3115.731689453125,-1159.9422607421875,1178.069823035311,229.69178076655794,1185.47265625,179.6110675219435
387,3371.1962890625,-1154.3250732421875,1160.076127824347,223.07212542013397,1171.255126953125,191.6446428581842
388,2735.94921875,-1178.0478515625,1160.7907922448812,225.2429358186422,1169.434814453125,178.06288424568544
389,3317.28955078125,-1190.38134765625,1161.832123871698,222.2897285422228,1174.427978515625,185.18725352478148
390,3484.331298828125,-1150.7291259765625,1135.1750419528269,217.650040003755,1146.90625,418.2464025224509
391,3073.831787109375,-1153.0068359375,1157.9918903969071,224.0864582918428,1167.3818359375,250.36906251573228
392,3003.000732421875,-1160.9749755859375,1170.28865093479,225.63339523563212,1180.819091796875,176.47646640261104
393,3255.264404296875,-1151.803466796875,1151.8976816885697,222.563703041576,1161.66748046875,360.1331800385215
394,3268.42236328125,-1183.583251953125,1162.0698044660576,223.235448026944,1173.54296875,191.37791606229993
395,3461.43310546875,-1166.0655517578125,1143.845161210544,218.90740923786856,1156.1722412109375,436.64371086731035
396,3060.7802734375,-1170.9757080078125,1160.9138550011521,223.33909718674482,1171.968505859375,183.03823949821495
397,3070.60205078125,-1147.4598388671875,1157.594455931211,223.35524592759646,1167.799072265625,192.27850133351157
398,3246.1953125,-1155.63525390625,1169.7547961282335,227.5942038106523,1177.70068359375,179.53424225720187
399,3392.08984375,-1151.9385986328125,1148.4625442725278,220.3697848301981,1160.115966796875,189.84753790003478
400,2733.978515625,-1181.6226806640625,1155.6300546582786,223.39821204505824,1165.289794921875,185.91064444661103
401,3750.5341796875,-1203.5906982421875,1169.2403200707947,226.11359930854175,1178.908447265625,176.13593061197292
402,3852.73828125,-1196.7261962890625,1170.1942259448651,226.3356091874723,1179.8232421875,179.28112889785217
403,3259.824462890625,-1140.063232421875,1136.034171185313,218.80875833970146,1146.53173828125,467.4246373982364
404,2773.25390625,-1156.3763427734375,1161.6472093591256,225.0619280347389,1170.731689453125,181.80183815485327
405,3299.74560546875,-1156.480712890625,1154.8250042336454,223.20184868745702,1164.529052734375,350.8214012445867
406,2920.193359375,-1173.051513671875,1154.6274398322735,223.55647625881772,1163.838623046875,336.48903523001115
407,3090.30810546875,-1181.607177734375,1166.3535043067297,228.40237839883184,1172.43896484375,185.07704501483647
408,3102.79736328125,-1167.8475341796875,1166.288283966015,225.43048529429245,1176.072265625,192.8503313580782
409,2936.590576171875,-1144.009521484375,1156.3141657571798,219.48825228023586,1171.0323486328125,199.98224191356312
410,3962.24267578125,-1134.9351806640625,1153.5247018962564,222.5662906795203,1163.697998046875,188.4725463926751
411,3773.0322265625,-1149.8609619140625,1158.772477480874,224.2865067691659,1168.107421875,197.7987958676847
412,3336.62158203125,-1155.6739501953125,1142.3141395547532,220.8717328050279,1151.802978515625,359.6586337505619
413,3499.417724609375,-1185.6170654296875,1161.8560062744568,224.14114929222555,1172.1435546875,178.0327476521843
414,3799.94921875,-1177.2044677734375,1155.4471384091744,221.09061134294353,1167.9456787109375,283.2905342365896
415,3579.38818359375,-1149.28759765625,1149.5746011207073,220.6907728145091,1161.104736328125,416.418100576181
416,2907.279052734375,-1157.2174072265625,1159.932774363017,223.686408958888,1170.307861328125,188.0317816071088
417,3146.6201171875,-1150.29248046875,1140.601152997315,219.8542577078939,1150.93359375,476.5738419920035
418,3407.792236328125,-1168.9132080078125,1157.0118931090142,222.3115256761815,1168.37548828125,195.11501947640758
419,3142.86962890625,-1149.8399658203125,1146.7274036973463,218.7110932349441,1160.0203857421875,292.91872102522393
420,3166.35302734375,-1150.2421875,1147.5072396757505,218.87820667051312,1160.786376953125,275.4393373007491
421,3122.481689453125,-1178.8232421875,1164.030947177128,223.94901550264726,1175.1024169921875,187.37912891515052
422,2886.535888671875,-1157.4468994140625,1145.7620115468553,220.74834649062683,1156.26708984375,409.4913052805196
423,3014.470947265625,-1161.039306640625,1165.2418466649617,224.73475378375912,1175.6337890625,182.2492755687052
424,3091.2568359375,-1140.038330078125,1138.961353783388,217.82587638356185,1151.41943359375,477.60454805910985
425,3136.060302734375,-1174.3094482421875,1161.141209315261,225.3329209556191,1169.7603759765625,329.7947930035307
426,3116.15869140625,-1172.4864501953125,1157.4611363623394,223.2468520376933,1167.767822265625,181.61150401994075
427,3160.4404296875,-1147.3543701171875,1146.0220302979933,220.86404112982606,1156.447509765625,411.5357039505543
428,3418.40673828125,-1151.4766845703125,1152.0093561850385,223.26519534214293,1160.93017578125,383.51570672851983
429,3222.725341796875,-1169.029541015625,1155.0393685462786,221.9877105983808,1166.314453125,188.3867582022649
430,2735.3388671875,-1170.1826171875,1164.3116168440627,226.0465794028089,1172.831298828125,222.44796468128828
431,3077.431884765625,-1150.8192138671875,1151.5678213357828,221.59005294441195,1162.4722900390625,296.5398869916084
432,3110.37890625,-1163.0966796875,1156.8736975212157,224.41026332569717,1165.5792236328125,184.13596311380772
433,3218.36572265625,-1180.1636962890625,1160.874927276191,224.5783067403404,1170.3707275390625,208.90559739614642
434,3024.718017578125,-1172.99072265625,1151.5752562413536,220.75937775472036,1163.519775390625,194.4201640822811
435,3518.86083984375,-1161.271728515625,1158.4756111865631,223.27382609897768,1169.002197265625,198.2172902312299
436,3438.641357421875,-1152.683349609375,1153.2167205885298,221.4078280046827,1164.7611083984375,310.8688358447853
437,3373.50244140625,-1162.43798828125,1156.5402752972934,223.53582764042352,1166.255615234375,189.75561848022394
438,2748.189453125,-1189.15771484375,1167.6631653101945,226.3397806437514,1176.654296875,192.66271469494808
439,3052.9658203125,-1191.6534423828125,1173.6476781574372,228.6207100835922,1181.28369140625,183.6457818675072
440,3174.66845703125,-1153.5794677734375,1149.130014509741,221.52374655682183,1159.5078125,401.28403929662545
441,3159.04541015625,-1161.87744140625,1169.076077211347,228.04263242527512,1176.291748046875,181.0543653051858
442,3323.757568359375,-1156.4854736328125,1158.3282254305068,224.1738400545302,1167.6929931640625,190.5643540503085
443,3249.64208984375,-1174.3704833984375,1160.6529441093674,222.66720908932587,1172.482177734375,191.76372795915205
444,3216.783203125,-1174.1285400390625,1159.5761391674348,224.5990997349091,1168.7213134765625,191.6252162190676
445,3317.644775390625,-1174.81787109375,1172.3828230710392,226.96765466646,1181.76904296875,184.14160760896598
446,3425.20849609375,-1160.100341796875,1160.2791215858379,225.67205729102292,1168.2587890625,280.78810166229863
447,3292.41357421875,-1173.421875,1164.906137251086,225.16191766185253,1174.6802978515625,293.7010425301254
448,3434.67822265625,-1159.7230224609375,1153.5194277695737,220.33131546893918,1166.485107421875,302.9100953329972
449,2718.541259765625,-1177.2066650390625,1163.5486766654028,225.64001236734535,1172.3858642578125,192.88782022909564
450,3207.06787109375,-1179.197021484375,1168.0979297740255,224.66116865704424,1179.2960205078125,193.09539965122147
451,3228.914794921875,-1151.7635498046875,1157.6445695670945,222.624014446388,1168.775634765625,184.8061427739172
452,3687.04345703125,-1156.907958984375,1163.4368832547111,227.1181010324401,1170.3985595703125,239.3655833865755
453,3220.618408203125,-1181.992431640625,1171.1870790730536,227.39987561808252,1179.7340087890625,194.60767369191026
454,3505.73388671875,-1172.7730712890625,1159.134763149873,223.4407416864789,1169.617431640625,183.67989537731304
455,4078.448974609375,-1166.7364501953125,1164.7987662547746,223.5228068822541,1176.594970703125,241.1920152705182
456,3554.21484375,-1163.3927001953125,1158.940176666553,220.25802353734787,1173.3526611328125,218.23975544577672
457,3779.89697265625,-1171.031005859375,1158.6938413091557,221.0969723649876,1171.99609375,274.0002304826041
458,2994.902587890625,-1165.1070556640625,1159.6429413232786,225.67883230781393,1167.455078125,182.91440767501004
459,5401.9130859375,-1165.7384033203125,1159.528505002248,223.28262268184392,1170.3072509765625,410.99182073895213
460,2977.150390625,-1159.86865234375,1156.932182717871,220.9018573766463,1170.037841796875,270.9595785943999
461,3222.45068359375,-1165.01220703125,1157.537795813423,220.51651635919154,1171.276611328125,298.12972389082546
462,3064.6083984375,-1182.2745361328125,1165.39588354042,226.59739763846844,1173.498046875,192.7242808356942
463,3402.05712890625,-1180.7705078125,1167.5143038960452,224.14937817773773,1179.2061767578125,190.39186258670398
464,3612.13134765625,-1163.2542724609375,1165.8526819550457,223.46990366811178,1177.978515625,189.97068097521085
465,3488.942626953125,-1150.813232421875,1155.1036997662532,220.77309275731932,1167.913330078125,194.29174471933587
466,3990.7451171875,-1158.7281494140625,1151.1261103115164,221.81021420575001,1161.644775390625,291.78019051192297
467,3667.6513671875,-1168.3436279296875,1158.089973832434,223.6731785309966,1168.02099609375,227.70647107969208
468,4278.56591796875,-1154.385498046875,1148.557375941387,222.73230459462712,1157.28125,364.0719485700663
469,3173.904541015625,-1158.658447265625,1161.424787529758,222.79455382471426,1173.287841796875,196.15250028883676
470,3251.23046875,-1161.0030517578125,1160.010841496769,223.95778215724573,1170.06640625,193.99214789279603
471,2872.34130859375,-1186.9840087890625,1168.0459151306459,223.81746914771273,1180.28564453125,187.52564809149732
472,3502.332763671875,-1175.7410888671875,1157.037146963044,221.80247093574587,1169.04345703125,184.30241147867346
473,3418.930908203125,-1162.7784423828125,1159.6934066926833,221.46278974169454,1172.788330078125,185.01427627593856
474,3409.73193359375,-1139.9732666015625,1149.2672859849235,217.91124265806894,1164.195068359375,318.96601657144856
475,3225.720947265625,-1149.9359130859375,1159.006335298597,224.2054674549691,1168.5010986328125,179.5212637810463
476,3821.78076171875,-1163.375,1158.5402058199645,223.61132436549673,1168.6611328125,412.7909727264481
477,3273.7265625,-1188.6490478515625,1168.3898937467584,226.90306320228675,1176.8585205078125,186.63839982292163
478,3800.434326171875,-1163.318115234375,1142.4790647838997,220.25243600353474,1152.783203125,427.3423289910359
479,3361.484375,-1175.30810546875,1166.8090332272732,222.42986977131,1180.473876953125,185.98344424047835
480,3360.822021484375,-1171.11572265625,1171.9687974434892,229.6040805321733,1177.955810546875,195.05044767927347
481,3105.952880859375,-1167.5814208984375,1160.521034920317,221.6522910715163,1173.5859375,215.88750399015623
482,2922.60498046875,-1170.68017578125,1165.2463999003885,226.16033886380163,1173.8575439453125,200.84086346616826
483,3300.6748046875,-1175.248046875,1164.5145199780063,225.42130258127003,1173.866455078125,297.09586176080506
484,2984.256591796875,-1173.1817626953125,1167.3112726121287,224.29597953847434,1178.76904296875,185.54081175245332
485,2844.41552734375,-1169.6558837890625,1163.9436329694965,226.19274071180607,1172.1885986328125,185.6828062122524
486,2769.564453125,-1179.232666015625,1169.1237449813286,228.45218927148966,1175.83935546875,179.2013252226211
487,3007.64892578125,-1178.8023681640625,1173.6557551370188,227.37331700187167,1182.85302734375,181.32846215686578
488,2676.09814453125,-1166.5821533203125,1166.3063796823224,224.68584414174163,1177.025634765625,178.59847463256835
489,2898.556396484375,-1159.6981201171875,1154.341623698685,222.7821070899697,1164.449462890625,371.7988617829942
490,3390.34765625,-1168.023681640625,1152.7498102059521,223.4797251349247,1161.587646484375,450.30710648559926
491,3891.248291015625,-1174.7425537109375,1159.6283422594051,219.5934655790308,1175.043701171875,189.16746458625155
492,3126.67919921875,-1158.147705078125,1162.2276675456285,223.145903848958,1173.8521728515625,193.10041455876222
493,3585.8720703125,-1142.7099609375,1150.31380719602,221.19503230213996,1161.3984375,293.34953020185645
494,3767.461181640625,-1171.3553466796875,1164.5533237112986,223.96830636396268,1175.7313232421875,184.6422484801918
495,3501.23876953125,-1181.7281494140625,1163.9897733409678,224.35144321217882,1174.5478515625,193.1740908847258
496,3733.074951171875,-1174.735595703125,1162.6183269380867,222.99553095095743,1174.528564453125,192.83110949773766
497,2986.940673828125,-1159.054931640625,1165.288315002317,225.64860736548377,1174.549560546875,184.65493654369118
498,6275.7392578125,-1137.8446044921875,1152.2407544279122,224.49452795028918,1159.682861328125,418.4233778669233
499,3778.107421875,-1164.5338134765625,1160.5860004421975,221.42596120803586,1173.9500732421875,185.64829594827285
500,3638.836181640625,-1188.9847412109375,1166.974461229025,224.39103389519335,1178.229248046875,184.88730363865793
501,2983.7734375,-1186.849609375,1167.736260608227,225.6112618480035,1177.65625,172.84521415506845
502,3785.900634765625,-1155.7489013671875,1148.2739951947694,221.93946510348366,1157.918212890625,411.6030208201848
503,2704.0,-1158.3875732421875,1164.1682532281404,222.51820926375433,1177.0625,237.60111906199776
504,3225.14208984375,-1163.798583984375,1164.41108198877,224.12129617448466,1175.3621826171875,237.95717154634713
505,3269.47216796875,-1180.0635986328125,1166.7760898824786,224.77359039746284,1177.503173828125,188.75204543305182
506,3313.013671875,-1170.7637939453125,1155.3898724645387,222.6077524989854,1165.9776611328125,208.63941009708518
507,3269.9541015625,-1171.38671875,1168.490152226814,225.72317072642664,1178.458740234375,191.50805669991865
508,4179.5126953125,-1141.9705810546875,1143.1092339365307,219.38380089686544,1154.65673828125,413.60962483845265
509,3348.2685546875,-1163.3997802734375,1158.7190024972538,224.300260174332,1168.0234375,186.35722398220324
510,3047.90380859375,-1177.3798828125,1168.4189903598835,223.65128372726926,1180.9595947265625,195.77452483859145
511,3047.220458984375,-1172.5037841796875,1161.8483964437266,224.40716127097807,1171.801513671875,313.6905362352599
512,2832.772705078125,-1172.7860107421875,1168.1267070179836,226.6201001530543,1176.88330078125,174.83713706770004
513,3159.49560546875,-1160.9766845703125,1158.241240063139,222.34829937500575,1169.8662109375,279.17946791701405
514,2805.364501953125,-1192.3096923828125,1177.0570472977429,228.2028174660473,1186.06787109375,179.36834041908233
515,3450.735595703125,-1173.340576171875,1159.4247638654797,222.2895872068495,1171.4189453125,206.36159006780733
516,3349.571533203125,-1159.271484375,1160.6531322750984,220.83637692963464,1174.77099609375,203.34289613509736
517,3388.459228515625,-1149.210205078125,1151.1098854003194,219.14008087494383,1164.9622802734375,220.34764521043792
518,5370.23095703125,-1156.922119140625,1152.1923253735647,219.6007186612232,1165.739501953125,334.4187713072239
519,5437.4599609375,-1176.469482421875,1156.8652942435467,222.01171381637687,1168.56689453125,364.9225101742397
520,3439.84130859375,-1186.42333984375,1164.7246947599665,224.47284608614612,1175.3148193359375,187.55477589453696
521,3494.10986328125,-1163.1990966796875,1158.6655047633833,222.82741501118596,1169.797607421875,181.9836217396811
522,3166.59130859375,-1154.72900390625,1158.995861359092,222.0865919427597,1171.136474609375,195.45150579956706
523,3659.37939453125,-1152.1953125,1149.5076473797917,219.25610998228785,1162.8143310546875,405.636663637644
524,3420.575439453125,-1182.3082275390625,1165.214721592757,223.81097825417197,1176.754638671875,195.3427853206373
525,3049.3486328125,-1192.9600830078125,1173.5049504765077,226.31768765531018,1183.984130859375,191.55209210021565
526,3063.068603515625,-1168.1895751953125,1158.4001541408654,223.3496017488594,1168.813232421875,297.3256238438213
527,3020.8388671875,-1160.5484619140625,1164.6370338760248,224.4219940505853,1175.268798828125,185.52700479913034
528,3323.530517578125,-1161.3349609375,1160.7718848581326,226.12967280101904,1168.302734375,194.40780559727426
529,3306.63232421875,-1177.807373046875,1158.6003547121913,223.18560206193038,1169.268310546875,180.47768923933623
530,3607.898193359375,-1176.405029296875,1159.627955651574,223.50409896402812,1170.15478515625,256.8894991381314
531,3984.466064453125,-1160.560791015625,1158.3524505375897,223.88318046322215,1168.086669921875,287.42341876333694
532,3586.3681640625,-1156.6270751953125,1163.418911704387,221.50996247228557,1177.38623046875,188.9942580809053
533,3802.4814453125,-1154.281005859375,1162.0394508006218,222.27230993529585,1174.708984375,192.3364677835325
534,4268.68359375,-1169.327880859375,1162.967104387115,224.7334081171259,1172.7921142578125,395.99285144454774
535,3374.1279296875,-1188.4803466796875,1164.6158547709758,224.09004109604894,1175.6572265625,178.1137900036385
536,3373.116455078125,-1196.41796875,1166.3233350418031,225.75659498195034,1175.70849609375,186.82313296713787
537,3785.43798828125,-1184.35791015625,1167.7308163788998,224.19381023914465,1179.4212646484375,181.4039048577711
538,3038.052734375,-1159.2156982421875,1165.9818459040466,224.1248126125874,1177.3212890625,182.19594488249516
539,2905.39208984375,-1141.6712646484375,1157.277377163739,222.56010457065787,1168.3966064453125,419.88817192475284
540,3244.306396484375,-1158.71435546875,1162.9638003847153,223.88001985760022,1173.854736328125,195.57266395096866
541,3192.31591796875,-1170.75537109375,1152.956413951588,219.9862306744579,1166.212646484375,342.20935138604665
542,3161.970458984375,-1179.59521484375,1157.4344596491655,221.91336530311906,1169.4013671875,187.02709132358086
543,3671.119140625,-1164.046142578125,1154.428821047022,222.49005052633498,1164.9234619140625,327.64169033504135
544,2903.18603515625,-1151.8646240234375,1163.277152573684,225.2364018317253,1172.5509033203125,217.49469538589852
545,3309.975341796875,-1144.3306884765625,1155.6211324836777,221.61691334505514,1167.50537109375,203.69075611201978
546,3826.733154296875,-1153.92919921875,1154.898340128631,220.62578156170298,1167.8406982421875,343.8375456252498
547,3090.08251953125,-1180.9075927734375,1156.2857031202793,221.84950362210253,1168.045166015625,337.0223010868508
548,3526.6357421875,-1184.0850830078125,1151.7874243253532,221.96842514813568,1162.273681640625,340.0427837645385
549,3850.664794921875,-1181.4359130859375,1157.0891635119924,221.96003950834353,1168.911376953125,189.26278987838683
550,3172.6982421875,-1156.83056640625,1155.0349743670488,220.2270101374651,1168.510009765625,192.4456785408398
551,3292.71337890625,-1150.412841796875,1158.091329141082,223.88050845873522,1167.7635498046875,327.9341472246212
552,3545.441162109375,-1159.84326171875,1160.3647704309208,221.9772245115024,1172.984375,187.90541590471076
553,3062.5673828125,-1182.6934814453125,1161.1961019236776,223.2255611617299,1172.463134765625,190.6347819828694
554,3292.40625,-1184.897216796875,1157.055902857077,220.41781470228423,1170.797607421875,189.84012062705372
555,3319.762451171875,-1173.378173828125,1156.3302658403395,220.56985708122255,1169.7005615234375,197.18369189148132
556,3281.9599609375,-1154.332275390625,1165.4823103354802,224.46705188020343,1176.26904296875,181.9972288412995
557,3397.330078125,-1140.023681640625,1159.4613989886318,223.24816927876813,1170.2664794921875,196.98891721655755
558,3269.74755859375,-1154.8568115234375,1161.189229988122,221.59663243200765,1174.49072265625,218.7277168636026
559,3689.06689453125,-1181.94921875,1164.3816804843427,222.15770790152567,1177.780029296875,201.64711698433842
560,3005.300048828125,-1175.38427734375,1154.454854671129,218.9467618862474,1169.3851318359375,185.1212723739571
561,3298.052001953125,-1171.8685302734375,1163.117967109491,223.16106102924505,1174.946044921875,187.4005346134539
562,3262.85546875,-1132.0369873046875,1140.551689551548,216.53953714199443,1155.01513671875,288.5337186706806
563,3524.77490234375,-1148.4320068359375,1168.8439533312915,228.7518604000209,1175.1151123046875,193.05193890506135
564,3740.152587890625,-1164.476318359375,1167.8237604315634,224.00365006283488,1179.775146484375,186.23770553696073
565,2961.845703125,-1175.3309326171875,1151.985805128882,220.31246921903852,1164.5916748046875,187.05180073613548
566,3508.174072265625,-1193.85595703125,1165.90554002942,224.05918900193117,1177.307861328125,186.09242805906862
567,3556.58349609375,-1160.837890625,1143.4516409711446,220.37722732587707,1153.843017578125,511.7366424867763
568,3005.208251953125,-1148.708984375,1150.3870577527764,220.1010999037507,1162.857421875,317.7959809955209
569,2976.10791015625,-1155.6370849609375,1162.5047427280324,222.8556754453556,1174.561279296875,197.23116297873955
570,3589.38623046875,-1145.8812255859375,1143.3352709656403,219.84488426501014,1154.363037109375,274.4414433388666
571,2596.338623046875,-1182.3302001953125,1160.5766109422527,223.72850851572363,1171.06005859375,322.0292704114792
572,3504.876953125,-1180.8353271484375,1149.8130165637103,218.12929515248194,1164.604736328125,267.8491984147143
573,3689.960205078125,-1182.645263671875,1162.2328066965451,222.92797781432773,1174.131103515625,188.81691138204033
574,3126.201171875,-1157.751953125,1161.3034648252312,224.89488547571344,1170.5107421875,373.0703754908059
575,2949.4658203125,-1160.2567138671875,1170.7866417739333,226.2456029746474,1180.67626953125,186.65027164989797
576,3451.60693359375,-1151.3369140625,1151.9549105699407,223.16191956356636,1160.9912109375,319.1385021059673
577,3258.7958984375,-1175.195556640625,1152.9563977215616,221.6965923045006,1164.07470703125,207.75761932114693
578,3516.574462890625,-1188.4688720703125,1158.5168936788673,222.63817227479154,1169.848388671875,200.40989153954504
579,3441.01220703125,-1176.3133544921875,1156.069502129185,221.1420865257855,1168.6591796875,311.8520662762355
580,3359.14892578125,-1153.0849609375,1157.0283165918206,221.40867450102328,1169.5244140625,187.82885808850193
581,3362.6025390625,-1153.6376953125,1165.8397259065425,225.3453777620112,1175.617919921875,321.36538006021163
582,3470.7607421875,-1156.832763671875,1162.087763129216,225.2169647261913,1171.08837890625,188.9397228640465
583,3396.010009765625,-1177.300537109375,1159.7877332929556,223.19071457423587,1170.746337890625,183.45084919012817
584,3160.80029296875,-1185.966552734375,1163.594464421804,224.08998584875002,1174.380615234375,201.32364001471666
585,3505.578125,-1183.0020751953125,1167.5975314829257,222.8455280277634,1180.93994140625,186.8556370537688
586,3036.1337890625,-1148.7669677734375,1156.9428692231975,219.80492165191993,1171.4224853515625,196.33557180489473
587,3727.60400390625,-1142.08642578125,1161.5814843244802,224.2448401994954,1171.6707763671875,193.89230415550193
588,3468.264404296875,-1147.1043701171875,1155.064663879896,222.8369402694948,1165.28466796875,256.87193999529387
589,3725.890625,-1159.8048095703125,1143.0189534508763,218.29089797373376,1155.9100341796875,387.1354943277312
590,3481.592041015625,-1170.7528076171875,1148.9345359398671,217.71829128252938,1164.020263671875,289.2917011430203
591,3497.57470703125,-1158.079345703125,1146.9906849412882,217.48986889409645,1161.8759765625,383.8262451592472
592,2830.6396484375,-1149.576904296875,1157.0059024095344,223.45167345998763,1166.94287109375,376.18839080236444
593,3294.031494140625,-1150.7537841796875,1155.7987408233762,219.97486482839562,1169.77978515625,192.14320997706463
594,3269.03564453125,-1164.0301513671875,1151.403047338368,220.6089317890419,1163.49267578125,206.16935201410368
595,3056.174560546875,-1174.5877685546875,1161.28290274873,222.76559317841736,1173.1466064453125,273.22367130658193
596,3241.35693359375,-1162.3360595703125,1160.5853527614302,223.6428960868543,1171.177978515625,270.9075105516514
597,3063.32080078125,-1163.3590087890625,1158.9907968791085,220.53100962954332,1173.07470703125,192.91197438341737
598,3610.77001953125,-1173.0355224609375,1161.0319086945894,221.1215444005373,1174.887939453125,237.9541324886245
599,2707.087158203125,-1168.40576171875,1162.8300962560938,224.69139856036168,1172.67333984375,177.58351047200458
600,3304.080078125,-1162.3572998046875,1161.2765464912418,223.22955968484928,1172.558837890625,186.67000376774553
601,3353.151123046875,-1165.5723876953125,1158.2356166972522,221.32152750331204,1171.142578125,277.45634335477706
602,3360.28662109375,-1165.4503173828125,1144.7833831661947,221.18236192405283,1154.501220703125,367.2452745878956
603,3588.61376953125,-1190.3228759765625,1171.0164581852569,226.08636512333288,1181.16259765625,188.8982661649826
604,3073.377685546875,-1168.380615234375,1166.4680120021626,224.7319983751101,1177.169921875,182.96279895729498
605,3002.43798828125,-1170.3046875,1169.3996349019228,224.79499515716412,1180.7557373046875,194.18126289516738
606,3330.32080078125,-1179.5771484375,1169.3464727492149,226.3602270932014,1178.73291015625,327.9956981730102
607,3387.677978515625,-1161.361572265625,1150.7850886374515,219.51150336561614,1164.0919189453125,230.05164988124292
608,3175.0146484375,-1156.739013671875,1161.4255836748312,224.71548806063612,1170.8876953125,193.04050458890532
609,3467.556884765625,-1138.0321044921875,1141.5027757287135,218.0196705937494,1154.3538818359375,472.95077441433443
610,2712.877197265625,-1174.432861328125,1164.1464373100625,223.99118254073738,1175.194091796875,195.12151719584605
611,3043.76171875,-1187.3004150390625,1176.268597227166,226.79080825431132,1186.8472900390625,186.3591314690391
612,2911.26953125,-1159.7283935546875,1160.6648654923183,223.90238106105141,1170.953125,220.04700691843993
613,3012.531005859375,-1168.5545654296875,1167.2424964673994,223.28251725511518,1179.949951171875,193.8314986377265
614,2751.22998046875,-1168.8936767578125,1154.370755901935,222.84356981814125,1164.4090576171875,297.9317291626054
615,3155.23974609375,-1183.025634765625,1168.1713757150085,225.70659929441513,1178.0809326171875,192.23583337561607
616,3355.08544921875,-1171.54052734375,1169.69238095434,224.34717948587212,1181.6815185546875,239.0440064780639
617,3104.563720703125,-1157.3880615234375,1158.028332788527,222.51653125959632,1169.3896484375,188.67600566453848
618,3809.322509765625,-1163.42724609375,1150.1515590446215,217.33814497163098,1166.0167236328125,309.82841312706955
619,3013.82275390625,-1176.2650146484375,1167.4104339523792,225.81135319905255,1176.998779296875,254.72354024527323
620,3093.602783203125,-1148.6513671875,1154.93077158367,221.1145646158394,1167.270263671875,201.28839922296945
621,3719.06103515625,-1155.69384765625,1164.05960078105,222.8449561105635,1176.518310546875,228.93902561515773
622,3672.93701171875,-1163.9415283203125,1158.9729358168288,222.8510466547651,1170.15234375,336.64067481071135
623,2920.07958984375,-1189.719482421875,1160.7406981240274,225.07803640470502,1169.578369140625,340.5778462588474
624,3987.431640625,-1200.4461669921875,1160.9200324255632,221.47407309595806,1174.307373046875,237.07211881832333
625,4337.064453125,-1194.77392578125,1166.5255152866114,225.03130113332162,1176.86767578125,195.23382514957828
626,3794.1015625,-1154.160400390625,1150.8513560722372,221.8158327455423,1161.29443359375,319.41120192576005
627,3277.123779296875,-1156.253173828125,1171.4656324298103,224.47885735640116,1183.7333984375,195.20467867334116
628,3558.557373046875,-1145.9249267578125,1165.374266373758,224.36310487950288,1176.263916015625,193.76959816703925
629,4097.5,-1145.0611572265625,1154.6572054998442,221.6828919546171,1166.2178955078125,289.91216586284224
630,3847.660888671875,-1176.2872314453125,1160.1393645834105,221.66260350457588,1173.095947265625,196.55680150483488
631,3408.771484375,-1182.0159912109375,1159.0950441393854,219.3565553817752,1174.673095703125,197.4106903750342
632,3480.25732421875,-1173.6334228515625,1160.5509430024053,222.8507896038917,1172.125244140625,189.48589083916988
633,3200.3955078125,-1155.2493896484375,1161.813387122957,222.23220779022378,1174.4764404296875,194.4161008186044
634,3337.62158203125,-1157.210693359375,1165.6474912945657,223.0085173611074,1178.2987060546875,203.47332957836892
635,3081.244873046875,-1182.777099609375,1176.7487666051015,226.412165908061,1187.9207763671875,190.86333002050745
636,3018.68017578125,-1184.01904296875,1167.8193728525666,224.0689759333161,1179.68798828125,192.01341307805504
637,3133.731689453125,-1174.4610595703125,1163.6610014015694,225.1329531246681,1173.1600341796875,382.7317894906755
638,2785.970458984375,-1158.847900390625,1163.801941501686,224.62358676210198,1173.972900390625,193.1349248781038
639,3485.36669921875,-1156.466064453125,1155.9514299775815,220.86400851266134,1168.8592529296875,185.2468502109213
640,2817.96826171875,-1187.8902587890625,1173.7622318846236,226.08172324719538,1184.6007080078125,185.64377251907308
641,3312.880126953125,-1172.89111328125,1158.0852845447414,221.6396832721583,1170.556884765625,296.38744797475664
642,3094.25244140625,-1159.5137939453125,1159.9508507779474,223.21582236798952,1170.918701171875,184.25073542915842
643,3456.0810546875,-1146.0924072265625,1145.1721908677073,219.9320756066296,1156.550048828125,277.10364033936537
644,3059.921875,-1173.12158203125,1159.3249917707446,222.80128694391277,1170.654541015625,297.5259022685676
645,2946.99462890625,-1187.7821044921875,1176.5512858802233,227.01591524423702,1186.919189453125,188.0189502171407
646,2933.583984375,-1161.376953125,1163.60322928212,224.18503641865573,1174.272705078125,183.55128023567846
647,2742.132568359375,-1164.2938232421875,1161.6127061540838,222.9166981870884,1173.3699951171875,189.89096554944302
648,3509.4169921875,-1177.92626953125,1161.4290025993068,221.7824251695355,1174.558349609375,302.72569086269533
649,3318.314697265625,-1180.7237548828125,1168.9432255375514,224.21225849272105,1180.913818359375,182.34620657586652
650,2806.619873046875,-1165.20166015625,1169.708950267851,225.31642359358028,1180.49072265625,195.87660621159583
651,3284.41943359375,-1156.6019287109375,1163.3196579194914,223.47825493582616,1174.8017578125,192.56663842478548
652,3412.65234375,-1156.7247314453125,1147.0447241506015,219.48137313932523,1159.4542236328125,222.15588975051108
653,3138.907958984375,-1192.6822509765625,1166.04208669551,225.94521763213265,1175.12109375,190.994014977529
654,3960.49560546875,-1204.4068603515625,1168.4126542141444,222.48634312653587,1182.4078369140625,195.10877261228055
655,3898.067626953125,-1186.2860107421875,1165.316986290655,222.6940110365962,1178.27880859375,188.60529705517328
656,3519.635498046875,-1156.1202392578125,1160.4175747117952,223.74941045856022,1170.835205078125,245.24253030788162
657,2936.62744140625,-1150.97998046875,1163.7905621085656,223.78127673010923,1175.0115966796875,190.6969514483793
658,3629.21533203125,-1153.0042724609375,1156.810633774634,220.60197197997135,1170.2607421875,188.0767962030245
659,3736.15283203125,-1184.20263671875,1166.0974299707389,220.76630137347922,1181.663818359375,207.73354291888086
660,3111.4306640625,-1176.421630859375,1156.2157605981413,221.04257954116503,1168.966552734375,194.15533198946602
661,3488.32861328125,-1168.4478759765625,1157.4975966198613,221.10268307759063,1170.49365234375,261.73545591977114
662,3427.166748046875,-1152.638671875,1161.6501939579134,219.84214514747615,1177.260009765625,210.04596203057568
663,3320.7080078125,-1148.3917236328125,1166.8034570024054,224.22633631682794,1178.221435546875,178.51029064678897
664,3922.625244140625,-1161.260498046875,1171.3021477454154,225.6447619789093,1182.07177734375,202.64402519297613
665,3101.7197265625,-1176.9652099609375,1161.7647456510067,224.81509926748282,1171.18701171875,194.73823044677562
666,3879.115478515625,-1183.8739013671875,1158.694379430658,222.2922264840666,1170.502685546875,435.47117026603706
667,3799.91357421875,-1167.5810546875,1147.9726889236458,217.51575671272343,1163.071044921875,371.75785074868725
668,2897.005126953125,-1156.9534912109375,1162.5571695380027,224.84541080520705,1172.1396484375,188.52242871136133
669,3620.69775390625,-1141.8331298828125,1151.2612112849847,219.83970699011235,1164.27685546875,194.285406841366
670,3151.072998046875,-1168.9346923828125,1169.9667818277014,225.93137358118412,1180.044189453125,187.25031130048154
671,3157.163818359375,-1181.90673828125,1159.268585594005,222.47381783277442,1170.993408203125,186.3971255090074
672,3506.212890625,-1183.119140625,1158.8076722312553,222.23159467464498,1170.7200927734375,192.63393322517692
673,3444.277099609375,-1168.21923828125,1160.7635312088264,225.7057983167901,1168.8221435546875,214.62302653017176
674,2951.011962890625,-1168.376220703125,1176.9008867188063,226.22529267507474,1188.344482421875,188.6317688933378
675,3316.789306640625,-1157.37548828125,1165.6708429828723,223.24835410271473,1178.028076171875,256.0067258023399
676,3389.45947265625,-1166.5543212890625,1158.7452830228897,222.52176376915872,1170.279296875,199.1928960330156
677,4326.63427734375,-1169.0169677734375,1148.3700465490351,217.8811940958033,1163.111083984375,502.20177936521594
678,2956.1044921875,-1177.1297607421875,1159.5824268336696,223.51115218357256,1170.089111328125,196.03153715670513
679,3641.43603515625,-1163.32470703125,1160.111136809656,224.14166199333366,1169.9619140625,187.15554771711084
680,3410.19580078125,-1171.1234130859375,1172.0954609750895,224.69244247666882,1184.2537841796875,211.89779029552358
681,3205.982177734375,-1190.3125,1179.8055600604014,227.08058518971964,1190.90625,203.98688886294713
682,3399.168212890625,-1172.6314697265625,1164.852320364521,222.7125028644063,1177.6748046875,196.22443742888507
683,3946.26025390625,-1158.6934814453125,1155.4836039984302,221.75889215112466,1167.156005859375,404.2899610517379
684,3507.207275390625,-1144.802001953125,1143.7855147777357,216.67445667369742,1158.8887939453125,320.43777693581023
685,3334.620361328125,-1169.8526611328125,1163.048950168194,221.1274129834787,1177.40185546875,190.24230622322222
686,3131.009033203125,-1177.1756591796875,1156.9878859648234,222.08339141697923,1168.630615234375,194.9086729634009
687,3283.13330078125,-1190.684814453125,1175.8773951981243,227.24460217692206,1185.791015625,194.46561096193176
688,3581.4267578125,-1169.4781494140625,1166.6600049422245,222.54945930700094,1180.1380615234375,194.49457939357694
689,3494.9892578125,-1168.70556640625,1168.1599304996992,223.07848469844095,1181.351806640625,205.19566432963478
690,3507.8740234375,-1187.4957275390625,1176.6847549259041,226.66923116439324,1187.5194091796875,207.76024305055202
691,3200.94140625,-1175.2957763671875,1162.9177192198272,223.31265104880282,1174.50634765625,291.470253867514
692,3518.77978515625,-1163.4949951171875,1164.8785276836816,222.9767226404611,1177.377197265625,299.0901575888722
693,3380.706787109375,-1167.3131103515625,1164.5351971015584,224.22898651214962,1175.3828125,185.94883554594057
694,3108.15283203125,-1182.94091796875,1166.3155181224015,224.00438082763236,1177.888916015625,190.59840402953571
695,3102.400146484375,-1176.8135986328125,1161.424572243784,221.07444920787623,1175.437744140625,186.80702458431122
696,3852.50732421875,-1153.2666015625,1152.0231054866938,220.88167367822214,1163.9267578125,298.4569499977841
697,2997.0244140625,-1174.317138671875,1169.3890845821286,222.67609777907379,1183.3912353515625,190.80998116304403
698,3155.445556640625,-1182.8033447265625,1168.1209773332985,223.7040242464456,1180.521240234375,183.5455457572733
699,3398.3984375,-1169.5321044921875,1157.1079880682928,221.4909313617449,1169.521240234375,203.94350108014868
700,3033.293212890625,-1162.7288818359375,1165.3338915652153,224.11904423893628,1176.5185546875,180.1989952884691
701,3320.829833984375,-1165.6175537109375,1160.8230083039962,221.61997349774455,1174.00390625,197.12559614284078
702,3111.2216796875,-1171.5830078125,1156.3385840090762,221.98191535797216,1167.94580078125,196.69834489639896
703,3360.435546875,-1163.3665771484375,1151.4305335908687,220.08976812060226,1164.1759033203125,289.5143657458514
704,3124.2666015625,-1158.5743408203125,1159.8878475162103,220.86021825996187,1173.7845458984375,188.82658029196602
705,4118.470703125,-1140.6575927734375,1147.2186409476776,218.89306603703702,1160.406982421875,353.3378855256637
706,3609.443359375,-1171.90869140625,1168.4962270680612,226.1066413346475,1177.9869384765625,201.52201675953768
707,3324.531494140625,-1189.987060546875,1163.2315262255886,222.40115551330825,1176.0379638671875,188.38786363709053
708,4101.23876953125,-1193.7713623046875,1162.1173391970233,221.8000368507938,1175.3966064453125,207.35859850468913
709,4080.49169921875,-1183.2373046875,1163.8280265568521,222.5206964491631,1176.6341552734375,339.31015558880506
710,3610.310791015625,-1161.6844482421875,1168.236407668658,225.80035315281955,1178.0450439453125,191.17042770947646
711,3376.19677734375,-1152.775390625,1167.1843887925886,226.05242203481419,1176.4150390625,175.6041306089972
712,3613.71875,-1169.9173583984375,1173.6156918106062,224.32738485908348,1186.6103515625,187.94744884811408
713,3335.443603515625,-1185.6259765625,1167.8326303455399,226.394457647519,1176.7977294921875,352.9402631656696
714,3110.29736328125,-1200.8973388671875,1176.1121202823083,223.72797399725118,1190.480224609375,187.60135460556558
715,3526.74462890625,-1174.0557861328125,1161.2350078926145,221.87631969607452,1174.1982421875,240.0774187386152
716,3095.238525390625,-1164.65625,1171.3581996608468,226.04146187193106,1181.64599609375,191.27826311560878
717,3220.099609375,-1154.0673828125,1166.4606800059353,225.61698111468303,1176.0546875,201.2119102802328
718,3893.187255859375,-1156.064697265625,1155.108648840454,220.12354944136408,1168.7314453125,206.28023468707258
719,2994.98828125,-1173.445556640625,1152.1006776513648,220.9624416293691,1163.9228515625,412.0333077391264
720,3162.692138671875,-1192.51513671875,1170.265395545672,224.46733193368766,1182.24755859375,199.76738510834147
721,3519.781494140625,-1186.726318359375,1176.0702996824612,224.48544975265168,1189.4810791015625,194.92738480638613
722,3308.669677734375,-1146.6414794921875,1157.8996898887283,221.40721962429342,1170.6156005859375,192.48810970944137
723,3585.6767578125,-1155.5272216796875,1174.0979415574573,225.99845464616027,1185.1243896484375,189.62887887651019
724,4186.5517578125,-1159.3138427734375,1166.4277436798302,222.82527430708072,1179.5030517578125,198.0836805437712
725,3870.25732421875,-1174.242919921875,1156.1976231068406,217.38001242578343,1173.52197265625,186.41610306347036
726,3595.055908203125,-1185.2406005859375,1160.6951937772872,220.17284222623118,1175.6529541015625,194.98433978413925
727,3591.315185546875,-1166.474853515625,1158.083500702514,221.77132579816737,1170.3902587890625,194.8174047783858
728,3349.390380859375,-1158.2630615234375,1166.886611473894,223.1349036339281,1179.689697265625,190.90033765533448
729,3610.198486328125,-1159.829345703125,1169.8675810831971,223.51291661443184,1182.943359375,189.62672864062708
730,3589.71728515625,-1171.4498291015625,1172.1336009025003,227.3079261540796,1181.0321044921875,185.00632412248441
731,2963.302978515625,-1181.4105224609375,1156.2474136116766,219.9167744639181,1170.413330078125,307.55773018951083
732,4008.406982421875,-1206.8408203125,1176.5825975134385,223.59591199898833,1191.2333984375,191.52301354802245
733,3552.3037109375,-1189.0040283203125,1169.6255782784892,224.27887691874048,1181.683349609375,199.4659420947581
734,3581.280517578125,-1157.3299560546875,1159.876345219009,221.64523463427312,1172.788818359375,201.9865701410771
735,3096.505859375,-1165.344970703125,1177.590867696239,228.2944527964129,1186.62060546875,181.6385643598198
736,3426.790771484375,-1174.4305419921875,1173.04661409768,225.293856441106,1184.69091796875,198.23238547580544
737,3657.537841796875,-1181.05029296875,1156.2600565794362,218.28249199422734,1172.471923828125,196.5513591915641
738,3253.1123046875,-1180.1754150390625,1154.1532847391852,218.1507230269203,1170.003173828125,196.58481528687165
739,3065.7080078125,-1174.4461669921875,1163.6744260913279,224.85182045759234,1173.5283203125,190.20891985634142
740,3430.33740234375,-1160.784423828125,1170.1837554724052,224.97131886790547,1181.515625,202.63728757188738
741,4061.339111328125,-1140.1812744140625,1154.0714407956248,219.537147299016,1168.1678466796875,393.80760246156336
742,3886.400146484375,-1153.2237548828125,1161.2340657995467,222.6941661403898,1173.1748046875,315.3981091471589
743,3876.9775390625,-1190.42431640625,1173.3616398600595,221.17806434908076,1190.2294921875,199.7239075163607
744,3340.926025390625,-1186.424560546875,1166.4939368148098,223.05631098940475,1179.2969970703125,216.9385709701362
745,4110.8896484375,-1175.1771240234375,1161.1232590894394,218.47694747254184,1178.307861328125,198.48409411193558
746,3101.7861328125,-1160.4000244140625,1169.5066321497218,223.82024837782546,1182.10791015625,280.4868735969935
747,3884.728759765625,-1140.933837890625,1156.2744619710252,220.23532813618635,1170.0489501953125,201.30036017028635
748,4256.80078125,-1148.1103515625,1150.3795933729073,218.16337347086878,1165.270263671875,204.78484666400945
749,3240.3330078125,-1190.087158203125,1171.2645196142194,225.21928036832787,1182.556396484375,194.90236760185658
750,3100.7353515625,-1194.3544921875,1165.4452086207039,223.91211171118073,1176.9163818359375,196.67604230060874
751,3304.974609375,-1188.2332763671875,1170.909191306048,223.285736973696,1184.529296875,207.98849695672192
752,2961.8447265625,-1163.5263671875,1167.349931444428,224.2520334737513,1178.8724365234375,181.87371211358177
753,3040.889404296875,-1152.7908935546875,1158.1155319923503,220.0061204785447,1172.63671875,211.79217743460268
754,3673.88671875,-1172.6427001953125,1170.5045427211794,225.8465235182317,1180.822509765625,194.55659271611069
755,2930.447021484375,-1196.4488525390625,1173.0220915896377,228.00703817135906,1181.268798828125,179.22747179160748
756,3988.451416015625,-1201.538330078125,1168.040645165485,222.03620306972863,1182.505615234375,197.83461673387507
757,4007.861083984375,-1186.786865234375,1164.2422134450953,222.7825812272111,1176.824462890625,198.77201941483705
758,2823.974853515625,-1167.05908203125,1170.5830112057843,226.2398268896259,1180.428955078125,189.46283943786364
759,3315.667236328125,-1144.369873046875,1154.3090682479929,223.08437489004822,1164.03076171875,343.85750698865337
760,3313.048583984375,-1158.060302734375,1158.6798183050619,222.64379304318282,1170.0450439453125,308.84595742562277
761,3184.58154296875,-1186.443359375,1164.1973323078003,222.6256982297745,1176.964599609375,188.9711235799983
762,3421.717529296875,-1192.184814453125,1164.4477339419122,221.44744969928212,1178.7503662109375,193.49787548691418
763,3579.491455078125,-1160.916259765625,1140.9108940746507,215.6127837922295,1156.62255859375,493.41735007606616
764,3132.63623046875,-1165.34228515625,1174.1947461529871,225.71089834414917,1185.6048583984375,191.06520069511353
765,3386.0126953125,-1161.082275390625,1172.055786505557,224.95788917637557,1183.872314453125,207.01906638838662
766,4021.4111328125,-1152.3609619140625,1152.3440526497966,217.1217297924167,1169.02783203125,203.17312698860894
767,3360.352294921875,-1172.6123046875,1152.4054510209123,217.69029004903234,1168.39404296875,219.60011969939643
768,3036.01806640625,-1187.6710205078125,1168.5543712882013,226.16132936753934,1177.9912109375,196.95454146524045
769,3781.8544921875,-1174.363525390625,1158.7818303479562,221.02762421506745,1172.1927490234375,185.19983510420252
770,3218.687255859375,-1161.3238525390625,1166.1558065022389,223.70135951890157,1178.068115234375,186.39450264060926
771,3032.939697265625,-1171.1834716796875,1179.6212127142635,228.51209646994735,1188.886474609375,187.95870006393346
772,3462.6298828125,-1157.90478515625,1156.1640562569298,222.5194346462885,1167.055908203125,218.36593021854114
773,3911.725341796875,-1182.2059326171875,1158.860788593497,222.80738450070842,1170.066650390625,374.2738535854872
774,3358.69775390625,-1180.3946533203125,1149.552081547135,218.93918837105613,1163.26611328125,468.59707661958765
775,4129.74951171875,-1181.9344482421875,1161.9792603270512,223.71876719159903,1172.82568359375,201.9847160478291
776,3569.424072265625,-1163.7838134765625,1166.3563393158365,223.08211850351574,1179.0927734375,202.12711105830388
777,3984.73583984375,-1162.4571533203125,1172.225835885695,222.16437181442114,1187.576904296875,202.15736330029796
778,3223.18017578125,-1152.0025634765625,1154.6122419469293,220.98835576700517,1167.02978515625,393.3167599397288
779,3826.67333984375,-1175.1905517578125,1156.638312952205,220.59893779008053,1170.04931640625,368.68663819198196
780,2847.127197265625,-1185.143310546875,1165.5976201039693,225.45256483377432,1175.181396484375,186.06336171070492
781,4193.9541015625,-1179.8304443359375,1163.225030910084,219.71456057936877,1179.3880615234375,196.21924775046114
782,3115.281982421875,-1158.88330078125,1166.5665716330802,221.52697951004853,1181.299560546875,189.14240327828364
783,3680.601318359375,-1166.3564453125,1178.2731066262345,224.54376120921177,1192.16162109375,196.73572911200338
784,3571.4658203125,-1159.00244140625,1161.905533991027,221.54992294685843,1175.444580078125,209.0284280848656
785,4197.0390625,-1173.3389892578125,1155.8134651363612,220.30362650759216,1169.3873291015625,408.58193966174343
786,3992.095703125,-1194.108642578125,1168.2459936949767,223.66652832956697,1180.724365234375,201.64523017509688
787,3612.373291015625,-1186.5201416015625,1169.785910025405,223.5083714755049,1182.846923828125,202.7001243103632
788,3552.58447265625,-1153.936767578125,1161.1182172953422,221.53537589454015,1174.478515625,197.25610544733092
789,3628.5048828125,-1149.236328125,1157.7481016340241,218.43342990302904,1174.143310546875,208.9065042111749
790,3580.5078125,-1153.6796875,1155.9395810540855,220.18967965208896,1169.6875,305.7361183603832
791,3311.44677734375,-1188.8232421875,1167.1743783929553,222.7380437829698,1180.54541015625,193.46431995229946
792,3798.06103515625,-1199.5748291015625,1170.6828282842523,221.75654959772882,1186.1578369140625,224.60685365622797
793,4223.3154296875,-1174.11376953125,1154.5065274132912,216.70930992500234,1172.2464599609375,201.98205535793173
794,3320.581298828125,-1158.189453125,1166.2225292520925,222.85640960506635,1179.207763671875,199.7545710209658
795,3575.294921875,-1139.8614501953125,1155.0179997727403,220.94289899320682,1167.593994140625,186.62078109181954
796,3795.1005859375,-1162.6934814453125,1163.9184776417787,221.23889342470716,1178.3494873046875,204.79222419139646
797,3354.402099609375,-1198.03076171875,1180.0068223857209,227.77552010052636,1190.2890625,194.81714036171252
798,3292.22216796875,-1188.0718994140625,1163.763090589267,222.82483799718023,1176.1728515625,193.2213844934832
799,3935.2197265625,-1181.326171875,1165.5754861026462,223.723884358948,1177.314453125,203.73828952585217
800,3287.090576171875,-1160.06396484375,1167.1421657883088,222.15400679637582,1181.2352294921875,203.0839039511672
801,3346.76806640625,-1147.366943359375,1161.7099422414917,222.7924117286819,1173.64697265625,195.32984441122926
802,3605.9609375,-1170.95361328125,1172.268898983054,223.6936230135487,1185.71923828125,201.00805551938487
803,3274.319580078125,-1176.5579833984375,1155.5588130014576,220.91358399564382,1168.3065185546875,408.5786391153712
804,3498.73876953125,-1190.8687744140625,1160.9174065107425,220.22821808996997,1175.8614501953125,205.38764723113832
805,3380.02978515625,-1172.199462890625,1154.402485784912,219.2956341594695,1168.883544921875,196.1805378787122
806,2930.011962890625,-1152.0369873046875,1159.101729931151,220.4467315452447,1173.31884765625,192.72871927599533
807,3446.658447265625,-1143.7960205078125,1152.580083175935,219.17221792582438,1166.759765625,192.48311977054442
808,3607.366943359375,-1153.7584228515625,1154.309453779947,218.09491195131454,1170.2681884765625,199.5038793572763
809,3490.123046875,-1187.1005859375,1167.387576866885,223.74701900555698,1179.55078125,195.7660875684164
810,3806.037109375,-1186.139404296875,1160.6955476046237,221.50549643045974,1173.987548828125,291.35219001492146
811,3805.908935546875,-1181.388916015625,1166.1496886647153,223.43451336983915,1178.3939208984375,193.845231390091
812,3337.331298828125,-1156.7718505859375,1166.0208956402364,224.2989440482678,1177.1524658203125,192.67614629237337
813,3450.03173828125,-1148.0399169921875,1161.6286383583538,221.28032462143835,1175.435302734375,253.5931126908196
814,3183.908447265625,-1156.698974609375,1162.1918407432413,225.08651254099362,1171.381591796875,319.42473871973397
815,3021.0791015625,-1184.6483154296875,1165.562296419519,223.28504735447737,1177.8465576171875,249.42980246257895
816,3839.726318359375,-1173.9869384765625,1147.1557510348712,215.98582474912757,1163.96240234375,397.2342284166486
817,3339.0947265625,-1183.3543701171875,1170.5369356806218,224.90577380012866,1182.0389404296875,204.4168391864633
818,2963.80419921875,-1158.5703125,1166.908128624032,224.04737810380266,1178.575927734375,195.86252756507986
819,3156.992431640625,-1142.33740234375,1151.2231822171939,215.95507966668717,1169.0850830078125,199.0935381891917
820,3519.61474609375,-1168.6712646484375,1168.0436852987866,221.85342250727211,1182.73779296875,187.7723585656052
821,3561.200439453125,-1180.4927978515625,1159.3920904377715,220.9565904239432,1173.04443359375,205.5753749367391
822,3255.432861328125,-1195.8494873046875,1166.581989339923,223.03697843942555,1179.4312744140625,293.0459431630323
823,3838.704833984375,-1187.5640869140625,1164.192393827885,219.98513448283052,1180.2591552734375,191.8741378571063
824,3188.056640625,-1165.5086669921875,1169.6664516093977,224.731158054138,1181.169189453125,202.35191617342363
825,3091.2197265625,-1162.3712158203125,1168.7327187470548,222.5909717134588,1182.67724609375,191.4285575147406
826,3502.089111328125,-1161.4498291015625,1160.4582841194087,222.31970963839845,1172.6732177734375,293.58616984170243
827,3407.11083984375,-1188.414794921875,1164.814343937303,221.76606458034644,1178.8104248046875,184.1024543281938
828,3351.238525390625,-1195.528564453125,1166.3389647128186,222.98971711417025,1179.1865234375,196.94211571496652
829,3687.2744140625,-1187.8397216796875,1170.9119030121583,223.2229338291902,1184.611328125,201.4590251004323
830,3437.66357421875,-1167.31201171875,1175.6014025663978,226.88823340889277,1185.891357421875,205.66589574319767
831,2895.9423828125,-1153.6680908203125,1165.917758769869,222.95106853949915,1178.7083740234375,202.64417549454495
832,3398.949951171875,-1158.2940673828125,1160.034456658775,222.25460722487614,1172.224853515625,236.2725686537785
833,3546.925048828125,-1185.4859619140625,1164.949275018594,222.98846576394777,1177.4510498046875,217.00637829794678
834,3298.81201171875,-1178.814208984375,1151.3952416622333,220.15638771888533,1164.048583984375,501.73226740298975
835,3512.65234375,-1177.6934814453125,1164.5795098494414,222.11233942021164,1178.083984375,194.7216394213609
836,3496.7412109375,-1160.075439453125,1167.1395784668491,222.50718636436915,1180.79052734375,316.1946388755306
837,3187.064697265625,-1154.14697265625,1165.9477554736402,223.11892524042406,1178.5360107421875,193.51296079981535
838,4033.798583984375,-1168.2169189453125,1168.9708230916092,222.39875530634612,1183.215087890625,194.20448381888176
839,3268.275634765625,-1177.7652587890625,1158.6616306423757,221.35567918416004,1171.63232421875,408.1359027666001
840,3858.8505859375,-1188.6431884765625,1161.118290480788,223.26449907701726,1172.317138671875,207.281954415698
841,3824.29345703125,-1174.040283203125,1158.557099663837,222.1992822524142,1170.447265625,209.25016041899266
842,4143.84130859375,-1160.529541015625,1163.0470818361398,221.48156994191356,1176.9569091796875,198.15233106253947
843,3460.4013671875,-1150.3997802734375,1160.243935207648,220.94631592742883,1174.1220703125,337.85049813484665
844,3782.1640625,-1163.4249267578125,1162.8404352991076,222.5159881262273,1175.405517578125,200.38127653214602
845,2776.115234375,-1181.505859375,1159.6956067622518,222.0473686636304,1172.060302734375,261.9560002402684
846,3547.817138671875,-1185.0982666015625,1156.465074198755,221.13470129302362,1169.1629638671875,282.1419334264008
847,3773.70263671875,-1179.5750732421875,1162.9891681114377,223.85628499185447,1173.9161376953125,202.60907714487377
848,3897.572509765625,-1139.724365234375,1147.8653611646819,219.02091951238376,1161.0555419921875,464.0050039555491
849,3132.968017578125,-1156.9954833984375,1167.9543906591234,221.5253473184402,1183.0362548828125,193.1721983840692
850,3917.700927734375,-1162.81884765625,1162.1861202149028,220.53242301031278,1177.067138671875,199.20395519803103
851,3463.669921875,-1164.9285888671875,1144.1227616364747,218.05586371968081,1157.5836181640625,427.8239172825148
852,3489.57958984375,-1198.2265625,1169.286914908152,219.85413830206926,1186.791015625,195.3221803744434
853,4153.25537109375,-1159.7203369140625,1141.0440942513244,216.645996426274,1155.49755859375,448.3677743805374
854,2932.868896484375,-1158.48876953125,1167.887565999184,224.62762251392402,1179.074951171875,186.08372903986987
855,3410.121337890625,-1151.662353515625,1167.328146744627,224.48233366097816,1178.5572509765625,202.8413484790588
856,4053.3095703125,-1156.5316162109375,1162.3828611302738,221.5332694936161,1176.06201171875,195.09960597688647
857,3650.63623046875,-1180.1539306640625,1160.5540158715003,219.64040152690336,1176.1419677734375,295.7813936515828
858,4049.71630859375,-1186.958251953125,1164.3716269030783,222.34726311709613,1177.530517578125,199.61517485203655
859,3604.7177734375,-1175.8861083984375,1161.6466835906508,222.78045074248345,1173.582763671875,377.47793788874725
860,3045.1103515625,-1147.5064697265625,1155.611820180694,220.0857326820293,1169.40771484375,204.67450255446528
861,3308.1923828125,-1151.6614990234375,1162.574109779691,222.98520468363677,1174.486083984375,188.38228202370462
862,3928.7978515625,-1138.617431640625,1138.930990240147,217.17501436190835,1152.1949462890625,522.823406755412
863,3267.8369140625,-1184.1961669921875,1159.0071469216796,220.56825610689836,1173.048583984375,204.18693004948213
864,3169.54150390625,-1192.17041015625,1161.611123031693,221.5080218139463,1175.12890625,218.6617668859492
865,3946.36474609375,-1186.8001708984375,1162.8243652507026,222.0401217623907,1175.980224609375,182.41168976785193
866,3686.919189453125,-1166.3238525390625,1166.4854982011611,222.22325034072952,1180.3277587890625,205.5957019811176
867,3298.302734375,-1158.133544921875,1163.687106951606,221.71106685055472,1177.4700927734375,200.0966365604296
868,3155.408935546875,-1168.4244384765625,1165.0930157636549,221.08450302828817,1180.0107421875,307.1594930477581
869,3314.342041015625,-1167.346923828125,1155.1489398965284,217.1154129752561,1172.5418701171875,196.3074553893073
870,3569.40380859375,-1173.5771484375,1163.1992103421371,223.9002890073935,1174.123779296875,206.19986647223374
871,3308.23828125,-1166.104736328125,1160.1846046013031,221.51397862855524,1173.3382568359375,198.8951528533905
872,3058.32958984375,-1183.6376953125,1177.2917328737972,227.57496937739825,1187.14599609375,188.638886924015
873,3298.9501953125,-1160.64794921875,1155.1606598766862,219.98590376697155,1168.968505859375,193.59996861906478
874,2892.527099609375,-1177.116943359375,1168.2978232704563,223.09254442085432,1181.506591796875,193.767219504098
875,3590.685546875,-1174.5428466796875,1163.5269089662552,223.30188299390363,1175.28125,202.7954693894536
876,3134.67626953125,-1175.8511962890625,1170.098426109067,226.63189139913678,1179.333251953125,188.0174455900604
877,3332.617431640625,-1163.53759765625,1165.3596105838626,223.58106248625222,1177.22314453125,184.14167899205748
878,4606.62353515625,-1161.8587646484375,1155.5478215474495,218.23409282749964,1171.64208984375,207.2260572596572
879,3149.076171875,-1184.1583251953125,1169.5924527216473,225.8239357281246,1179.710693359375,195.3032739362606
880,3313.1171875,-1177.4420166015625,1164.2580331652493,222.9926581780494,1176.581787109375,192.87407231654137
881,3815.26806640625,-1147.7716064453125,1146.9542377831178,217.2773699523645,1162.0960693359375,399.40848879915796
882,3180.427001953125,-1149.7877197265625,1148.4350222327023,221.1818451144007,1159.06640625,386.0566067084634
