Wnight963/UAV_optim/maddpg-master/experiments/learning_curves/exp_4_1/agent_0_traj.csv
,q_loss,p_loss,target_q,rew,target_q_next,target_q_std
0,5053.9658203125,-1173.898193359375,1161.5944264410641,225.92901751982208,1169.581787109375,278.9799368239869
1,3843.33837890625,-1145.7030029296875,1144.2832273992885,221.9629272970547,1152.900390625,303.337192749403
2,7140.11865234375,-1150.4727783203125,1155.1661390911124,225.5126908432028,1162.0667724609375,230.91701728852095
3,6414.787109375,-1142.453857421875,1153.0399660861308,226.43720920441672,1158.25341796875,229.94137255293396
4,3275.958251953125,-1166.1510009765625,1165.4402687439642,229.42802480551802,1170.015380859375,162.2698823379486
5,3507.14013671875,-1178.4669189453125,1167.0069221513859,231.90531358891633,1168.876953125,164.41866830423263
6,3987.02294921875,-1166.5184326171875,1156.0310078581183,225.6535575826971,1162.971923828125,231.57303945630906
7,5390.91796875,-1147.1519775390625,1148.407177622174,223.674753410672,1155.91552734375,305.83262243735476
8,3841.53125,-1155.6478271484375,1160.3451738144734,226.49689710396308,1167.310302734375,201.50296048874011
9,3612.505859375,-1165.8370361328125,1162.7471948662617,227.5464698830463,1169.0009765625,165.17218284244996
10,5119.2626953125,-1162.70361328125,1154.5597442800577,225.4984560186441,1161.32666015625,220.8447452576569
11,3859.715087890625,-1169.2264404296875,1166.5715232216976,229.14815972682445,1171.7791748046875,208.53410883744732
12,3438.14306640625,-1157.544189453125,1157.6674274675993,226.25498166014222,1164.2655029296875,246.79958982765575
13,2992.1689453125,-1173.8475341796875,1167.3760302258338,230.46765224464792,1171.135498046875,157.90389935859878
14,3574.825439453125,-1157.716064453125,1153.7633046503831,226.70935023983,1158.8173828125,194.49218930106903
15,3272.11328125,-1158.4390869140625,1162.6583388309466,229.0788323383318,1166.974365234375,160.84618786659775
16,3152.874755859375,-1163.5147705078125,1158.753830533818,224.2151825006759,1168.17333984375,167.10900751806867
17,3125.0673828125,-1180.6434326171875,1165.643560985216,229.14548755038635,1170.62255859375,165.1611790061644
18,3319.2646484375,-1184.4111328125,1169.7102832552841,228.05436098546278,1177.06982421875,166.21005340953155
19,3372.127197265625,-1159.7724609375,1163.7253692177992,227.15164351742055,1170.7171630859375,164.44384569709447
20,3302.779296875,-1155.8193359375,1161.5658100355122,228.53685777072656,1166.2861328125,166.8398387185037
21,3707.07421875,-1160.75146484375,1156.7925800708397,226.52085749183715,1162.839599609375,178.4590814882098
22,10988.01171875,-1165.7191162109375,1152.3876198238643,224.99579307501625,1159.23974609375,236.0518919201118
23,7466.99072265625,-1162.456298828125,1155.9057239600806,223.1211209842354,1165.980712890625,222.09260093722048
24,6288.24658203125,-1160.6259765625,1165.238150645058,226.48699927405585,1173.43896484375,230.2122736487516
25,4938.8828125,-1160.901123046875,1160.7799804211704,227.33705134402211,1166.8037109375,221.95397618057666
26,3632.20166015625,-1175.8779296875,1165.9480981307102,227.16739410925618,1173.475830078125,223.18652172704205
27,3090.2177734375,-1171.1541748046875,1163.2944279979492,228.77182520139468,1168.1531982421875,166.9466244792436
28,3296.13525390625,-1158.759033203125,1166.2674313822422,227.68652174860586,1173.2261962890625,164.83375770888625
29,3226.297119140625,-1161.5147705078125,1169.7492177223462,229.43683012478533,1175.3905029296875,173.42098827952464
30,8831.46875,-1164.0513916015625,1164.45158007468,226.32656333769563,1172.65625,234.50585021248148
31,10526.5771484375,-1170.7371826171875,1158.7072069366031,225.6252391536289,1166.3525390625,254.00871688702426
32,3244.665771484375,-1169.285400390625,1159.4701481533275,227.46476718904816,1165.0068359375,160.70298097233066
33,4228.62646484375,-1146.5477294921875,1153.9892116802414,225.0233777778825,1161.207275390625,269.24766856365005
34,7443.41015625,-1151.614501953125,1161.2041515244111,226.74528006445018,1168.0736083984375,254.19726813942583
35,3060.109619140625,-1177.380615234375,1168.6391969296478,227.08761063547342,1176.939453125,164.37116558552174
36,3892.00439453125,-1163.524169921875,1154.4588458054554,226.24783215456134,1160.263671875,241.2368504906977
37,3808.34521484375,-1154.7515869140625,1153.4125447035358,224.35755798821913,1161.3187255859375,272.4280480395865
38,3066.349609375,-1154.9447021484375,1161.8665424053022,227.09262253683292,1168.467529296875,212.26091555586748
39,3107.3857421875,-1155.8427734375,1159.2610286606923,224.94881070987125,1167.8902587890625,168.56793694042628
40,3562.2138671875,-1182.8829345703125,1169.5457614745878,228.23015025518157,1176.64453125,161.22615282062912
41,3202.25390625,-1191.356201171875,1180.2334071225887,233.3542233056789,1183.5989990234375,157.5884136511136
42,3187.999267578125,-1168.87548828125,1169.697072981826,230.76360421084524,1173.6668701171875,176.63019429597594
43,4050.572998046875,-1148.4205322265625,1154.9628665169116,224.14241182407093,1163.525634765625,217.41321748682546
44,3359.718994140625,-1161.5443115234375,1164.5379309570333,229.99585756416514,1168.1776123046875,171.3618380711595
45,2987.39404296875,-1190.533935546875,1172.187115863601,229.05839934710642,1178.910888671875,166.1358897138601
46,3437.85693359375,-1180.7862548828125,1161.9767794071563,227.11823891986683,1168.5731201171875,161.39889284526217
47,3428.29931640625,-1178.7181396484375,1174.424985211202,229.57325047762038,1181.064697265625,156.48883434780635
48,3731.750244140625,-1143.767578125,1161.7105347350466,225.92723824533087,1169.7291259765625,170.5137744344733
49,3890.61083984375,-1131.26953125,1156.8240034780115,226.63833133789018,1162.7320556640625,165.16397633306752
50,3892.39453125,-1143.11279296875,1155.4258998638165,223.2530689483656,1165.216064453125,259.1143751674164
51,3693.856689453125,-1166.759033203125,1154.538950294035,224.38066944457825,1162.69775390625,168.04831375220067
52,2884.916015625,-1176.87158203125,1158.9747078962357,227.61476550770124,1164.199951171875,164.12768365139559
53,3399.14892578125,-1177.2900390625,1166.263427334869,228.7467173395992,1171.8958740234375,163.84741719834352
54,4340.8427734375,-1149.2484130859375,1158.239323274092,228.49423646111896,1162.181396484375,239.29448904262748
55,2918.874755859375,-1155.0963134765625,1163.717684725124,229.71939070542484,1167.497802734375,159.81531538586074
56,3374.788818359375,-1169.080078125,1162.7983324238744,225.7418430993049,1171.320556640625,168.84235528034966
57,3246.29443359375,-1166.11572265625,1156.930242929126,222.12870350804442,1168.5018310546875,254.7403296709543
58,3079.2744140625,-1158.2159423828125,1158.262745578568,228.19490161685218,1162.584716796875,167.961203522273
59,3079.17529296875,-1155.844482421875,1148.9433533659515,224.2649245253143,1155.84814453125,246.0661522878564
60,2963.6630859375,-1173.1883544921875,1170.6904572356912,231.01233447682552,1174.59765625,164.4296148409444
61,2781.709228515625,-1166.5528564453125,1171.6426215714864,228.65036874479568,1178.740234375,227.62510023488502
62,3144.13623046875,-1146.9449462890625,1145.7122743629984,220.3831868671944,1156.661376953125,227.908799073578
63,3146.465576171875,-1178.93359375,1162.2786202505174,226.96762085705421,1169.1387939453125,169.64245940213482
64,3166.627685546875,-1184.7296142578125,1165.8166257995972,227.22951027339798,1173.23388671875,164.55483532016797
65,2953.39306640625,-1158.3787841796875,1156.1312190437502,225.54751266481338,1163.229736328125,282.8092390912943
66,3497.33642578125,-1159.35986328125,1168.631608831469,228.43696304518346,1175.243408203125,164.1971017524414
67,3132.005126953125,-1149.470458984375,1157.2866333657244,229.0854050808884,1160.2515869140625,180.60204731091076
68,2802.32177734375,-1174.3304443359375,1163.000493487529,227.32919546049033,1169.589111328125,164.59895580607068
69,3179.741943359375,-1180.6744384765625,1166.8004955973897,228.400036117104,1173.00048828125,169.49195923780852
70,3294.94873046875,-1153.20361328125,1153.2913006471856,224.58386403791746,1160.88427734375,226.6852939465071
71,3172.0224609375,-1157.9747314453125,1161.1918294685702,224.45479228671576,1170.9212646484375,235.8952755327147
72,3114.33740234375,-1167.5318603515625,1165.0616021806163,227.81195899786164,1171.56201171875,218.7918642886472
73,3453.4169921875,-1172.9498291015625,1156.286309758138,226.97198928923532,1161.642822265625,169.64197388589406
74,2952.34814453125,-1175.43994140625,1159.4739658274618,226.2645996489493,1166.51171875,163.64758953775663
75,3614.955078125,-1159.3880615234375,1160.2596990487664,225.85582498527458,1168.0048828125,157.33153183713347
76,2999.306640625,-1152.8653564453125,1160.0660353940616,223.16412022529937,1171.1273193359375,244.13973703821557
77,3537.2939453125,-1155.2010498046875,1158.079447001806,225.82837836205084,1165.3138427734375,165.95406128235163
78,2901.60400390625,-1180.883056640625,1164.0028729293447,227.4397592876057,1170.703857421875,167.3665543979902
79,3221.33740234375,-1180.3319091796875,1160.6153857663867,224.14400915658436,1170.589111328125,244.72844482208242
80,3515.1025390625,-1153.4881591796875,1148.3379922294282,222.90237916943067,1156.79443359375,167.7057356511299
81,4248.6376953125,-1148.4449462890625,1155.9636934079062,225.03166320694817,1163.6650390625,194.57378265876102
82,2930.61962890625,-1153.44677734375,1156.6931029092325,228.28021719565515,1160.51611328125,164.5048674746
83,2929.454833984375,-1183.8306884765625,1169.4576502066302,230.08356883341543,1174.217529296875,167.0008799585171
84,3091.87255859375,-1184.229248046875,1169.6481317369753,229.67083493159328,1174.9716796875,170.91430656865444
85,2984.6865234375,-1162.6932373046875,1159.1119139350885,225.5638734497064,1166.93505859375,164.07203378156092
86,3024.29052734375,-1162.21923828125,1167.439838102037,228.2774544026196,1173.9530029296875,169.0958888308597
87,3090.17431640625,-1159.255859375,1157.5305806863812,225.04500782375592,1165.60693359375,163.35234233070227
88,2840.353515625,-1173.590087890625,1156.4593683000824,227.32301967108455,1161.42041015625,267.0478545897942
89,3093.3310546875,-1171.843017578125,1150.7557972236293,223.73428786236207,1158.77685546875,160.9047801591984
90,3180.6748046875,-1170.7852783203125,1169.1399833063479,229.40608194869725,1174.66748046875,160.23974991965235
91,3402.69580078125,-1154.973876953125,1164.8368184237352,226.23636132763525,1173.25048828125,174.06604393884663
92,3075.77099609375,-1153.2491455078125,1159.9646881460353,226.56975516072933,1166.74365234375,164.3852459525295
93,3031.291259765625,-1173.056640625,1160.9708303988327,224.30013409260397,1170.83837890625,165.604650279879
94,3046.383544921875,-1167.396484375,1157.5398449024324,225.7520313820009,1164.7347412109375,168.55990550421657
95,3363.059814453125,-1154.8385009765625,1157.3545671235306,225.35184748279886,1165.00341796875,169.00526870866906
96,4708.6328125,-1147.3231201171875,1153.4670783896022,223.57239750810209,1162.368408203125,215.22618922108987
97,3188.349365234375,-1153.806640625,1150.9887804489722,225.64778818899293,1156.67626953125,166.74936013859715
98,3021.395751953125,-1180.345947265625,1171.7849069576223,227.35941166686627,1180.5318603515625,171.63509704124533
99,2813.3095703125,-1170.3106689453125,1170.1636130684674,229.13421825111496,1176.28662109375,163.63087409853966
100,2760.263427734375,-1168.8997802734375,1159.9206832624238,227.42986423738415,1165.613525390625,168.44512967276006
101,3151.068359375,-1163.7001953125,1159.2984121126206,226.7306298536332,1165.709716796875,166.42470804950892
102,3141.84765625,-1159.9288330078125,1156.8010145180288,225.9800423615041,1163.526123046875,271.114706101284
103,3827.85888671875,-1164.2171630859375,1158.8816116952964,225.06453887463292,1167.2713623046875,233.57933440509706
104,3510.47705078125,-1163.2763671875,1155.4728236816438,223.7443777225527,1164.66064453125,240.02518769821882
105,3288.07470703125,-1162.11865234375,1159.857743242806,225.11587612969234,1168.42724609375,166.09904866188506
106,3198.15380859375,-1168.98095703125,1166.2497084660126,228.37731256910115,1172.3404541015625,171.69195139323153
107,2682.917724609375,-1168.9295654296875,1157.7943570234906,225.40140996958144,1165.4912109375,163.936490994837
108,3026.64990234375,-1171.2113037109375,1165.4779246603257,228.3450993334062,1171.416015625,172.7336395812953
109,4047.959228515625,-1136.65478515625,1138.3073501485833,216.5213160413752,1152.232666015625,308.7087849953447
110,3293.169921875,-1166.6065673828125,1167.995404802763,227.7430816044445,1175.3154296875,161.94383396060493
111,3169.580322265625,-1168.589111328125,1159.760759331637,227.51389730160759,1165.30859375,172.11880236313837
112,3292.171142578125,-1167.61962890625,1157.3535454540875,227.711748292985,1162.05224609375,168.87335351573387
113,3059.87939453125,-1161.1519775390625,1162.0980187483779,226.44228840551267,1169.569580078125,251.90345338750353
114,3644.80859375,-1160.1942138671875,1162.2779878030874,224.37766593800535,1172.37548828125,167.91660250216282
115,3040.57177734375,-1162.00927734375,1154.3918865946482,223.40506441866864,1163.7335205078125,239.03777900693828
116,3208.71826171875,-1161.79248046875,1153.1095224639048,223.10680959426054,1162.50341796875,177.30730179114875
117,2996.2822265625,-1163.6337890625,1161.5991102881571,226.74993168784576,1168.5615234375,173.31488817796796
118,3015.656005859375,-1161.0592041015625,1156.2409523609435,226.87013465197424,1161.7135009765625,162.99513408511507
119,3558.95751953125,-1152.7587890625,1155.6226001399532,221.9528629857078,1167.0870361328125,255.80517867844696
120,2741.239013671875,-1159.931396484375,1159.784908643881,226.5706928407344,1166.517822265625,172.46169076298236
121,2979.427734375,-1180.2298583984375,1162.4140393822559,226.25265084198796,1170.20166015625,167.621638195489
122,3005.53857421875,-1175.4276123046875,1160.147053578406,227.9725178270631,1165.2181396484375,163.54369854557146
123,3502.6533203125,-1152.6412353515625,1149.798982512098,220.43191703472667,1161.708740234375,252.01916976226374
124,3003.267333984375,-1147.124755859375,1153.9316708812448,225.2851494083138,1160.80810546875,178.3563841805423
125,3161.39208984375,-1171.11474609375,1170.7645361449295,228.17707791586426,1178.234375,164.69170741952632
126,2507.67578125,-1179.1295166015625,1161.2721396382608,229.03080162365785,1165.3017578125,227.55911653304284
127,2822.4755859375,-1171.14599609375,1150.6659184922094,224.73702678574267,1157.4111328125,298.9356603149088
128,3665.047607421875,-1162.05126953125,1150.9496454198934,223.6873396356678,1159.077880859375,169.75010142286033
129,3554.266357421875,-1157.4449462890625,1169.270195925547,228.42055999071704,1176.06201171875,167.29839621795352
130,3734.68798828125,-1154.0491943359375,1167.3745114129415,226.16954236444133,1176.506103515625,170.41910687090967
131,3971.11279296875,-1163.8399658203125,1163.8135196306985,225.86358195331508,1172.4373779296875,180.78180063286092
132,3869.287841796875,-1170.408447265625,1149.4639911521144,220.0910407412715,1161.7161865234375,242.79360996229204
133,3840.147705078125,-1171.806640625,1153.4649463583673,224.52770725981838,1161.171630859375,234.2751870631237
134,3158.908447265625,-1160.7452392578125,1153.2293584747863,222.97309059339298,1162.8203125,177.81269109937375
135,3044.38427734375,-1140.0860595703125,1152.4344245705115,224.59333675236564,1159.8013916015625,174.33330830483115
136,3333.87255859375,-1148.470947265625,1161.6341952652542,228.49522136159806,1166.423828125,171.79218321921084
137,3312.50439453125,-1167.060791015625,1160.8983797137166,225.11858697575582,1169.724853515625,170.01025385187185
138,3023.123046875,-1176.56201171875,1162.861902857248,226.09887180370467,1170.9537353515625,169.31360527240378
139,3487.50244140625,-1170.64599609375,1165.0259385692852,228.1421563732402,1171.104736328125,177.95693095997277
140,3212.215576171875,-1128.0089111328125,1136.3990366656449,218.53557884284507,1147.329345703125,390.5262261371646
141,3091.001953125,-1145.992919921875,1154.8653953538064,224.47805228091505,1162.984130859375,180.32855127973215
142,3552.5478515625,-1173.424560546875,1167.6169543824362,228.7873005471395,1173.537109375,172.52060591262045
143,3163.162109375,-1170.0389404296875,1161.5912569382122,223.58237298511756,1172.5111083984375,176.78509101278956
144,2826.221435546875,-1162.5316162109375,1159.0226666084206,226.44366909178842,1165.7237548828125,178.27881346082427
145,2745.087646484375,-1157.7496337890625,1154.181198027206,224.11934972054996,1162.577392578125,284.30101010998544
146,2897.449951171875,-1160.073486328125,1162.173989651038,225.08634378655142,1171.3594970703125,229.48038679347846
147,2835.705810546875,-1163.9278564453125,1164.079719912714,227.1904411432207,1171.111572265625,206.40431318820117
148,3503.00048828125,-1175.188232421875,1159.7354896168831,223.75311413813853,1169.97802734375,179.967356730447
149,2894.98193359375,-1167.0831298828125,1158.0841331699385,227.81138538508554,1162.8409423828125,178.3336979365916
150,2951.5859375,-1167.673583984375,1173.2348583154992,228.2432774715737,1181.239501953125,171.6303349696044
151,3452.069580078125,-1146.5914306640625,1153.1339931051366,221.70442941590454,1164.286865234375,323.5972533828631
152,3141.502685546875,-1166.9886474609375,1161.243714429946,223.85999384126197,1171.729736328125,179.13617538903281
153,2831.892578125,-1182.7393798828125,1170.2002866751684,229.65092091627238,1175.686767578125,172.0192168935374
154,3087.515625,-1176.10498046875,1167.2654093440797,226.58204025590675,1175.854248046875,178.0813183748094
155,3153.21826171875,-1155.6070556640625,1165.5752576116824,227.63983192484625,1172.4193115234375,176.5096075774664
156,2960.6865234375,-1138.332275390625,1150.0821119607037,225.0167574346608,1156.3316650390625,244.37953267927313
157,3327.157958984375,-1177.0972900390625,1171.8320381940744,230.69878249777753,1176.41650390625,174.46542361990612
158,3215.7470703125,-1177.36083984375,1165.5204141263675,226.8121990327548,1173.38525390625,170.53949474456687
159,3308.1328125,-1163.0740966796875,1158.8680901400712,224.5876990966466,1167.8504638671875,183.3550501840328
160,3797.4736328125,-1138.9215087890625,1148.5718938768564,218.73581511384836,1162.2950439453125,243.54307140808984
161,3120.55126953125,-1139.645751953125,1153.31469169012,225.30227384916236,1160.0155029296875,254.6883392460699
162,3525.169677734375,-1160.485107421875,1155.4689870249554,222.95157359950954,1165.646728515625,170.73845995837559
163,3248.5517578125,-1165.392333984375,1154.0082749177677,220.9419258643848,1166.3330078125,176.75759472256775
164,3077.55908203125,-1173.4197998046875,1171.9932481081266,228.82717751572315,1178.95751953125,173.68123370667905
165,3082.628662109375,-1161.464599609375,1152.6009783449604,224.09310674397472,1160.6348876953125,256.6584809729747
166,3003.0703125,-1160.612548828125,1155.4373276837086,222.09908419921132,1166.6728515625,282.9304019029977
167,3418.67724609375,-1157.2772216796875,1160.4849756244676,224.1134114030853,1170.4644775390625,177.96839564180289
168,3413.259521484375,-1155.518310546875,1152.3140090435145,222.39406847649775,1162.39990234375,172.43031278167462
169,2882.16357421875,-1182.9610595703125,1163.738120059261,226.65306077409724,1171.3563232421875,183.22981688835551
170,2844.991455078125,-1183.0748291015625,1164.200597032579,228.98266366389635,1169.0224609375,175.2615013653854
171,3137.3515625,-1158.4801025390625,1154.9035727818723,223.75007115204275,1163.94189453125,191.11781283744608
172,3153.22607421875,-1159.953857421875,1165.8502762176877,225.29618075870337,1175.692626953125,178.5444398201664
173,3189.75927734375,-1157.7882080078125,1159.781187430876,225.39663353349488,1167.980712890625,261.3774004504564
174,3338.893310546875,-1179.727783203125,1163.4567064888774,225.32655826881503,1172.66259765625,256.06405184419117
175,2635.59033203125,-1178.62451171875,1162.3375716261505,225.6032956056237,1170.9178466796875,176.77744871264977
176,3568.00927734375,-1163.190185546875,1157.293464565059,222.05544180848227,1169.047607421875,171.38946552424034
177,2900.6318359375,-1160.638916015625,1160.966857423538,228.14865254377708,1166.022705078125,167.79262445108844
178,3358.72607421875,-1148.8775634765625,1146.4570224285935,219.40624798544377,1158.8134765625,268.8668315470044
179,3212.25927734375,-1159.21044921875,1151.0672666750652,222.2189596973161,1161.060302734375,307.7051298895742
180,3509.40478515625,-1166.5689697265625,1161.980461369365,223.52410985073405,1173.0703125,294.8529647487064
181,2960.04150390625,-1142.04638671875,1152.1728190440576,222.38382270521336,1162.236328125,212.32216901362708
182,3105.02197265625,-1151.556396484375,1162.9457488240907,226.21668075940102,1170.911376953125,178.06660246313822
183,3263.676025390625,-1170.8558349609375,1164.542870036037,226.15582431283696,1172.98388671875,182.29872659542673
184,3129.426513671875,-1179.6168212890625,1156.6381798533052,226.991113736972,1162.058837890625,179.52293167263838
185,4698.6396484375,-1185.6063232421875,1155.8720194614527,223.02639727956034,1166.05712890625,346.43084983968754
186,3507.598388671875,-1179.041748046875,1156.472674950684,223.47092841538256,1166.252197265625,179.27243475139127
187,3046.55126953125,-1152.2398681640625,1156.3437763495997,224.82461471992292,1164.39892578125,171.37862712513498
188,3228.130615234375,-1151.8572998046875,1163.168366720858,223.49845032948537,1174.58740234375,181.93591398061264
189,3218.4677734375,-1166.447998046875,1171.9691162710938,228.29906040485213,1179.5875244140625,175.19478655341783
190,2838.396484375,-1180.1339111328125,1164.989178617135,226.95125752224038,1172.54736328125,171.9530741915311
191,2855.1552734375,-1178.8731689453125,1163.6355414313275,227.49083317937425,1170.180908203125,178.89566487552372
192,3206.974365234375,-1172.484130859375,1165.2613127824345,226.14393254485523,1173.896728515625,173.46311682600927
193,2875.803466796875,-1145.91748046875,1159.0259350616977,221.84817200494274,1171.47216796875,172.9222519031195
194,3674.5908203125,-1139.1673583984375,1157.562575969898,224.17789369603324,1166.7308349609375,180.30559670815805
195,3506.5302734375,-1148.4725341796875,1157.5285926432584,225.68992795657852,1164.79833984375,181.1773213677996
196,3145.717529296875,-1181.40576171875,1164.4012371017554,225.64832763215094,1173.441162109375,170.47220216877417
197,3505.469970703125,-1178.50146484375,1152.2293913135545,222.92408812141585,1161.631591796875,193.73886672154836
198,3390.003173828125,-1181.8370361328125,1162.942124061683,225.16464176664664,1172.221923828125,182.3882421834647
199,3829.0859375,-1137.5997314453125,1140.1758290455666,219.22117665568265,1151.193359375,274.34045783971044
200,2371.876220703125,-1162.4708251953125,1172.4721717084803,230.90352632655276,1176.9608154296875,164.51792166744167
201,3037.32568359375,-1165.296630859375,1162.5155625380721,226.19339309112675,1170.402587890625,174.81709604279237
202,2990.93505859375,-1168.6751708984375,1154.2052889519837,222.69155449210655,1164.39208984375,182.85690371434094
203,3168.245849609375,-1164.8145751953125,1159.7637770518782,226.64498694987316,1166.3985595703125,174.56239889512707
204,3191.86328125,-1157.1546630859375,1165.2627392066288,227.30461428292267,1172.4476318359375,183.7763197631113
205,3353.0087890625,-1142.9730224609375,1152.2977885211944,224.71078178539253,1159.483642578125,258.5891627587241
206,2716.19482421875,-1173.3486328125,1168.1102818926495,228.9959449728647,1173.892822265625,175.43027737237276
207,3436.10693359375,-1163.1912841796875,1152.2431503919179,221.8510142949636,1162.990234375,303.74422066376405
208,3300.42138671875,-1156.805419921875,1159.5089315957434,226.89168654149825,1165.7716064453125,170.0786313961344
209,3369.533935546875,-1166.1009521484375,1163.2211294653616,225.3934951546392,1172.284423828125,192.198656265675
210,3051.3125,-1158.2393798828125,1149.5987603720973,222.15200501054034,1159.308349609375,324.6745807823853
211,2920.460205078125,-1157.469970703125,1154.4333890069688,222.75049224984303,1164.6036376953125,287.51187983700976
212,2893.65625,-1168.97802734375,1161.7700859373517,224.9122184103437,1171.072265625,168.09112830885684
213,3051.03955078125,-1156.088623046875,1152.5802417385742,222.82192398192132,1162.1978759765625,193.30973230302294
214,3232.053466796875,-1153.8819580078125,1149.2477503035152,221.5114992830835,1159.67041015625,329.57307242944535
215,2823.97119140625,-1152.90185546875,1148.8038831133106,220.85948323194754,1159.930419921875,246.16620665438057
216,2885.171875,-1165.7587890625,1156.1396043113089,223.36185057672014,1165.97216796875,175.09439371141784
217,3416.704345703125,-1158.3486328125,1154.089375857464,219.30953243171305,1168.474853515625,214.09016841422698
218,2979.96533203125,-1151.211181640625,1159.066965524903,223.00452869390548,1170.078125,182.35723332832632
219,3813.528564453125,-1154.16845703125,1164.8694564225855,228.16887115265735,1170.875732421875,189.05654542909247
220,3256.813232421875,-1165.404052734375,1154.7806100738635,224.34174903756292,1163.048583984375,176.19478702950042
221,3335.59716796875,-1177.9884033203125,1162.801190739342,226.25695140905026,1170.6802978515625,165.552869219508
222,3195.178955078125,-1155.4921875,1152.8689806889279,222.67004140126562,1162.7486572265625,183.61976231875354
223,2666.83642578125,-1171.115478515625,1170.57202054232,228.6770020601117,1177.3687744140625,180.90930163342438
224,2831.338623046875,-1170.8875732421875,1160.6724926575212,224.49318777165715,1170.22412109375,232.72070935843115
225,3253.635986328125,-1164.9359130859375,1159.40320669589,224.50731054720842,1168.619873046875,289.4191917788754
226,2944.8154296875,-1153.863525390625,1158.091926429995,224.8015341026864,1166.613037109375,250.12786112379263
227,3134.048095703125,-1173.4071044921875,1172.6465560780557,227.3784603463206,1181.585205078125,171.2400292451713
228,3172.45703125,-1160.22607421875,1145.478371121766,219.95666089284583,1156.902099609375,346.4585545621997
229,2744.82080078125,-1155.3375244140625,1147.824528465477,222.3644491531524,1156.8250732421875,241.37923406206107
230,2988.641845703125,-1151.3153076171875,1148.7904960356723,221.63865708932974,1158.939697265625,286.6625123592826
231,3416.67333984375,-1161.4200439453125,1153.4960611728154,222.46803032431222,1163.7850341796875,186.7686966812755
232,3207.783203125,-1175.984130859375,1175.3726129397924,229.728701911884,1182.054931640625,171.91723152713067
233,2773.647216796875,-1154.4866943359375,1151.9811954674515,222.32947229717092,1162.064697265625,185.03841506746872
234,2778.670654296875,-1176.552490234375,1165.9978481750895,225.7690990667749,1175.2860107421875,192.1392675709205
235,3397.804931640625,-1163.0267333984375,1155.0747180895146,223.2570065216357,1164.7720947265625,179.64912811384255
236,2787.26123046875,-1157.60498046875,1162.9011723672656,226.57458417766367,1170.408203125,177.31187206741154
237,3106.787109375,-1162.47021484375,1163.3593179982147,225.07499649934374,1172.85546875,177.8908088590447
238,3416.996826171875,-1171.285400390625,1158.2544347331313,223.97859662030035,1167.8447265625,180.3805835033131
239,3516.2021484375,-1161.2987060546875,1151.221990791752,221.62427498479093,1161.9970703125,356.60582426972593
240,3128.615478515625,-1160.621337890625,1167.2101119351296,227.09313128708857,1175.146240234375,168.27827890729063
241,3047.87646484375,-1153.2059326171875,1156.1837507811983,220.91363626398646,1169.087646484375,177.630893022537
242,3395.47998046875,-1165.4552001953125,1150.3571697143877,221.74068612140067,1160.7706298828125,251.98390981987887
243,3254.7998046875,-1163.831298828125,1152.8974634556148,222.68778074067558,1162.76220703125,192.78966966291514
244,3177.60107421875,-1168.0224609375,1168.3877363146764,226.106494754694,1177.8515625,311.2608117491319
245,3076.4013671875,-1163.257568359375,1162.9859094655294,224.7969246542234,1172.736328125,266.99913452937335
246,2942.60107421875,-1180.57861328125,1169.476458819563,229.21806459611153,1175.322998046875,182.90538579642936
247,2921.685546875,-1183.5784912109375,1172.3949314194065,228.72147417089752,1179.591796875,181.41424553034
248,2973.8857421875,-1158.0045166015625,1158.0440475138876,226.72199793188287,1164.152587890625,179.67954315260084
249,3007.223388671875,-1155.2972412109375,1155.4442206210852,225.587375623679,1162.321044921875,163.9086367233795
250,3173.41259765625,-1176.92578125,1166.229676514563,223.17219598859222,1178.82177734375,183.66019550033607
251,2874.510498046875,-1154.02294921875,1151.2061013680163,220.55703162962828,1163.3114013671875,178.9116354933157
252,2994.812744140625,-1170.379638671875,1163.008437959945,225.3261545346138,1172.102783203125,196.9844546601645
253,3038.18505859375,-1166.7376708984375,1161.8081832986118,224.1257775526288,1172.10302734375,180.2117641071263
254,2845.518310546875,-1164.0828857421875,1160.9980650195587,223.95752137989876,1171.3006591796875,229.05417729774103
255,2766.738525390625,-1174.548828125,1159.5778137970726,225.71804063804547,1167.32470703125,255.16093219645484
256,3733.4912109375,-1172.75048828125,1157.9866137590293,224.07385850809834,1167.3909912109375,176.51582021916866
257,2617.39990234375,-1160.6116943359375,1166.2323686109994,225.03205985893965,1176.5003662109375,181.20272290530227
258,4328.6572265625,-1150.364501953125,1158.5907989165369,223.48996325941707,1168.8759765625,273.9034010758387
259,3318.279052734375,-1158.330078125,1153.7276206890144,223.90525666866674,1162.2779541015625,284.4135860331108
260,3259.3466796875,-1187.8253173828125,1165.393695042268,227.49880168213014,1172.36865234375,307.0144282282144
261,3116.11279296875,-1191.107421875,1166.4755755829306,227.16713523144415,1174.1356201171875,172.6665049087556
262,3429.544921875,-1171.1387939453125,1158.3366869004403,223.76887750941862,1168.209716796875,168.57666546937728
263,3332.2470703125,-1140.485595703125,1154.0527003222282,223.02433676059798,1163.7855224609375,293.33968250766753
264,3331.85546875,-1132.885009765625,1150.4349879958095,221.20476836938263,1161.5377197265625,185.15854241947093
265,3690.456298828125,-1153.986083984375,1165.1850745204338,225.33840153249562,1174.808349609375,171.87383102504256
266,2996.450439453125,-1171.7720947265625,1161.1166124339513,226.38257691816617,1168.41748046875,183.6651124489709
267,3458.333251953125,-1181.8448486328125,1160.4220373396274,224.23791328710283,1170.230224609375,243.93621925060822
268,3683.3173828125,-1170.5999755859375,1159.1697381112813,221.81455192306012,1171.6939697265625,178.29525534383245
269,2869.80322265625,-1147.078857421875,1152.7815137796142,225.91547760293258,1158.58251953125,171.1225643709427
270,3501.75048828125,-1161.793212890625,1161.3476494245795,224.8793544702795,1170.5853271484375,177.4716708653553
271,3906.2021484375,-1157.9324951171875,1146.2370951614562,221.90956325151353,1155.409423828125,345.2756117100546
272,4166.0546875,-1162.732666015625,1152.0716983970576,223.25178096856405,1161.02490234375,318.5258338470139
273,3378.88623046875,-1150.54736328125,1153.096974792246,222.73919782853528,1162.9471435546875,330.8237506788815
274,3122.068115234375,-1167.1676025390625,1165.6976543223425,229.19664432163674,1170.626220703125,184.50662555857133
275,3016.42138671875,-1169.32666015625,1154.1803627522486,224.64900064783257,1161.9140625,185.91997481620714
276,3344.474609375,-1182.12255859375,1166.7315408656168,225.42827596159452,1176.629150390625,182.37865904715935
277,3283.730224609375,-1164.6978759765625,1166.0678408828596,224.88011295469778,1176.484619140625,176.06961938809337
278,2923.9609375,-1157.5498046875,1159.938372596671,224.90404666321444,1168.79296875,168.45590711209812
279,3632.274169921875,-1178.06005859375,1164.4186438857987,223.40284507865437,1176.269775390625,179.1230505834442
280,3304.510498046875,-1167.3280029296875,1158.8564821446294,224.04986316803618,1168.50830078125,175.11070590121201
281,3919.7822265625,-1163.79296875,1165.3212534554177,225.2218557007485,1175.124267578125,218.9591128671164
282,3833.0859375,-1162.5888671875,1157.014178864391,222.63291800889516,1167.9765625,189.34669031736382
283,8320.248046875,-1165.1502685546875,1152.9661114825158,222.28552615477133,1163.3505859375,289.86368283594044
284,3464.80029296875,-1183.7188720703125,1168.7086398368463,227.1536672835931,1176.9437255859375,248.55567080574068
285,2931.7255859375,-1151.787353515625,1154.1679578943808,222.9516463054975,1164.0203857421875,182.46008028288148
286,3407.133544921875,-1166.38818359375,1171.9826286146456,228.1653608152682,1179.7716064453125,173.7258673522253
287,3122.221923828125,-1174.8035888671875,1162.8600843436793,226.12317292762552,1170.921142578125,169.94961098429127
288,3767.884765625,-1165.34033203125,1154.3150208170932,220.2287944729848,1167.607666015625,195.96655379359802
289,3308.646728515625,-1159.6146240234375,1164.8446936014484,222.30842182071916,1178.17041015625,185.74283649436148
290,3315.130859375,-1138.906005859375,1148.396510867733,223.17673787321462,1156.524658203125,261.96070571069583
291,3558.42578125,-1168.02197265625,1160.7975854927504,225.74268898310282,1168.818603515625,180.9913897210552
292,4338.68603515625,-1178.007080078125,1162.4093968231145,223.55626747197553,1173.56640625,291.42906095484136
293,3551.8642578125,-1166.7855224609375,1160.2592699733548,223.20219804914512,1171.3212890625,234.33511239571985
294,2810.287109375,-1155.506103515625,1165.3455190510217,225.22281020588304,1175.1533203125,179.3640791581639
295,3203.380126953125,-1155.1185302734375,1166.5248750182118,225.30821203908573,1176.520751953125,306.1148209578443
296,3451.070068359375,-1158.3927001953125,1154.0816182818726,222.60873443749676,1164.3411865234375,180.0266287940769
297,3347.08837890625,-1177.150390625,1157.1367520440772,222.3906423200322,1168.4326171875,283.2534335404393
298,3411.5546875,-1178.4300537109375,1163.364603326505,225.71885380524932,1172.05712890625,259.2172775871324
299,3702.898681640625,-1170.4853515625,1164.629209526414,221.1386862715426,1179.3631591796875,206.79787712268524
300,3592.631103515625,-1154.7332763671875,1160.0688825976415,223.88857330198726,1170.225341796875,313.270503839169
301,2953.572998046875,-1173.77294921875,1171.039417252865,225.11720312180762,1182.40283203125,186.76835926092244
302,3005.1162109375,-1179.43359375,1159.2283887366916,224.6843237440254,1168.1800537109375,187.63870316329704
303,3329.84716796875,-1192.89697265625,1170.2831654488577,227.48135961885583,1178.5023193359375,168.99924324844588
304,3128.577392578125,-1173.0479736328125,1164.9499159019965,225.71034855065514,1174.049560546875,177.02232067643197
305,3295.1416015625,-1142.9676513671875,1156.435868413556,221.26886673699642,1168.958740234375,179.4579544413205
306,3293.716552734375,-1130.6375732421875,1153.5226230612661,222.8310076049233,1163.364501953125,189.99292859671374
307,3987.398681640625,-1154.3936767578125,1166.5254687154868,226.55440648442294,1174.9637451171875,172.7070629160101
308,3576.027099609375,-1163.110107421875,1152.677124283619,222.96759451419837,1162.136962890625,286.6265264955633
309,2965.86279296875,-1184.2977294921875,1166.5698648561001,226.49105864653586,1175.098388671875,175.16535232715572
310,3685.5546875,-1162.75927734375,1154.5031683128555,223.68397733385154,1163.52392578125,318.6765063432342
311,3760.3427734375,-1159.6226806640625,1169.195997015762,226.41701407768105,1178.4736328125,218.52845388911845
312,3203.81982421875,-1146.6033935546875,1159.9578205372895,226.2904667045679,1167.084228515625,183.21301254041333
313,3461.812744140625,-1158.9547119140625,1157.121940957934,222.47544995489739,1168.30810546875,197.65205898349947
314,3393.7958984375,-1187.0797119140625,1162.498849822678,222.77482254961916,1174.655029296875,188.63812319170574
315,3894.606201171875,-1194.6524658203125,1168.3902352666719,226.9519774770601,1176.7977294921875,254.58262352824514
316,3551.56640625,-1171.6651611328125,1154.986786576853,223.34447379534038,1164.5528564453125,189.08978682044858
317,3347.49169921875,-1147.934326171875,1155.993931740666,221.94454111322221,1167.561767578125,176.3218950020502
318,2975.174072265625,-1145.2120361328125,1164.115621995249,224.00563937953962,1175.137451171875,197.64361369674702
319,3358.955078125,-1151.258544921875,1158.0059070449229,223.23302477410985,1168.466064453125,255.28859786038842
320,3502.274169921875,-1178.98291015625,1161.9160146116694,224.48715890640827,1171.7861328125,293.57584340516894
321,3301.515380859375,-1184.9693603515625,1163.8448996875272,225.5103015351878,1172.918212890625,186.85408828921067
322,3962.125,-1179.36767578125,1165.2848631579488,222.57166732140468,1178.3916015625,194.16974976915128
323,3384.474609375,-1145.3800048828125,1156.2136889567523,223.6801975360064,1165.6668701171875,170.88410593433287
324,2812.344970703125,-1149.757568359375,1162.830801531176,222.30776724467682,1175.65380859375,174.90653470502403
325,3225.0068359375,-1158.69921875,1159.5662419380246,223.77619827404612,1169.737548828125,179.81678401689763
326,2814.8466796875,-1196.6429443359375,1173.3343329569693,228.3676540395611,1181.2083740234375,175.6366819082548
327,3262.36279296875,-1191.4061279296875,1161.0932862880363,223.89205539996757,1171.5015869140625,184.03602631495767
328,3813.968505859375,-1188.460205078125,1164.2070371422715,223.05883506869753,1176.435302734375,186.13685359662054
329,3085.744873046875,-1141.46337890625,1144.1974558269085,219.2014672552645,1156.2449951171875,342.7079409177481
330,3181.70654296875,-1151.9908447265625,1158.7190665394082,221.87676607668539,1171.052978515625,178.1333699338213
331,3280.83544921875,-1158.4381103515625,1156.2873016184244,219.97046900447924,1170.39599609375,266.29601329951225
332,3589.496337890625,-1172.1842041015625,1150.2187869957147,221.57260962039794,1160.807861328125,324.0796461205685
333,3046.5771484375,-1186.018798828125,1158.5343315702175,224.34840129430034,1167.732421875,306.67602566204545
334,3156.3916015625,-1188.1002197265625,1173.359265828479,226.73551746641468,1183.2796630859375,177.21593653564042
335,3420.46142578125,-1158.8604736328125,1167.273219120951,224.27704873129846,1178.745361328125,179.29139815582195
336,3331.641845703125,-1139.1827392578125,1157.5972616146191,222.28375849526947,1169.141845703125,170.34739028853326
337,3614.546630859375,-1136.93994140625,1146.8579704308306,218.70522843537665,1160.19091796875,314.1593435912565
338,3513.490234375,-1174.939453125,1159.1109858891011,220.81303163971904,1172.8724365234375,180.48421374026717
339,2724.220947265625,-1185.399658203125,1167.5608703744215,226.86675858614876,1175.86767578125,183.39539776019038
340,3851.849365234375,-1170.294189453125,1161.4115293278294,224.54583709379006,1171.0821533203125,279.98190207246694
341,3071.529296875,-1160.2783203125,1169.2475828278093,227.69685252785968,1176.9384765625,172.53020833556957
342,3477.63037109375,-1145.4075927734375,1151.816154603754,222.97182777384376,1161.055419921875,316.9545720242421
343,3314.4951171875,-1168.0452880859375,1158.4187579593336,222.32614831241705,1170.11572265625,265.62681554944373
344,3219.2587890625,-1171.48681640625,1158.3874292392297,222.9040215272469,1169.354248046875,270.9185400023567
345,2820.627685546875,-1166.8421630859375,1163.2257434212333,225.0709490560655,1172.6934814453125,186.27292836729035
346,3890.10107421875,-1162.667724609375,1161.8299731989785,222.8387967964095,1173.7388916015625,199.10888100171152
347,2923.42236328125,-1175.85595703125,1163.7784491602588,224.69271619955776,1173.857177734375,183.24402024551674
348,2802.524169921875,-1175.757568359375,1166.4457080293028,226.41779722455422,1175.034912109375,285.4846194311947
349,3121.125244140625,-1162.51611328125,1165.6507846710429,224.6678078767999,1176.228759765625,241.09512842319126
350,3498.5166015625,-1151.3228759765625,1154.5573818041323,220.3603161765574,1167.746337890625,197.78970668255104
351,2986.9990234375,-1165.9332275390625,1153.1386412675886,221.12770751076033,1165.013671875,343.01191176992245
352,3397.89990234375,-1177.1190185546875,1162.1376398725065,224.5449976605924,1171.9908447265625,280.58185353167755
353,2904.52294921875,-1176.8428955078125,1167.9882918973763,223.87743388613046,1180.1385498046875,277.6689974624028
354,3314.961181640625,-1155.03271484375,1163.9927228947747,224.07201128207328,1174.9010009765625,176.44346838037575
355,3277.328125,-1148.144287109375,1157.0644705594996,222.7042407812096,1167.9503173828125,179.0353501850451
356,2884.0439453125,-1167.9156494140625,1161.4634565226193,225.0456998101826,1170.522216796875,184.4948527271312
357,3334.07373046875,-1182.8922119140625,1159.1814465433781,223.38481151167787,1169.745849609375,180.31708049563758
358,3311.023681640625,-1188.063720703125,1165.0620973924536,226.51976544059696,1173.177978515625,194.94824831694623
359,3571.0537109375,-1172.256103515625,1159.364530001579,223.1236037209613,1170.3011474609375,187.50648934177224
360,3235.60693359375,-1140.0242919921875,1153.3474026488366,221.59980347624443,1164.6845703125,180.1624035355435
361,3669.269775390625,-1148.936279296875,1171.3963224327247,225.5052089070956,1182.36376953125,181.4714313052989
362,3864.154296875,-1144.57763671875,1157.832913358561,222.50855401312475,1169.155517578125,184.44464652800266
363,3219.230712890625,-1169.161865234375,1158.7182807237255,222.99237788025005,1169.6573486328125,175.632771839428
364,3254.22265625,-1191.5675048828125,1171.871632183666,225.94133795606604,1182.412841796875,177.82621927933562
365,3284.3896484375,-1170.822509765625,1157.2469864405027,222.15703874000226,1168.8624267578125,177.21445191103962
366,2884.73828125,-1151.7509765625,1159.6491066312724,222.9824250674182,1170.83349609375,187.64121577553033
367,3414.84228515625,-1150.259521484375,1158.4058900665464,221.998998649043,1170.508544921875,187.27221232442176
368,3226.933837890625,-1173.71240234375,1167.9846214958748,225.18197830406024,1178.50341796875,181.9331497676752
369,3074.8779296875,-1194.3914794921875,1168.3511872738459,226.53717882333768,1177.267578125,176.83838924229298
370,3355.829345703125,-1199.6146240234375,1169.7944549510498,226.08579892015646,1179.6357421875,253.3051016699704
371,3698.373046875,-1177.05810546875,1158.2474595254016,225.21502291613322,1166.29052734375,181.3633723787401
372,3618.35986328125,-1149.833984375,1152.965132491372,219.09403321006113,1167.3388671875,189.0171990262015
373,3060.725830078125,-1156.2955322265625,1169.8591060785561,226.44795264284892,1179.263916015625,187.44699684319716
374,3653.21435546875,-1158.9735107421875,1163.3136155839538,225.95180306392655,1171.7022705078125,183.35830784369884
375,3297.794677734375,-1182.3599853515625,1161.431694610857,224.38626874282255,1171.3067626953125,279.23127856054134
376,3391.811767578125,-1193.0091552734375,1167.399289562798,223.2182327034539,1180.226318359375,183.00411079526637
377,3311.96923828125,-1180.376708984375,1171.0639088333,228.78704354170463,1177.8460693359375,177.9576438436293
378,3315.50341796875,-1131.59130859375,1141.549279682215,217.50496340307194,1155.055419921875,350.5319492766118
379,3003.5,-1146.9656982421875,1165.7828813793226,226.56951587219672,1174.0166015625,186.11672150385462
380,3609.024169921875,-1150.58935546875,1160.452429035789,224.1200770531953,1170.41552734375,180.12113600399616
381,3044.77099609375,-1186.3409423828125,1172.7659943210977,231.25783268689085,1176.88525390625,183.92419415568685
382,3044.835693359375,-1188.667724609375,1164.0274469464468,224.5573820456313,1174.3375244140625,184.24797904261837
383,3661.297119140625,-1183.6287841796875,1169.1525867790854,225.22243379065145,1179.91259765625,176.6666603842357
384,3217.444091796875,-1154.96240234375,1163.616187554891,224.4312100234577,1173.981201171875,172.21025036001282
385,3278.803955078125,-1142.904541015625,1157.183596662964,222.94255705305494,1167.80126953125,317.0398881452026
386,3099.183837890625,-1161.81103515625,1166.02378756544,226.49201212665443,1174.4146728515625,176.4644685016572
387,3405.46630859375,-1191.5614013671875,1168.1865898837902,226.11265969179664,1177.5924072265625,181.70376893527327
388,3271.82958984375,-1191.886474609375,1163.4187844890248,224.13127304167324,1174.109375,288.8530185073212
389,3743.64111328125,-1177.802734375,1157.9595587834544,220.79783798305462,1171.4521484375,199.67605018527016
390,3067.728759765625,-1154.1707763671875,1164.3257080015776,226.2340149340269,1172.6146240234375,177.99237843413735
391,3015.6923828125,-1145.4461669921875,1156.4558577042453,220.80553550537758,1169.5628662109375,255.56802260982047
392,3347.404541015625,-1146.40478515625,1154.1926491991808,223.64238102596306,1163.1878662109375,271.8326037796694
393,3567.92578125,-1187.965087890625,1174.2862419920311,228.22765057229333,1182.5732421875,189.45323252635367
394,3156.586181640625,-1174.4158935546875,1153.0666935416248,223.97701127252827,1161.362060546875,281.3621171249881
395,2894.384765625,-1169.4566650390625,1157.9564203630773,225.17666672576343,1165.9747314453125,296.5715931805649
396,3028.13330078125,-1159.986572265625,1168.7553012071703,226.04941346035923,1178.38232421875,171.18536375004177
397,3310.72802734375,-1155.214599609375,1169.1933753106814,224.48033014275836,1180.891357421875,181.81659918305152
398,3470.869140625,-1152.51806640625,1153.9782862229526,218.58486465646615,1169.24169921875,355.9040168735624
399,2985.10400390625,-1187.164306640625,1167.6036735931084,226.55304094344845,1176.313232421875,172.80404120477135
400,3423.946044921875,-1195.464111328125,1165.6250123725363,225.17752702097363,1175.559326171875,171.866415983744
401,3662.58154296875,-1187.557373046875,1166.1930187923167,224.10537831608997,1177.609619140625,183.08555461246766
402,3408.974365234375,-1162.075439453125,1167.5939001337615,224.83571573654064,1178.44775390625,183.4824696146034
403,3461.46875,-1149.7607421875,1159.0528994310691,221.6878069866491,1171.706298828125,188.1413030387311
404,2884.669189453125,-1169.171630859375,1172.3367412023563,227.97736348438454,1180.44921875,173.20997063882496
405,3019.42919921875,-1181.1820068359375,1159.602643531596,223.23802563551584,1170.455810546875,217.5795537810232
406,3353.240478515625,-1189.7181396484375,1162.5047752740825,224.93972117929107,1171.956298828125,182.44457642500066
407,3318.909423828125,-1175.592529296875,1157.6831239173498,223.5811636666145,1167.62744140625,195.48113906157178
408,3254.633544921875,-1163.3822021484375,1169.070350612878,225.35375217366118,1179.645751953125,184.71218462969566
409,3575.5087890625,-1145.1514892578125,1157.4160312600502,222.36215445474457,1168.8173828125,227.22262535254114
410,3439.21875,-1154.5235595703125,1157.9910734528291,222.48807435274,1169.3787841796875,337.4561456219244
411,3083.3818359375,-1185.2977294921875,1162.4454374244242,222.34540533626352,1175.125,186.941174474428
412,3086.736572265625,-1191.171142578125,1163.6512996928996,222.88638456037688,1175.9560546875,177.43151924658832
413,3472.2978515625,-1164.83984375,1149.6136332752153,223.06553674954628,1158.1851806640625,445.61346736236925
414,2955.791015625,-1140.8369140625,1150.1583495351745,220.06781979531775,1162.61328125,179.665165623949
415,3455.726806640625,-1151.775634765625,1166.6890054757712,223.4238439704297,1179.08154296875,201.794851208842
416,4090.45556640625,-1153.828125,1161.9042213562427,225.17828699383105,1170.9073486328125,175.27416636184333
417,3019.98388671875,-1181.9566650390625,1163.6507084741393,223.36350556156987,1175.359130859375,184.80825870195952
418,3394.91455078125,-1193.5928955078125,1172.2275569813437,226.37435817291203,1182.3165283203125,179.2477358774289
419,3258.923095703125,-1173.0657958984375,1159.466866749152,222.86906397603394,1170.747314453125,307.3667292532975
420,3093.59423828125,-1144.35986328125,1152.699093026613,222.35637558767678,1162.928466796875,423.7582464284614
421,3331.305908203125,-1158.5150146484375,1169.1154606842524,224.49264328117403,1180.778564453125,191.80005040010852
422,2886.306884765625,-1169.1856689453125,1165.2870147043377,222.9283436202915,1177.9483642578125,177.6054355125854
423,2929.878662109375,-1192.6820068359375,1167.1302764016082,225.38657636594652,1177.1795654296875,197.82870055736277
424,3418.854248046875,-1195.9925537109375,1163.0030990961304,224.1255057457198,1173.596923828125,178.8809165007023
425,3389.423828125,-1200.2603759765625,1179.4101338488063,229.25161043228695,1187.6982421875,172.92826896771146
426,3778.619384765625,-1173.415771484375,1171.922249714229,225.00596348414183,1183.6453857421875,184.98734877630832
427,3127.896240234375,-1155.9017333984375,1163.7134039448813,223.81427048316755,1174.873779296875,197.3723041557071
428,3469.854248046875,-1152.3114013671875,1153.8657469600735,220.54631927910415,1166.649169921875,332.696114454572
429,3774.89599609375,-1167.0528564453125,1145.643668956972,218.51244723341557,1158.9140625,267.03314468272606
430,3171.52978515625,-1181.09521484375,1158.929297228605,220.84511867359322,1172.605224609375,182.9966575459998
431,3360.81201171875,-1170.6890869140625,1163.4229012195276,224.34781782070857,1173.8438720703125,190.44333410312623
432,2982.962646484375,-1144.9434814453125,1158.960744116256,220.08250601346214,1173.597900390625,183.75014155298823
433,3400.15771484375,-1145.592529296875,1170.3200722219917,226.11003269874777,1180.2625732421875,181.07843371625418
434,3735.25927734375,-1158.7271728515625,1171.6282149551357,224.9743263719524,1183.3173828125,188.80822470735893
435,3755.185302734375,-1168.27392578125,1154.6524742871125,222.15755461748427,1165.61865234375,301.71184109561983
436,3163.37060546875,-1191.0615234375,1170.3203359345948,224.994325728253,1181.657470703125,192.5841583183498
437,3995.66455078125,-1168.029052734375,1152.2700856109302,218.71980246502574,1166.937744140625,248.28380718297893
438,3512.9697265625,-1149.017578125,1155.710024274755,220.88293498294388,1168.5338134765625,308.1749968171453
439,3115.154541015625,-1145.9986572265625,1157.5349533863937,223.63650055607914,1167.373046875,186.0288352089034
440,3548.965087890625,-1158.4835205078125,1156.5185727318453,221.1230430802036,1169.244384765625,339.53063964922177
441,3119.361328125,-1171.2586669921875,1145.807732994571,218.44342537941017,1159.205322265625,291.32091842535857
442,3608.21533203125,-1184.1217041015625,1155.5453954693344,223.57466435399306,1164.96337890625,193.55241137759904
443,3755.8955078125,-1176.257568359375,1157.308269374032,220.47340003695012,1171.0435791015625,320.81213943540945
444,3111.23876953125,-1157.5299072265625,1168.1808134750581,227.21270882646786,1176.2100830078125,173.73782098423783
445,3278.716796875,-1148.7738037109375,1165.9879070778134,226.33286938860428,1174.56884765625,179.11111201128367
446,3681.5927734375,-1151.7193603515625,1156.6474479230606,221.5815243335923,1168.83251953125,193.42928549627212
447,3186.2958984375,-1189.0107421875,1169.233479665565,225.974777530479,1179.0733642578125,172.71492888876037
448,3564.6181640625,-1180.7093505859375,1154.942842703807,220.15944732998562,1168.479248046875,319.57676538068444
449,3125.11962890625,-1177.407958984375,1162.8289776629695,224.66121166412893,1172.709716796875,171.91762954032282
450,3167.995849609375,-1161.17529296875,1169.9308206461856,224.75699008931605,1181.46728515625,184.5627658137411
451,3712.60107421875,-1135.2783203125,1153.4698935909364,221.27127433849313,1165.248291015625,326.4094081260637
452,3613.604736328125,-1161.2120361328125,1167.7398668574453,226.23679596654165,1176.87890625,180.78535268715328
453,2919.9189453125,-1187.4322509765625,1170.1843387910176,225.8740125187682,1180.387939453125,182.0547230558524
454,3112.533203125,-1183.2882080078125,1157.0353758801532,222.834082363994,1167.751708984375,287.43100173147184
455,3313.780517578125,-1180.1141357421875,1159.2569678117768,221.92680786152027,1171.6627197265625,213.10968171837015
456,2944.837890625,-1158.9210205078125,1164.8161798049243,225.53423711550562,1174.1024169921875,224.17588102744625
457,2696.686279296875,-1153.961669921875,1166.7705677050149,227.42711734948523,1174.1793212890625,181.1851344187533
458,3528.54248046875,-1155.8245849609375,1154.6032599490843,223.52055015980818,1163.8533935546875,334.8817578918847
459,2906.812744140625,-1191.3887939453125,1168.2489462316307,223.5048197686943,1180.93017578125,285.02467942336057
460,3594.591796875,-1191.7921142578125,1166.1571420899022,224.85773779958367,1176.624267578125,184.02497039590213
461,3370.766357421875,-1183.063232421875,1170.3763161587408,226.4151212300053,1179.9515380859375,191.20282112526306
462,3038.992919921875,-1144.4281005859375,1155.0654358700456,221.81273483788368,1166.5657958984375,199.73389110478348
463,3406.74853515625,-1146.4642333984375,1163.749590588919,224.31670007835987,1174.2911376953125,180.2501535527968
464,3503.674560546875,-1152.640625,1163.0681384387449,226.6650823715164,1170.5037841796875,196.75866367429006
465,3554.63232421875,-1182.6341552734375,1166.7783738794737,224.67638418106375,1177.62744140625,306.87772411389017
466,3188.166748046875,-1195.2723388671875,1170.5603105045616,224.27882652056797,1182.851806640625,179.75789946141512
467,3868.892578125,-1165.83056640625,1150.818306405208,218.5889091559861,1165.2867431640625,183.879406586591
468,2952.985107421875,-1160.28369140625,1170.097078881227,224.30878098961,1182.2353515625,190.30627751377557
469,3144.550048828125,-1158.8814697265625,1168.8892147849306,225.212362797092,1179.5960693359375,173.77699343666913
470,3205.322265625,-1165.8590087890625,1159.8926289687438,222.01787994006105,1172.3433837890625,177.237822401862
471,2917.705078125,-1181.73583984375,1165.5430198335357,223.85909631487803,1177.1048583984375,177.74883228702637
472,2685.2119140625,-1173.0546875,1165.5268152895353,223.13009858224225,1177.995849609375,183.88851357663768
473,2903.046630859375,-1156.4150390625,1161.5718667445049,224.47150785301767,1171.37548828125,180.89151140492987
474,3086.602783203125,-1164.6806640625,1164.7356506051,225.05418675108524,1174.601806640625,195.61993928852618
475,3225.242431640625,-1184.5462646484375,1167.3976813995187,224.97301514976664,1178.03076171875,183.47313621135947
476,3865.6103515625,-1172.1112060546875,1154.0517895683306,218.689195178415,1169.2032470703125,340.0934903068417
477,2963.679443359375,-1170.447509765625,1172.7827450592968,227.79098347024654,1181.23974609375,176.14156185677928
478,3555.840576171875,-1170.4578857421875,1170.4029266994592,222.8119337331649,1184.48876953125,192.33264876446844
479,3395.468017578125,-1172.3018798828125,1161.857757240537,221.6233651772174,1175.29296875,195.7656673493274
480,2931.370361328125,-1168.3448486328125,1158.2984803249726,222.08751976244542,1170.263671875,185.13884206004872
481,3253.021728515625,-1146.812744140625,1150.6095844072659,219.40174126451802,1164.009765625,288.49928540475184
482,3277.332275390625,-1161.439697265625,1163.0717867657177,222.08236126150996,1176.23681640625,289.8761194942263
483,3128.263671875,-1176.068359375,1163.8746540165537,224.57591537600695,1174.12353515625,188.44848798939753
484,3744.865234375,-1176.15869140625,1159.3303147743027,220.91268095472242,1173.02197265625,191.00900665269958
485,3348.61572265625,-1156.527099609375,1155.3244389541524,221.19000045471654,1167.6680908203125,360.9767791942288
486,3173.72900390625,-1167.09912109375,1162.2107125808802,221.84643725653532,1175.455322265625,289.50663833859704
487,3214.587890625,-1171.3953857421875,1168.75391954304,223.8705899213375,1181.1041259765625,194.19193515671068
488,3374.5439453125,-1168.18798828125,1160.348631110849,222.35411455339403,1172.4931640625,291.13800697760473
489,2983.708984375,-1186.7847900390625,1179.9109184320132,229.90633507324867,1187.505615234375,182.19041475552922
490,2977.84619140625,-1165.235595703125,1164.2837697355408,224.96174748822608,1174.152587890625,278.0554483688571
491,3536.716796875,-1172.3804931640625,1166.8069592350562,223.71940071521598,1178.8594970703125,195.3468464143443
492,3106.532958984375,-1183.5123291015625,1166.133017235743,225.4838253793589,1175.8115234375,175.04191605184312
493,2793.1240234375,-1180.4012451171875,1168.528983236617,225.8755554450214,1178.31689453125,186.67832875148133
494,3249.9970703125,-1168.9033203125,1173.6318393961296,223.99754183448408,1187.0428466796875,188.47780259318898
495,3301.47607421875,-1161.250732421875,1168.0985438932057,223.63789852749062,1180.575927734375,200.66306910732933
496,3813.048583984375,-1173.788818359375,1169.1157908800162,225.97977455287344,1178.919921875,186.0375981354585
497,3734.78857421875,-1169.466064453125,1155.390858348252,221.06416948640492,1167.9083251953125,191.6655750242652
498,3326.693115234375,-1161.8782958984375,1157.0863350407933,221.29911270307042,1169.7340087890625,177.43838694529032
499,3046.618408203125,-1159.0828857421875,1151.640721955198,221.07552572717054,1163.20654296875,309.3507254076331
500,3090.436279296875,-1171.6121826171875,1167.5678967368317,223.80571833965303,1179.7027587890625,180.426424394167
501,3246.4833984375,-1164.248779296875,1158.4955423150618,223.49852074724032,1168.746337890625,196.3264555752511
502,2862.77294921875,-1189.5816650390625,1168.8969457604417,229.04184324522095,1174.81884765625,183.9774267717997
503,3816.1044921875,-1192.7786865234375,1162.5304003097617,223.38930531521652,1173.92626953125,186.1617645867871
504,3921.658935546875,-1182.5909423828125,1166.4203274584524,223.5393454886191,1178.601318359375,182.0753547687131
505,3293.298583984375,-1143.27685546875,1157.6117743072055,224.6343425807497,1166.2216796875,175.48764678925724
506,3318.46728515625,-1140.70947265625,1164.2475656084007,226.25034843005596,1172.49658203125,295.3326597114426
507,4273.6669921875,-1153.9967041015625,1163.3500058793734,224.08797397625557,1174.07763671875,185.24454457619993
508,3513.192138671875,-1179.7763671875,1166.9039210959645,224.25438057625007,1178.31201171875,185.62479328196918
509,3461.99072265625,-1186.4501953125,1166.0694176134766,222.75915178629748,1179.137939453125,186.1726987184236
510,3199.97314453125,-1181.3734130859375,1168.0756793035334,225.74659337831207,1177.911376953125,181.74004446456757
511,2720.476806640625,-1174.452880859375,1182.1736359100883,229.39726080709133,1190.970458984375,175.83635604478675
512,3029.70947265625,-1138.6514892578125,1147.5836517208,218.50165111317517,1161.3525390625,192.33786560747333
513,3244.514892578125,-1174.786865234375,1170.71216297072,225.17474602383203,1181.9217529296875,192.50115241015922
514,3616.26611328125,-1181.9190673828125,1159.651795043862,221.8793299578788,1172.215576171875,182.65080287562083
515,3292.783203125,-1193.1923828125,1169.6321586640142,225.7062820763848,1179.9073486328125,192.6435005431043
516,3315.869384765625,-1173.629150390625,1164.1528892979038,223.13964210599772,1176.2666015625,218.45527774244212
517,3453.611572265625,-1151.2371826171875,1165.3735822944623,223.14083795833386,1177.791015625,183.02295326716464
518,3675.76953125,-1142.3431396484375,1164.3432975417704,224.97513433757732,1174.210205078125,304.21922770296817
519,3967.6943359375,-1152.7283935546875,1165.5501957579334,225.66990801531847,1174.850341796875,178.7834450062784
520,2961.75341796875,-1179.0030517578125,1161.540449194805,222.71812942494554,1173.52783203125,179.48823837657048
521,3764.276611328125,-1185.2626953125,1160.0043111223035,221.51810592592284,1173.107666015625,186.2044654481839
522,3603.396728515625,-1180.16552734375,1162.7645335571992,223.8120189922083,1173.690673828125,182.97008149394222
523,2900.462646484375,-1163.5040283203125,1168.648910063836,224.8756140354603,1179.716552734375,177.10192731922623
524,3076.96826171875,-1156.3570556640625,1164.345762783371,222.08419292577338,1177.826904296875,174.1140353527456
525,3504.2275390625,-1163.1590576171875,1162.3678473219197,223.07097768633776,1174.12109375,269.2088189279868
526,3292.408935546875,-1200.9832763671875,1173.8635338123831,226.07252030930846,1184.73876953125,188.48457530842148
527,3390.5400390625,-1187.045166015625,1152.7592038297485,219.43799358843074,1166.651611328125,360.5291931657671
528,3998.041259765625,-1181.76123046875,1157.5870099975075,219.58041514440424,1172.50830078125,198.69466630264822
529,3486.923828125,-1162.60302734375,1164.2148685364286,222.49823642058752,1177.145751953125,198.21188697016456
530,2746.69873046875,-1158.3880615234375,1168.6768401970633,225.38038624427384,1179.12060546875,179.005051936602
531,3084.815185546875,-1163.1124267578125,1160.8980015219422,223.53988750886631,1171.69775390625,193.5204411189011
532,2774.3916015625,-1191.7425537109375,1169.4460025555763,225.89083960124583,1179.4439697265625,184.379045753869
533,3317.648681640625,-1196.1453857421875,1167.8322137613804,225.13922598557775,1178.3662109375,182.33618639152056
534,3202.569091796875,-1185.0450439453125,1168.7234714982828,226.11492352465007,1178.2606201171875,185.72327250297377
535,3003.61474609375,-1161.8516845703125,1170.8567239907857,226.34417578254883,1180.640625,169.6111612639137
536,3390.793701171875,-1145.2880859375,1159.676249766574,220.24408148549588,1174.2901611328125,195.01806007394595
537,3869.622314453125,-1150.73388671875,1156.479738666036,222.21776890895597,1167.827392578125,320.9813214767034
538,3101.075927734375,-1187.287109375,1168.403209139568,223.35982946322605,1181.30419921875,199.83851052379794
539,3605.29443359375,-1183.6468505859375,1152.417836755477,217.9231294095145,1168.118408203125,290.8492421665838
540,3362.708984375,-1182.942138671875,1167.8999197017865,224.6187888395505,1179.101318359375,174.74985811571187
541,3194.708740234375,-1156.8955078125,1165.4824481559835,223.96542221288314,1176.896240234375,186.24008049558807
542,3454.951416015625,-1156.823974609375,1169.0277506823502,224.1549363131485,1181.091064453125,172.5051025978452
543,3898.36181640625,-1153.96923828125,1155.9183275111748,221.46433667026278,1168.0675048828125,186.12711344940422
544,3147.709228515625,-1184.2275390625,1160.9488396576512,222.4657792261707,1173.1038818359375,186.9748781934215
545,3232.935546875,-1200.047607421875,1170.739608462237,226.31033617415272,1180.53662109375,184.556340464322
546,3707.5859375,-1173.6468505859375,1151.7715409394898,219.53082581726684,1165.3009033203125,276.43195190823633
547,3013.979736328125,-1164.36474609375,1169.0048989052111,226.4538722822599,1178.188720703125,192.21026210900342
548,3407.70458984375,-1151.513916015625,1160.9287930398436,222.30631194405285,1173.278076171875,186.40201957730434
549,3443.514404296875,-1163.7935791015625,1163.826993176022,225.07459201482797,1173.4404296875,179.15883768885269
550,3368.057373046875,-1182.4638671875,1158.3419386966666,223.28308566646172,1168.823486328125,185.0850267664723
551,3266.39111328125,-1195.437255859375,1169.6957741628576,226.45640353068578,1179.0491943359375,189.17214621066736
552,3306.462158203125,-1191.331298828125,1174.2110537498536,225.8690391033235,1185.427490234375,175.71952294094967
553,3336.8115234375,-1150.289794921875,1159.4288536105337,223.87628174163726,1169.440673828125,291.75852365687535
554,3297.2763671875,-1149.817626953125,1168.3429718189152,225.35700453447424,1178.7325439453125,192.37092570294055
555,3346.8291015625,-1161.377685546875,1167.6366415035573,223.71984111188308,1179.89599609375,189.34131862755845
556,3307.2548828125,-1175.3701171875,1155.6665264761414,220.27615911125787,1169.2379150390625,185.5334874816112
557,3032.09716796875,-1181.6265869140625,1159.9154070147529,222.55749256417428,1171.697265625,198.6347640191186
558,3393.67822265625,-1178.7177734375,1166.2891643232379,224.8700876778634,1176.7738037109375,184.18090833634662
559,2882.687744140625,-1144.71875,1155.5671265727474,220.77609514059554,1168.48876953125,292.24972295022997
560,3136.5791015625,-1150.4293212890625,1166.98440605913,224.71194416795544,1177.840576171875,183.3307971627189
561,3652.06591796875,-1158.6207275390625,1162.5731140560883,222.455901617505,1175.146484375,184.71939150860658
562,3318.73583984375,-1179.00341796875,1157.1149425153271,220.67897840781373,1170.544921875,193.67874011461578
563,2816.496826171875,-1194.349609375,1168.8920623996403,224.71644525314815,1180.219482421875,185.9640013023096
564,3411.2998046875,-1185.4578857421875,1169.4637349925242,225.720287903329,1179.67919921875,178.107949173756
565,4142.6318359375,-1139.620849609375,1144.7450390417507,214.90813072513845,1162.296142578125,325.23705167071483
566,3521.56640625,-1145.451171875,1159.6497737157335,221.84367837786576,1172.2576904296875,195.10734337635589
567,3763.337158203125,-1165.4288330078125,1171.9961909896172,225.84796191513885,1182.685302734375,175.31034442141714
568,3573.04443359375,-1184.855712890625,1163.8572538688572,224.02557110337324,1174.78955078125,190.1869866691067
569,3232.2724609375,-1172.9439697265625,1144.660008449827,218.47720798996525,1157.728515625,192.48953688364716
570,3223.992919921875,-1180.83349609375,1167.0538346982382,225.9649650550268,1176.361083984375,193.13001391281725
571,3337.2255859375,-1159.3206787109375,1166.8464554283782,224.5248012039827,1177.902099609375,187.34752106924424
572,3113.03466796875,-1153.999755859375,1167.2813455496375,224.3693217430655,1178.6400146484375,177.78650083597037
573,3530.179931640625,-1171.4720458984375,1175.0119990638166,225.99705151828798,1186.2686767578125,184.22540321837482
574,3708.072509765625,-1185.6400146484375,1160.7950005055798,221.55699830068463,1174.0474853515625,178.1523078344403
575,2920.27685546875,-1185.80126953125,1157.2915251017093,222.92065644268973,1167.963623046875,273.5304190234959
576,3380.6884765625,-1173.7095947265625,1155.083943012583,220.9364104064581,1167.684326171875,195.26382445007758
577,2845.1513671875,-1151.0059814453125,1159.2330144110613,223.40222385558408,1169.78857421875,402.88696305413185
578,3314.8193359375,-1140.335205078125,1155.3070585284827,221.55171889406415,1167.1942138671875,190.1582686967541
579,3501.33251953125,-1163.36083984375,1164.8301695717357,222.28119510541185,1178.186279296875,192.83921342827398
580,3550.039794921875,-1173.3077392578125,1153.5141313461886,223.09536768480393,1163.0234375,387.428600122814
581,3188.02294921875,-1183.944091796875,1155.2431440900434,220.23181329475517,1168.76416015625,313.1969355392332
582,3573.19970703125,-1185.0750732421875,1167.900387290569,224.23582668647344,1179.5806884765625,181.6837061878182
583,2976.52001953125,-1155.051513671875,1161.200540228226,224.58630067858888,1170.767822265625,216.4109720332754
584,3287.393798828125,-1152.6427001953125,1168.0009188988988,225.24267028363403,1178.44775390625,178.77781356579763
585,3629.029052734375,-1148.5140380859375,1152.5549236896177,221.00689370657392,1164.43505859375,296.8135771006812
586,3330.47216796875,-1178.1553955078125,1157.8987913317765,224.46416579557288,1166.7933349609375,186.40190627128644
587,3662.53955078125,-1204.07568359375,1174.8925462960358,224.9254166363829,1187.458984375,182.43570743319808
588,3310.357421875,-1184.1229248046875,1168.958586682674,227.16202786426663,1177.2457275390625,183.33736601964216
589,3567.25,-1156.1795654296875,1162.872734950126,224.27555000597303,1173.2464599609375,188.3341732729528
590,3514.340576171875,-1143.2735595703125,1154.0543526317501,220.69643207970518,1166.6973876953125,367.32131607406075
591,3587.3359375,-1169.51171875,1170.2596374438435,225.83133520347167,1180.535400390625,174.24147704885792
592,3445.4609375,-1182.8262939453125,1158.9054026005165,221.73491731745452,1171.463134765625,200.58440169621935
593,3234.0966796875,-1187.20947265625,1160.7914206999308,223.9875131922728,1171.0048828125,235.74300826853633
594,3160.92919921875,-1179.3509521484375,1167.0009340002775,225.88980419185174,1176.388916015625,191.10023570888077
595,3122.109619140625,-1146.7691650390625,1158.3430660222673,223.13737467276079,1169.007080078125,196.005892225526
596,3586.441162109375,-1144.532958984375,1164.062799136109,225.75540842241745,1172.88427734375,185.5800510654527
597,4232.162109375,-1140.7105712890625,1147.7475989115705,217.6575291884414,1162.6126708984375,418.03879544194956
598,3394.34912109375,-1185.26220703125,1168.984894950749,223.68398413217233,1181.6260986328125,195.0726803604716
599,3340.9833984375,-1180.500244140625,1156.1399281302404,220.16198858413196,1169.972412109375,371.3771089197073
600,3055.44140625,-1175.9906005859375,1162.6311150908475,223.307583367825,1174.1544189453125,187.8080690353181
601,2859.521728515625,-1149.2056884765625,1157.5995038900091,223.3357865962697,1167.82958984375,176.6649749816192
602,3524.962890625,-1141.1978759765625,1149.6460553929178,219.70994099825293,1162.420166015625,349.8839429249837
603,3555.412841796875,-1162.600830078125,1163.7628794505654,224.87752370977984,1173.606689453125,354.0119934765245
604,3247.5361328125,-1191.59375,1165.475538047182,222.7029167016619,1178.4658203125,229.43294094985637
605,3538.58251953125,-1190.232177734375,1157.213150418726,220.68830739351847,1170.6561279296875,309.43398705891605
606,4027.892578125,-1191.0081787109375,1167.9545212878984,223.28625887773444,1180.8353271484375,194.23722694007694
607,3403.99267578125,-1149.190185546875,1154.7973101452872,223.21940649309613,1164.472412109375,341.5684809991421
608,3633.607421875,-1156.723876953125,1167.2048662311217,225.51375409428087,1177.1138916015625,180.36644731211604
609,3721.97607421875,-1164.4072265625,1170.0884175511635,226.84527098858712,1179.053955078125,176.0553907207895
610,3413.658203125,-1188.7781982421875,1166.4550262707871,222.54800877753928,1179.8837890625,184.69125109241796
611,3286.966064453125,-1188.7872314453125,1159.3165784978105,222.2369430445863,1171.349609375,189.0757537501127
612,3438.799560546875,-1174.2825927734375,1156.4699699863822,221.6958150252732,1168.4677734375,203.0845567652699
613,3150.3681640625,-1175.5460205078125,1183.181204902231,229.42153884082936,1192.1995849609375,172.13805727286194
614,3336.221435546875,-1147.1654052734375,1154.4681570650607,217.34291682257947,1171.406494140625,210.4315097389962
615,3703.033203125,-1168.3524169921875,1171.4272192906249,225.75173959244373,1182.09423828125,182.23463290051112
616,2993.953125,-1188.8594970703125,1163.486461935373,224.19555541071463,1174.113525390625,181.8083638903404
617,3443.39599609375,-1190.1043701171875,1159.2121504270735,221.81030124065285,1171.7523193359375,196.09080587518602
618,3672.81591796875,-1177.069580078125,1156.926105440652,220.81973248819077,1170.1329345703125,230.28644603783408
619,3250.699951171875,-1161.6424560546875,1164.7217238275316,222.8043207494522,1177.396728515625,274.2194308986589
620,3246.977294921875,-1154.7952880859375,1163.8397058460819,222.27822174764748,1176.951904296875,193.65536726444807
621,4379.05322265625,-1164.8819580078125,1167.543380055492,222.72323466307415,1181.025146484375,189.84741026735838
622,3282.70947265625,-1180.75634765625,1161.5916885194297,222.724244576406,1173.5843505859375,223.58953234465355
623,3493.134521484375,-1195.57958984375,1171.8116787195145,225.78323168753977,1182.5355224609375,185.65316122921982
624,3736.022216796875,-1184.905029296875,1170.1364460086418,224.24686594959013,1182.3619384765625,184.8309287072287
625,3320.154296875,-1164.7139892578125,1173.034256856494,225.15444022899163,1184.8497314453125,179.63696205416875
626,3320.142578125,-1148.435546875,1161.3256731341041,222.97602933742172,1172.93701171875,185.0929312869839
627,3383.103759765625,-1157.9404296875,1165.4531534301736,227.04035245055925,1173.01611328125,185.5173007093767
628,2954.250244140625,-1194.7578125,1175.50589003039,226.4829673357069,1186.27880859375,306.2235367056273
629,3254.89599609375,-1192.893310546875,1168.2434470386577,226.20316722107646,1177.55029296875,276.62640392492375
630,3642.328125,-1191.5377197265625,1172.4036711624071,224.79776489047248,1184.50732421875,179.96260381168636
631,3198.302490234375,-1154.7308349609375,1157.5939104276197,219.68053562216912,1172.3917236328125,349.56273599634295
632,3402.4599609375,-1160.5531005859375,1169.9114357419344,223.88897163346724,1182.528076171875,186.69044534085114
633,3258.41259765625,-1165.8428955078125,1162.234325104826,222.86888059365072,1174.206787109375,185.43470999308715
634,3160.337158203125,-1191.710205078125,1167.3418633334431,223.60844525025226,1179.666748046875,178.81551190634653
635,3123.01953125,-1193.090087890625,1162.9604765527456,220.46462978651192,1178.1197509765625,190.50703003779196
636,3335.549560546875,-1180.400146484375,1164.6640478238705,225.88834615799215,1173.4696044921875,175.65898343856207
637,2736.483642578125,-1153.753662109375,1162.2941261861704,224.4579357717416,1172.295166015625,291.3628860441549
638,3606.86279296875,-1154.4571533203125,1168.2708657894873,222.76094366653186,1181.887451171875,182.51646872721471
639,3771.805419921875,-1159.4765625,1161.883856504604,219.37780186478767,1178.132568359375,185.67807808970102
640,3208.8291015625,-1179.104736328125,1161.6493099885129,221.88461100627399,1174.705810546875,190.05315988843245
641,3408.234375,-1185.57470703125,1160.6451555456263,222.29674665585563,1172.935546875,187.83620290227643
642,3029.978271484375,-1180.453125,1168.1773540851204,225.80502360877682,1177.96533203125,187.7422644033647
643,3211.71142578125,-1158.0576171875,1169.658960249218,226.08713853577038,1179.4647216796875,196.66368131805933
644,3470.743896484375,-1145.740478515625,1161.430337829002,221.70402314127307,1174.6578369140625,175.7436983286761
645,3368.27099609375,-1165.1580810546875,1168.405931746344,225.03802808461614,1179.2098388671875,189.9432659947362
646,3402.17236328125,-1184.51123046875,1161.9972374818235,223.41776735996316,1173.224365234375,195.30500780034558
647,3090.703369140625,-1194.0638427734375,1164.9929706765915,223.71885056035762,1176.5926513671875,190.4493384078116
648,3429.248779296875,-1182.6011962890625,1163.4768267908316,222.76992113973924,1175.883544921875,179.02701599709678
649,3215.998046875,-1171.1968994140625,1174.2208314047757,224.1498972998562,1187.588623046875,184.86396674176754
650,3137.505859375,-1148.23779296875,1160.8248467779276,220.82339949668602,1175.001708984375,193.34169122532688
651,3388.07373046875,-1156.9088134765625,1159.2215598221208,222.84427710727698,1170.4715576171875,181.3719095061708
652,2969.462158203125,-1183.778076171875,1164.3329162784771,223.94262518965746,1175.48779296875,288.00113692871406
653,3293.946533203125,-1192.12451171875,1164.6965317262386,223.27991562020526,1176.770751953125,200.25751237421542
654,3541.548095703125,-1168.597900390625,1151.9569625827726,222.20939622849767,1162.1844482421875,363.75780358928284
655,3171.4658203125,-1166.45361328125,1171.381167235807,226.6124790696653,1180.9609375,182.43201435850008
656,3440.305419921875,-1149.3240966796875,1161.4051091454553,225.10673647146675,1170.373046875,197.81173152978621
657,2967.076416015625,-1163.00732421875,1158.8295842240732,221.4643553327004,1171.70654296875,345.25363035441313
658,3362.5498046875,-1182.269775390625,1153.93384672828,219.4084711474923,1168.15673828125,196.89508048168787
659,3669.919677734375,-1197.248291015625,1168.2674735338042,224.51768508260938,1179.687255859375,199.17291596996785
660,3665.632080078125,-1193.6466064453125,1177.8548669957427,226.8777621411587,1188.721435546875,176.07971770777684
661,3668.493896484375,-1165.771240234375,1173.2343544498547,224.1469377056224,1186.3592529296875,180.20743202578487
662,3416.645263671875,-1151.0321044921875,1166.804153375083,223.27459159319966,1179.4119873046875,192.80763156179574
663,3647.40771484375,-1159.836669921875,1166.974829314214,221.18485116766098,1182.237548828125,191.55790761922472
664,3836.5439453125,-1168.2750244140625,1154.40623904007,219.7098382009795,1168.37060546875,326.878055501844
665,3021.839111328125,-1188.3143310546875,1168.3506150185372,223.63982707851173,1180.888427734375,186.0782358189003
666,3545.47802734375,-1178.0966796875,1167.7343070759398,224.18442571302464,1179.4373779296875,180.64678035985474
667,3245.20166015625,-1156.951416015625,1166.6602130872513,222.77193026368866,1179.8603515625,185.2868380593602
668,3627.845703125,-1152.2601318359375,1163.342070009026,221.27955471745418,1177.578125,197.86944105465807
669,3698.05224609375,-1170.017578125,1168.79759989064,224.34559996407262,1180.56494140625,288.7264533504918
670,2756.47216796875,-1201.2120361328125,1173.7428157010227,226.83338259841491,1183.63671875,176.7055883207608
671,4460.77734375,-1201.1209716796875,1162.779600136184,223.01846538057222,1174.701416015625,207.5899979898001
672,4318.13818359375,-1204.552978515625,1174.834451933727,226.72632259927704,1185.13525390625,191.2970406685099
673,4322.177734375,-1176.1041259765625,1162.8591196371576,220.90602719023414,1177.44140625,191.3580490857718
674,3281.653076171875,-1154.7855224609375,1162.700963951693,222.97888112221767,1174.652587890625,191.59131275607808
675,3302.9677734375,-1151.8441162109375,1158.3005304349217,220.9253721965107,1171.718994140625,252.4920122738441
676,3582.07080078125,-1182.1126708984375,1173.6406739447834,224.41296621305958,1186.5345458984375,191.53166174089617
677,3204.287353515625,-1193.921142578125,1171.9271668643933,224.39183531713306,1184.419189453125,207.4597660384384
678,2991.95458984375,-1187.912841796875,1174.8507047992102,227.8459319692007,1183.755859375,189.85506792007237
679,3626.942138671875,-1157.2366943359375,1157.7744493631465,221.00465087497656,1170.9622802734375,297.481483951552
680,3020.305908203125,-1164.5506591796875,1167.074550127504,223.1826649422622,1179.8648681640625,339.2845049490303
681,3537.59130859375,-1171.693359375,1162.563751174121,222.6772055160092,1174.858154296875,366.8707998711002
682,2974.62890625,-1186.4261474609375,1174.7065207141582,226.6270240563096,1185.099365234375,190.05899412034657
683,2827.577392578125,-1174.947265625,1170.8782806541844,225.1440216209814,1182.167724609375,179.62749150794988
684,3320.345458984375,-1170.968017578125,1160.7315475050655,221.90618486817118,1173.53173828125,196.32824257565338
685,2838.117431640625,-1195.33740234375,1175.4425792954921,227.29317388758642,1185.186767578125,181.52018652840252
686,3462.082275390625,-1194.7879638671875,1174.6413391470508,225.64816514249605,1186.241455078125,185.91075187235452
687,3639.16748046875,-1170.771240234375,1164.3032044469023,220.65140585886473,1179.5648193359375,198.2920745246159
688,3635.9521484375,-1150.0543212890625,1155.5593496726726,220.68675896393984,1168.5906982421875,338.37332676136447
689,3317.2724609375,-1158.1119384765625,1160.0660277866596,219.27006675236169,1175.994873046875,211.14599497979137
690,3030.08056640625,-1196.2584228515625,1179.893737631945,229.02250207057412,1188.589111328125,177.49080011480243
691,3722.44384765625,-1183.4874267578125,1163.2205507948495,220.62564044738778,1178.24365234375,198.3044929927431
692,3566.86474609375,-1177.7410888671875,1170.5854991078913,223.5062656760752,1183.8489990234375,187.45011618092497
693,3578.449951171875,-1162.116943359375,1159.393484819454,220.35146523765928,1173.802490234375,218.24849987428033
694,3959.839111328125,-1177.0140380859375,1164.8037975019674,221.10895358984288,1179.6185302734375,281.6981621671095
695,3295.21484375,-1173.769287109375,1166.3707598585283,221.5147451538241,1181.0699462890625,243.17581649484288
696,3157.90234375,-1180.4918212890625,1169.2278215385463,224.3518896437671,1181.094970703125,191.82476495560414
697,3340.6328125,-1173.6807861328125,1167.6755239100276,222.45813981006705,1181.521728515625,182.55808233082072
698,3475.302001953125,-1178.6568603515625,1171.4075694818516,223.64260115814395,1184.7061767578125,233.96554930299678
699,3617.8720703125,-1161.32177734375,1156.5205192366175,219.7368323171071,1170.9796142578125,195.25348748034097
700,3688.23388671875,-1181.0672607421875,1171.5599922159722,225.1716047981787,1182.985595703125,192.12613603291996
701,3579.6650390625,-1182.8255615234375,1172.930191614832,226.10416298171435,1183.532470703125,205.30360364082935
702,3316.44677734375,-1178.0390625,1175.3317549916264,226.76872641763666,1185.703857421875,181.8705903469796
703,3220.40087890625,-1174.0440673828125,1166.1951572137223,223.5858731644496,1178.26171875,202.64142249694297
704,3360.0263671875,-1173.0767822265625,1171.0825222935275,223.61905014177114,1184.329345703125,192.80183111323726
705,3765.685546875,-1171.90087890625,1165.6062441289425,222.29626869559286,1179.137451171875,189.8932739022384
706,2977.15771484375,-1187.41259765625,1167.6843597294785,222.78584243078006,1181.123046875,210.9010990256468
707,3697.45166015625,-1178.3924560546875,1159.1478978079942,220.41525205794858,1173.415771484375,289.1229201451152
708,3387.861328125,-1166.9395751953125,1165.4188589799808,222.31444020156124,1178.880615234375,201.46377146283805
709,3940.722412109375,-1166.6134033203125,1165.0005404796448,220.73180802427183,1180.3359375,201.47342846956016
710,3748.580810546875,-1161.346923828125,1149.8714725603782,216.5499648561202,1166.65185546875,261.57786417905345
711,3236.815673828125,-1173.8948974609375,1160.585936552164,221.15258553015877,1174.291748046875,201.11806865988365
712,3288.154296875,-1162.54541015625,1158.3931078274231,221.27421501469416,1171.398681640625,276.02729909787
713,3347.323974609375,-1172.6361083984375,1165.4264725757203,222.02877038246012,1179.2470703125,187.33147806623793
714,3272.111328125,-1175.674072265625,1160.7144507492471,223.62886927971113,1171.35693359375,207.48023952329763
715,3539.223388671875,-1165.08837890625,1153.6118984169684,220.64554733702747,1166.2080078125,311.7357250185611
716,3758.469970703125,-1173.385498046875,1175.2641351117259,224.08492355481448,1188.97412109375,197.89356373032328
717,3468.515380859375,-1170.771484375,1171.0133937682633,225.18309055228264,1182.2879638671875,181.5775377302059
718,3429.3193359375,-1181.283935546875,1162.9105520397313,221.71098629533137,1176.49951171875,178.14390723216684
719,3693.962890625,-1181.45556640625,1164.2316546769493,220.85541220024754,1179.22021484375,189.96129051556468
720,3194.652587890625,-1169.92041015625,1172.6100054555259,225.05802664688434,1184.43994140625,191.32735635447182
721,3656.134765625,-1174.4676513671875,1174.4288420173068,225.4024654837984,1186.282958984375,182.41417661283432
722,3735.981689453125,-1184.2430419921875,1168.4148082656952,220.60439027977912,1184.7630615234375,190.94271287469556
723,3382.56494140625,-1188.9407958984375,1176.2310366070471,226.56791156890017,1187.078857421875,186.918453853754
724,4599.30908203125,-1143.885009765625,1140.5539219895709,212.50930626786808,1160.055908203125,388.30845995383436
725,3253.472900390625,-1174.99169921875,1175.3681838343703,225.4567110995613,1187.389404296875,186.50402816009844
726,4291.77734375,-1181.7379150390625,1168.3093981531536,223.17622425827125,1181.41650390625,191.18373414665527
727,3581.912841796875,-1182.9268798828125,1167.1165984038178,222.20463627613222,1181.1400146484375,194.53179771550757
728,3545.9150390625,-1159.222900390625,1158.018909864801,219.7613827578005,1172.8218994140625,298.66575588570373
729,3468.34423828125,-1154.7950439453125,1157.455612135498,222.4738570218964,1168.7271728515625,344.19429938608533
730,3626.95458984375,-1185.197265625,1171.6268936687766,225.79600641072383,1182.28857421875,198.9810040130035
731,3342.317626953125,-1177.104248046875,1164.048759341416,224.32453238981674,1174.6552734375,183.7461211222728
732,4194.53173828125,-1172.8463134765625,1168.3485308922075,222.56222126848928,1182.2327880859375,191.89181977686331
733,3518.53955078125,-1157.7894287109375,1164.9830845225442,221.17501739150165,1179.760009765625,191.40358741899692
734,3954.907470703125,-1159.4940185546875,1165.558884020669,221.58123445115743,1179.9720458984375,209.57157565916154
735,3744.630859375,-1180.34716796875,1166.820459958903,222.35483629404692,1180.58203125,190.47707468808005
736,3617.304443359375,-1183.0924072265625,1162.3137880767401,221.87345204005797,1175.550537109375,369.2945773470536
737,5093.54443359375,-1188.189208984375,1168.5555618275944,220.30168831246522,1185.3173828125,205.69991068614263
738,4124.2958984375,-1166.6793212890625,1168.2728756382712,223.10370740439964,1181.46142578125,191.19026829219447
739,3263.468017578125,-1167.3006591796875,1170.9782691460823,223.31110591709367,1184.583984375,177.72657844898401
740,3493.3798828125,-1175.2930908203125,1161.5554191148005,220.88800130245306,1175.834228515625,182.92084338397572
741,3323.627685546875,-1178.2508544921875,1165.5721500107056,219.68484256947096,1182.359130859375,199.8592899431774
742,3353.3505859375,-1171.36572265625,1170.5152087904614,222.73587695137672,1184.72412109375,188.9701325045574
743,3364.034423828125,-1161.65380859375,1154.8648138992714,217.63470877634762,1171.53759765625,197.69616068525988
744,3345.008544921875,-1180.85302734375,1161.2361377821114,219.97646624602342,1176.57470703125,205.849110633399
745,3507.0078125,-1184.307373046875,1171.3296657788487,224.68697116253082,1183.303466796875,195.8705569437158
746,3225.743896484375,-1180.4061279296875,1182.7653161766352,226.74588992617737,1195.024169921875,188.6111361566709
747,3683.79541015625,-1158.5216064453125,1160.5086947334594,221.31271773107724,1173.9949951171875,351.59543382317094
748,3810.7119140625,-1167.947265625,1154.8108728868065,217.48783838573058,1171.65380859375,190.03704471580625
749,3118.821533203125,-1193.50390625,1180.290270879748,227.9581944017434,1190.4150390625,201.01753254990237
750,3921.985107421875,-1161.7335205078125,1153.223405850557,220.69387816253035,1165.661865234375,314.8911855367737
751,3372.05126953125,-1172.6634521484375,1165.940970565073,223.17306139587575,1178.4599609375,189.80264274854426
752,3328.428466796875,-1164.8228759765625,1151.6181449836133,219.4230715220807,1165.2437744140625,373.8929324469974
753,3630.782958984375,-1178.8426513671875,1170.7322693220926,221.20218474786986,1186.91259765625,283.0197853900617
754,3339.652587890625,-1161.0906982421875,1159.3307962308022,221.0538356671426,1172.84619140625,205.80027402806292
755,3384.658203125,-1181.607666015625,1171.0363352862114,221.49190245540092,1186.930419921875,191.50450871446523
756,3556.490966796875,-1168.121826171875,1158.6334918743073,219.10514957365405,1174.410400390625,272.81812681500355
757,3047.9658203125,-1164.3365478515625,1162.162690489346,219.73034757857945,1178.04052734375,314.34003955306605
758,4004.7578125,-1181.8597412109375,1175.3564640704099,226.17629172238725,1186.47509765625,183.3165248174636
759,4046.7705078125,-1159.278564453125,1152.3438217471999,217.49541085471333,1168.560546875,373.9939155113789
760,3461.02294921875,-1181.404052734375,1170.1128037035016,220.97087724800392,1186.4273681640625,286.9104173738262
761,3304.253662109375,-1179.1917724609375,1173.8780208918079,224.36936906304186,1186.8857421875,189.45774336193512
762,2956.698486328125,-1180.4893798828125,1168.7148894209113,223.97689145986686,1180.922607421875,279.01741287173724
763,3381.112060546875,-1181.5172119140625,1172.252181859189,225.20299004452784,1183.8115234375,194.62923168465983
764,3678.02685546875,-1164.609375,1156.6608160015367,220.16673810446477,1170.6175537109375,367.54431982081593
765,3232.34033203125,-1168.5013427734375,1163.4376720245516,221.88174609165247,1176.94482421875,194.3966420477936
766,3609.2958984375,-1179.419189453125,1170.7048649997068,223.83197650616873,1183.5911865234375,203.22702251047315
767,3615.821533203125,-1177.52734375,1159.1100441404046,219.83443934399486,1174.094482421875,282.1694094518073
768,4025.97802734375,-1188.126708984375,1170.9847119861076,221.40938306383595,1186.96923828125,187.6816074523277
769,3878.22998046875,-1157.39208984375,1162.2992115911204,220.50280870759076,1177.24560546875,192.11465848490337
770,3695.228271484375,-1155.7587890625,1162.466153303049,221.8564692648867,1175.7620849609375,310.9642075338539
771,3913.3603515625,-1177.46875,1168.7337859309396,221.7946181214533,1183.6739501953125,195.63556068553132
772,3484.447265625,-1186.814697265625,1165.5256773517008,221.40363160823523,1180.152587890625,210.11839969806095
773,4242.89794921875,-1180.9598388671875,1164.2381008511263,223.24866834337283,1176.23681640625,199.8785479188643
774,4057.05517578125,-1158.3599853515625,1158.8124395689738,223.62088144633867,1168.989501953125,375.38421554492237
775,3742.459716796875,-1166.6624755859375,1163.6504323847896,221.97823178845698,1177.09033203125,194.21132338657029
776,4158.13671875,-1171.17578125,1157.5550322554818,219.7806846640817,1172.218017578125,295.6100908937951
777,3320.222412109375,-1175.6641845703125,1166.0568561804052,220.9231501233337,1181.417236328125,192.9888711585996
778,3957.068603515625,-1181.80810546875,1167.2883652325086,222.5907277460506,1180.8720703125,194.9941083661605
779,3449.636962890625,-1164.7176513671875,1159.6943599544747,221.14366882669773,1173.188232421875,249.0010818137736
780,2928.51025390625,-1176.657470703125,1166.1381749549637,223.47702004106142,1178.326416015625,185.6158164711942
781,3597.904296875,-1174.6256103515625,1169.6896041675427,221.8882690473417,1184.751708984375,212.27440588117875
782,3277.99365234375,-1175.03857421875,1164.3893300632656,221.9436967472255,1178.05712890625,183.60199653403393
783,3134.0341796875,-1183.559326171875,1171.5646772503762,223.36538101433794,1185.2491455078125,182.13359416355578
784,4248.17724609375,-1165.2322998046875,1160.7637363755325,219.54415453310986,1176.5245361328125,312.77773841045405
785,3319.453857421875,-1182.3033447265625,1172.8364767531975,221.98820752903055,1188.560302734375,195.77580566649422
786,3517.45556640625,-1166.0877685546875,1150.6470180808958,218.03696005935046,1165.7625732421875,351.6395968203538
787,3560.75048828125,-1177.025390625,1166.4326668697859,221.532813497212,1181.124755859375,335.40921304366134
788,3240.520751953125,-1170.2489013671875,1163.3390259182927,222.41502269868812,1176.155029296875,182.89329234571574
789,3725.04931640625,-1177.3966064453125,1175.1981183208586,221.9777504362225,1191.5255126953125,181.23337994601636
790,3063.50048828125,-1168.5135498046875,1163.6121321099058,222.23634272387167,1176.7197265625,199.26408411990343
791,3230.240234375,-1189.1517333984375,1167.0856431383972,224.08885053585806,1178.7459716796875,188.5779660553281
792,3995.75390625,-1192.0472412109375,1167.4360145574326,221.7470793729538,1182.111083984375,339.43469579327115
793,3791.45458984375,-1168.720703125,1157.2858465777763,220.44029160608108,1171.056884765625,200.09322545457232
794,3737.0693359375,-1138.163330078125,1147.849029699148,216.0610018880978,1164.735107421875,203.46676323182172
795,4380.01611328125,-1139.033935546875,1158.0355766108735,218.50825357348754,1174.4091796875,211.90142018763495
796,4353.9873046875,-1152.8004150390625,1163.568091758552,222.27224939710186,1176.6197509765625,182.77817130486198
797,4195.25,-1178.2384033203125,1162.081855393556,221.87917814364766,1175.25341796875,283.3358755314595
798,3297.2509765625,-1185.4178466796875,1162.0840789007239,221.14591271153,1176.1727294921875,211.1066201257911
799,3362.091796875,-1181.801513671875,1169.6050272960028,224.6191798317989,1181.2322998046875,190.1830743355793
800,4802.85400390625,-1145.0264892578125,1144.9716416134975,217.3011610760831,1159.588134765625,377.44086214237177
801,3201.2177734375,-1157.0875244140625,1161.9150627972303,221.1001713307321,1176.0185546875,200.649600869726
802,3549.052734375,-1185.16943359375,1173.2614537112627,224.18331035303197,1186.34765625,192.62222863418828
803,4044.494140625,-1165.93505859375,1153.148570935054,216.69087561778565,1170.5721435546875,290.2068739270874
804,3398.9638671875,-1170.6710205078125,1170.8737200943544,222.59190247932221,1185.352294921875,193.08617530250817
805,3405.71630859375,-1161.9814453125,1160.742049627349,219.61835229878125,1176.4046630859375,193.09165872776722
806,3315.98095703125,-1182.6827392578125,1162.7213109183685,220.61167704347525,1177.6370849609375,307.608413439854
807,3837.99365234375,-1179.5006103515625,1160.0804962643033,221.72929105838568,1172.93896484375,211.02445506851345
808,3544.52294921875,-1173.572265625,1166.4310536798275,223.11699464881775,1179.142578125,198.5063304128544
809,3724.71923828125,-1166.96630859375,1165.6027822917122,221.30166801864095,1180.3763427734375,202.09979019304615
810,3578.22265625,-1183.6834716796875,1171.220210449002,222.10653706004388,1186.39208984375,203.55977669995343
811,3147.044921875,-1171.3388671875,1162.3779916879585,222.40757620305303,1174.9630126953125,196.87568064189227
812,3624.186279296875,-1169.173828125,1169.8015360773074,222.26473183040477,1184.4208984375,194.60192338212013
813,3162.177001953125,-1179.630615234375,1176.1401432791922,224.94542403018204,1188.993408203125,190.80400111389886
814,4064.03271484375,-1184.6353759765625,1174.5620351329137,222.7499606623935,1189.76513671875,194.0657823277363
815,3957.13818359375,-1164.6199951171875,1156.1395054704296,217.30520745578883,1173.54296875,337.85190564393804
816,3916.6357421875,-1179.8172607421875,1173.90695696754,222.6772203056291,1189.037109375,182.47720982390544
817,3354.078369140625,-1195.772216796875,1181.5800446544968,226.34219386924116,1194.04736328125,194.44461120357403
818,3480.02392578125,-1177.7457275390625,1164.2311815864455,219.815945780934,1180.51904296875,293.8051437034815
819,3641.538818359375,-1163.564453125,1164.9417013635837,221.03375446703058,1179.8848876953125,254.0060956726554
820,4402.72265625,-1149.336669921875,1151.43432449618,215.88223377981794,1169.440185546875,396.9915883537627
821,4140.9521484375,-1173.48095703125,1162.844418237543,219.46645948681825,1179.222412109375,194.59964587311455
822,3317.963623046875,-1193.6107177734375,1174.7533314812506,224.30117069366815,1188.065185546875,189.4167844122109
823,3517.332763671875,-1184.9818115234375,1168.7570827116429,220.7898460497316,1184.958984375,198.6937039897424
824,3463.459716796875,-1163.9815673828125,1169.6398027062924,222.85775111918755,1183.4775390625,194.60336830157078
825,3414.1611328125,-1161.7674560546875,1171.4077175616026,224.71361675250506,1183.36767578125,178.04394721031366
826,3918.602294921875,-1166.8157958984375,1162.138495554147,223.18519823711904,1173.691650390625,211.9617064933293
827,3740.632080078125,-1194.0977783203125,1167.8830409110196,221.25270405417757,1183.287841796875,185.7511618818097
828,3935.1650390625,-1191.171875,1161.6018408098807,218.28497202783723,1179.14599609375,191.323989890335
829,4381.88818359375,-1178.97900390625,1166.134600919117,220.01306368671771,1182.65185546875,196.97365367580255
830,4079.465576171875,-1146.5501708984375,1156.9210709249458,217.9111297165831,1173.762451171875,193.67988460617119
831,4297.73388671875,-1130.9295654296875,1153.416745867123,218.34622510849388,1168.838134765625,355.3757607023318
832,4459.05419921875,-1161.7281494140625,1172.7025167219053,223.00264606398443,1187.1248779296875,202.77859217141057
833,4100.4345703125,-1172.974853515625,1163.0067098581849,220.3858715021668,1178.276123046875,199.33917881990564
834,3609.97216796875,-1180.6240234375,1156.0165651999037,217.42084329944038,1173.24462890625,202.10456607275344
835,3520.224853515625,-1177.9964599609375,1162.2357838028704,220.65242930591455,1176.979248046875,210.8264898102351
836,3576.485595703125,-1155.4556884765625,1155.5548916673142,217.6466202592332,1172.3853759765625,212.59372781373568
837,3346.998046875,-1163.0592041015625,1167.9150909938767,222.95875022792364,1181.1953125,196.71059912439307
838,3752.15283203125,-1175.0009765625,1164.6348682513421,221.722832547683,1178.64013671875,292.83777571164904
839,3132.28759765625,-1181.6697998046875,1167.8722073398162,221.4277134261656,1183.0556640625,185.27658073047272
840,3326.025390625,-1156.5760498046875,1152.8380858872263,219.23665051201255,1167.0018310546875,355.4844567369766
841,3417.116943359375,-1182.7760009765625,1172.833734830095,223.4610149461763,1186.7158203125,202.36099557849536
842,3015.56787109375,-1180.8280029296875,1163.5458962861198,222.73946184550684,1176.008056640625,316.350607060342
843,3063.408935546875,-1180.302734375,1171.1181599205029,226.36091839425686,1180.946533203125,197.97653053206935
844,3604.190673828125,-1142.6910400390625,1144.1556642985433,213.90859793187087,1162.808837890625,428.66551258234813
845,3899.604736328125,-1158.6612548828125,1160.5851112545774,219.41331064117406,1176.46484375,185.77878681970432
846,3536.52587890625,-1170.8780517578125,1160.7239318774014,221.0881190703181,1174.544677734375,191.67529354056276
847,3353.29052734375,-1179.0498046875,1162.6505314240908,221.5985899816013,1176.31494140625,186.61587053805698
848,3387.855224609375,-1181.961181640625,1176.1355402092217,224.16930333476063,1189.957763671875,198.2814711896009
849,3323.937255859375,-1171.2415771484375,1162.0824960899076,221.46510707852454,1175.771728515625,192.27298076185483
850,3711.53125,-1185.72802734375,1166.5319116548949,221.63821762961686,1181.1170654296875,213.81441432077855
851,3456.94140625,-1179.240234375,1168.2392266774941,222.39091429956443,1182.3104248046875,192.3397289365058
852,3657.00634765625,-1154.057373046875,1157.594089572196,220.03202168202867,1171.9525146484375,313.8447040460626
853,3410.58056640625,-1168.5460205078125,1166.5175244935513,220.77478969178202,1182.178466796875,197.1103754463321
854,3489.58837890625,-1175.2913818359375,1161.466688329361,221.13869536557,1175.409912109375,190.34990332254122
855,3819.79150390625,-1164.0638427734375,1145.7055606004376,214.07166887489745,1164.5423583984375,288.2061389104138
856,3343.31591796875,-1171.1424560546875,1171.310359299269,224.963400423613,1182.9337158203125,186.45970822360414
857,3234.491943359375,-1173.3306884765625,1167.4754652123588,222.73441558886927,1180.9263916015625,194.56147507983238
858,3398.320556640625,-1183.5330810546875,1165.9998690641833,221.3446289933633,1180.819091796875,196.32531443872404
859,3860.94775390625,-1155.8299560546875,1144.867680351186,216.32363262598534,1160.6800537109375,309.2474267147557
860,3241.116455078125,-1170.279296875,1169.598072269667,224.01495983909433,1181.978759765625,183.40734537420903
861,3388.392822265625,-1176.149658203125,1169.7170876110313,224.21154664404372,1181.8818359375,202.55019139466378
862,3258.353515625,-1152.225830078125,1145.4454270165186,216.3068757336358,1161.423095703125,546.3302866295777
863,3393.40576171875,-1177.0445556640625,1163.164017767716,221.50360838871052,1177.075439453125,196.24799718328038
864,3547.946044921875,-1173.248779296875,1166.0610576282747,222.1254700075396,1179.91943359375,197.2755407971098
865,3875.351318359375,-1155.3079833984375,1153.1575214147977,219.96068756584427,1166.49609375,368.19318138240146
866,3595.50048828125,-1164.722900390625,1155.6229510486687,219.01437329655542,1170.7607421875,203.6540905378293
867,3792.609375,-1168.96923828125,1157.734017474739,217.98522375801016,1174.68603515625,268.9268995785663
868,3600.8330078125,-1183.9443359375,1170.5018226394031,224.69067024528727,1182.263916015625,203.1158747157438
869,3592.692626953125,-1182.6778564453125,1172.3174416213785,222.79744545812957,1186.9000244140625,193.51057238792382
870,3986.886474609375,-1148.542236328125,1152.015035434364,217.06244517221927,1168.6907958984375,361.8700970637697
871,3381.333251953125,-1158.0537109375,1159.6281956325734,221.83807346406206,1172.2376708984375,200.5316145296643
872,3732.98974609375,-1192.5849609375,1176.7091102002948,224.99081345450276,1189.6478271484375,209.50366121253356
873,3961.968017578125,-1171.00390625,1151.603317447469,217.62341255740853,1167.474853515625,210.33704820051548
874,3568.72314453125,-1175.6708984375,1172.6789472988946,224.9211002997263,1184.697265625,186.25495753239443
875,3465.877685546875,-1161.9173583984375,1158.328761753307,219.94259859012192,1172.982666015625,378.6172395964036
876,3242.490234375,-1183.7203369140625,1168.0079006335468,223.57092017147258,1180.546142578125,308.4977795595742
877,3416.086181640625,-1182.8212890625,1168.1352813130404,221.9960483199144,1182.674072265625,196.76795870380099
878,4233.23974609375,-1155.1270751953125,1157.5120905747385,219.6984720578165,1172.26708984375,195.5584604931369
879,3473.3232421875,-1154.021240234375,1160.731401793432,219.6139748138902,1176.3968505859375,200.5172891796488
880,3654.144287109375,-1167.1868896484375,1152.3964757794229,216.72219959438735,1169.5927734375,330.1155236920977
881,4297.94873046875,-1180.1317138671875,1168.2857806767506,223.21930676355782,1181.3330078125,198.22813793449225
