Wnight963/UAV_optim/maddpg-master/experiments/learning_curves/exp_4/agent_2_traj.csv
,q_loss,p_loss,target_q,rew,target_q_next,target_q_std
0,304018.875,6.448370933532715,-356.2137707845292,-356.230017236767,0.02030806615948677,421.37850163976697
1,279713.65625,13.129899024963379,-333.4108981915275,-333.38758818923543,-0.0291375033557415,419.0637258560136
2,286184.09375,24.494354248046875,-348.3742301337364,-348.33054580833004,-0.054605402052402496,425.5580429791716
3,266899.03125,38.956703186035156,-345.74333319177583,-345.65885358554044,-0.10559950768947601,418.49558237015225
4,247554.578125,59.763267517089844,-349.8624191900483,-349.75753886416624,-0.13110040128231049,411.94873100504395
5,241919.328125,88.33732604980469,-364.9513291156387,-364.76784472989107,-0.22935548424720764,423.645075410001
6,202170.28125,120.78496551513672,-344.6854043557621,-344.48768330136306,-0.24715131521224976,420.99428899230725
7,170226.171875,167.91041564941406,-353.62363649423355,-353.3459921035796,-0.34705546498298645,415.88562082057916
8,150585.1875,221.1084747314453,-363.6522239170598,-363.3271047914179,-0.4063988924026489,431.9173421475828
9,109853.8203125,275.5402526855469,-340.65173058840526,-340.2372396666612,-0.5181136131286621,418.92076532810796
10,85585.7109375,356.18963623046875,-368.9728299254254,-368.47203755980485,-0.6259904503822327,421.00164310043624
11,64303.1640625,438.3819580078125,-354.4417476389492,-353.83724336796666,-0.755630373954773,416.18485760804674
12,67455.25,517.793212890625,-384.43329389003014,-383.692956451594,-0.9254217743873596,428.6224815531658
13,94138.9375,558.1845703125,-391.35745866550087,-390.46207563475434,-1.1192288398742676,438.75365202852447
14,105373.8671875,567.6932983398438,-368.55974487581057,-367.55972840932463,-1.2500205039978027,428.63734829706436
15,122885.5078125,580.9375610351562,-357.5488231362733,-356.3546540499216,-1.4927113056182861,418.9141174669601
16,110437.8125,539.7615356445312,-343.4897169967508,-342.18257055181084,-1.6339330673217773,420.6429263914152
17,115512.59375,551.7761840820312,-378.99745851906687,-377.38675757887745,-2.013376235961914,429.96246850998944
18,101900.53125,498.5847473144531,-367.05464251786145,-365.2704210591899,-2.2302768230438232,429.55002748866195
19,85455.109375,454.4495544433594,-365.9436710231435,-363.9239917777238,-2.524599075317383,427.93522679668723
20,76635.828125,392.1698913574219,-341.28284473517147,-339.10187353154777,-2.7262139320373535,434.46794425960053
21,60572.48046875,363.77789306640625,-357.66605795583644,-355.11985398194133,-3.1827549934387207,424.2028090670534
22,60039.9453125,333.5270080566406,-357.6445526648471,-354.790696655282,-3.5673201084136963,438.6868674756221
23,58949.90625,318.9827880859375,-372.8152284598731,-369.60095524548626,-4.017841339111328,421.1909033297456
24,65148.4765625,314.77642822265625,-369.0428997455142,-365.54570708259627,-4.371490478515625,437.2176451539467
25,65399.69140625,311.7138671875,-356.81848335282666,-353.0765311869003,-4.677440166473389,448.8145108463301
26,58950.9921875,324.2057800292969,-353.51028877735996,-349.4279775408203,-5.102889060974121,435.8406789976105
27,56585.703125,345.482666015625,-366.43678535196005,-361.9749581215066,-5.57728385925293,438.32219104920057
28,57862.05078125,372.5931396484375,-371.5439486026055,-366.77439052732564,-5.961947441101074,435.90499323538046
29,52351.06640625,404.17578125,-368.41096265876763,-363.1701097173346,-6.5510663986206055,441.0806520124983
30,56044.77734375,433.6419982910156,-376.2101441648366,-370.50918981349525,-7.126193046569824,439.90739730243286
31,55172.9765625,420.7454528808594,-362.3867553045116,-356.3389688294455,-7.5597333908081055,430.62967196525256
32,60104.1875,419.636474609375,-357.27908643190517,-350.7103535697539,-8.210916519165039,450.90466022768317
33,58642.5,435.43402099609375,-393.34677878413635,-385.747372443162,-9.499258041381836,440.5434137364204
34,53885.29296875,389.87811279296875,-369.95928394762007,-362.10189363920506,-9.821738243103027,446.16547549231717
35,56698.3125,376.92596435546875,-407.2339999731778,-398.70084472304757,-10.666443824768066,446.5963810907232
36,50254.73828125,354.7347717285156,-395.317153527386,-386.4565106732325,-11.075803756713867,458.8715050570901
37,60360.3828125,323.59637451171875,-356.74199667122457,-347.8775528396015,-11.080554962158203,435.29721142796586
38,55611.78515625,362.9590148925781,-394.9223314665692,-384.8039755873466,-12.647945404052734,436.07585830340605
39,55360.8671875,373.2854309082031,-381.95436438242575,-371.5236231364859,-13.03842544555664,456.4169125473226
40,59297.96875,399.6385498046875,-403.7213177359174,-392.32200929861347,-14.249135971069336,450.94367966384317
41,49643.1328125,394.4556884765625,-382.46542527054885,-370.6347226763468,-14.788378715515137,448.2496132405714
42,55457.1640625,387.09716796875,-377.4190331422291,-365.2272311977959,-15.239752769470215,446.831944421035
43,57078.96875,383.2476501464844,-383.5358921869716,-370.34019643348864,-16.494619369506836,450.32968431305613
44,50832.3984375,357.84271240234375,-363.4233763705731,-350.3408704674042,-16.353132247924805,453.0744382267994
45,57639.8515625,384.5928649902344,-396.2561071837104,-381.6810094557369,-18.2188720703125,453.47861615327497
46,54351.85546875,393.2970886230469,-410.49347502826384,-394.47567201864115,-20.022253036499023,458.2806070744591
47,55949.63671875,371.25946044921875,-395.23281024444395,-379.32911341598617,-19.879621505737305,453.16349914037266
48,52318.96875,399.555419921875,-404.30454887698033,-387.0873829971421,-21.52145767211914,465.6940037710522
49,58071.96484375,399.5637512207031,-408.54904241984025,-390.43896609319324,-22.637596130371094,457.0521219822359
50,54723.35546875,416.636962890625,-434.9087393872814,-415.39779441429084,-24.388681411743164,474.74259990027224
51,54079.43359375,412.20745849609375,-419.50775672080795,-399.36034271103426,-25.184267044067383,473.0115192195513
52,49840.73046875,416.93939208984375,-436.8390516532388,-415.3106332450763,-26.910524368286133,455.72321391483933
53,49430.63671875,386.5442199707031,-394.3547468166015,-373.27513597321837,-26.34951400756836,466.36197928044913
54,51805.578125,414.9672546386719,-424.8945613672437,-402.22640305608843,-28.33519744873047,468.23559599486646
55,49648.86328125,392.5247802734375,-391.4895215707361,-368.69686544220855,-28.490821838378906,464.5304131484113
56,51625.37109375,410.2293701171875,-420.3354280090199,-395.55047674817104,-30.981189727783203,472.95813418542826
57,49208.9765625,371.97650146484375,-391.8161641245942,-367.97720353903145,-29.798702239990234,464.9451570174497
58,48526.69921875,392.70233154296875,-418.1385012015676,-391.77817450178895,-32.950408935546875,478.08560548175757
59,54664.7890625,401.8433532714844,-435.8176807795661,-407.67705891413016,-35.175777435302734,482.0786806007734
60,44244.75390625,386.4457702636719,-399.3453740194601,-372.51441339839226,-33.53870391845703,464.12709708662777
61,49098.671875,429.4735412597656,-442.802479983603,-411.5757549182586,-39.03340530395508,463.3080839496938
62,50094.48828125,392.84088134765625,-419.2487508070344,-388.924776162601,-37.90496826171875,467.1249368171252
63,48144.8828125,378.0545959472656,-407.7016094429905,-377.5584398284284,-37.67896270751953,467.1633405172063
64,46530.65234375,389.20361328125,-430.36837054716125,-396.65635440425353,-42.14002227783203,480.6225159934665
65,47434.921875,373.2118835449219,-421.13448716312803,-387.8016457411965,-41.666053771972656,477.9488072861817
66,44357.1875,379.23004150390625,-428.97998183454683,-394.27120177821257,-43.3859748840332,461.6275940714293
67,51971.44921875,439.0498046875,-475.6403642977448,-436.8543940955458,-48.48246383666992,487.98262304230633
68,40953.71875,382.3383483886719,-397.1585433635414,-362.74717490300725,-43.01421356201172,473.2803914392643
69,47997.859375,416.9881286621094,-426.64149683110077,-388.08880612780695,-48.19086456298828,481.2417098203227
70,44031.70703125,411.0289306640625,-430.57974592547913,-391.246719618592,-49.166282653808594,492.4149711356714
71,46176.84765625,405.519287109375,-449.53389955778454,-407.5758198686604,-52.447601318359375,491.6097168649766
72,49551.0703125,406.55145263671875,-452.0269685490724,-409.1193594411101,-53.63451385498047,485.33248900025205
73,43419.5,386.3205871582031,-421.9291695259654,-379.6145642529675,-52.89325714111328,481.804691150901
74,45340.55859375,410.9243469238281,-442.2245229782188,-397.50738410478226,-55.89642333984375,492.78987505568205
75,51114.28515625,410.6177673339844,-443.9200059719335,-399.1918150714084,-55.910240173339844,482.6466061056485
76,45408.90234375,392.40826416015625,-431.8291196753877,-386.4346154021414,-56.74312973022461,490.5107611553765
77,44053.86328125,406.22467041015625,-430.84449824645674,-381.90151687856087,-61.17872619628906,488.1800951737846
78,41343.6015625,382.4918212890625,-425.82077092960753,-376.9901699256145,-61.03825378417969,485.1666828088784
79,39270.00390625,397.66162109375,-445.4166574299941,-393.60013043376614,-64.7706527709961,492.6972630313285
80,48605.45703125,436.9035339355469,-485.60964656873114,-431.1661161006006,-68.05441284179688,508.28848153712755
81,42806.89453125,438.9341735839844,-464.38302317895136,-410.2415975729832,-67.6767807006836,484.7304034095632
82,41811.3203125,456.4828186035156,-469.7277176456025,-413.17333983515505,-70.6929702758789,502.1170462027275
83,40769.45703125,435.7646789550781,-451.2782805031204,-395.7962864489916,-69.35249328613281,511.6295769276692
84,44514.98828125,427.3518981933594,-459.5179398485781,-401.1313680768335,-72.98321533203125,498.724802842942
85,40383.38671875,403.1785888671875,-453.7050768225246,-395.5452475188092,-72.69978332519531,503.65998791171984
86,50748.265625,380.7564392089844,-442.65953215645936,-384.7032478728339,-72.44535827636719,517.2708679162797
87,43164.19140625,422.3519592285156,-468.13099343622946,-404.3877387031205,-79.67906951904297,504.3670813215127
88,38625.2578125,455.7158203125,-489.6663565847775,-423.05484221591456,-83.26438903808594,509.0789514091813
89,43673.26953125,455.41094970703125,-467.59160231961533,-402.36736287718185,-81.5302963256836,497.46565256701547
90,40723.17578125,457.69677734375,-464.91105217406135,-399.50146750082337,-81.76197814941406,522.7870307585388
91,38342.53515625,448.5185852050781,-453.0391605907082,-387.190662044702,-82.31062316894531,498.93904390758127
92,41382.74609375,445.2881164550781,-463.24136966541596,-395.30572720938545,-84.9195556640625,513.7183198860504
93,39413.375,464.0799255371094,-494.83487743195997,-418.9488490560294,-94.85753631591797,506.75995652604195
94,37599.84765625,430.5266418457031,-477.2754832461151,-402.1884664875158,-93.8587646484375,518.3698654766389
95,37581.8984375,428.3367004394531,-486.72555455824613,-410.21223479535684,-95.64165496826172,509.6633552621782
96,42178.68359375,437.94488525390625,-488.63896106245386,-411.7730591247805,-96.0823745727539,525.3778503382517
97,38259.8046875,476.05377197265625,-500.8177743979189,-420.22259468897073,-100.74397277832031,527.2778150122314
98,39653.5546875,504.6711120605469,-514.626601987706,-429.7490492817377,-106.09693908691406,531.2470591274201
99,39411.2265625,477.4438171386719,-487.27406848579886,-406.2422854351276,-101.28973388671875,536.9927717189585
100,38029.70703125,521.2470703125,-534.8211472599683,-445.47374500619804,-111.68425750732422,526.1096296695727
101,36036.18359375,444.0452575683594,-472.800195395873,-392.27869630267594,-100.6518783569336,511.7871418716225
102,36850.04296875,441.82080078125,-486.4095060630809,-401.7161652808942,-105.86666870117188,523.9880447828996
103,41389.671875,443.74658203125,-485.7522535299364,-398.31837047598725,-109.29235076904297,541.9592641607256
104,35367.47265625,452.3338928222656,-484.5805952769326,-393.49867611673255,-113.85240173339844,527.4137196324161
105,34688.9921875,488.0098571777344,-520.5231948339092,-424.98489829008486,-119.42286682128906,543.3885022053703
106,38813.3515625,497.7496643066406,-514.4746764213871,-417.7699119388219,-120.88095092773438,546.3264987023981
107,33304.515625,479.279541015625,-501.71653471538616,-405.221795955855,-120.61842346191406,550.2323352197128
108,40529.3828125,465.36224365234375,-503.5249534030089,-405.5526301700382,-122.46540832519531,539.6235706094618
109,35490.25,450.4438171386719,-497.1657425655185,-398.9478344733378,-122.77238464355469,555.4426893096229
110,37595.8046875,478.0336608886719,-510.5770322541481,-409.42841062971934,-126.43577575683594,544.5048820917007
111,34500.4296875,470.21966552734375,-498.68403777777087,-397.1713434913905,-126.890869140625,551.0875214470814
112,34576.7734375,489.4079895019531,-525.3643709385805,-417.2192590592466,-135.181396484375,544.7116308446759
113,34082.8046875,477.97076416015625,-513.778583069168,-407.7606457475679,-132.52243041992188,541.0650013812648
114,33652.0390625,475.1920471191406,-494.36139301014396,-390.09560055452664,-130.33224487304688,524.8550750917422
115,33162.34375,495.1794738769531,-517.5331192972154,-408.165340742191,-136.709716796875,553.4597969336818
116,34771.2578125,496.7259826660156,-518.6286256360795,-405.6913237646603,-141.171630859375,548.8571872173119
117,33468.09375,448.8937683105469,-489.8228113717532,-383.09882733776624,-133.4049835205078,547.7284724193478
118,38572.79296875,477.6769714355469,-524.055416071591,-410.2957687661475,-142.19956970214844,558.7783900497598
119,39374.4765625,481.53564453125,-509.4216291084706,-397.5806369272696,-139.80123901367188,549.9645317273823
120,31348.3671875,514.99755859375,-536.9899965618033,-414.592656728357,-152.99667358398438,563.3646533742891
121,37239.77734375,463.8491516113281,-500.3498101036224,-384.9146060640152,-144.29400634765625,537.5400765416155
122,38934.10546875,514.8204956054688,-555.0711119170344,-426.8242687772537,-160.30856323242188,573.1433643990129
123,32834.89453125,473.92889404296875,-504.9665598609231,-385.7377570170597,-149.0360107421875,558.7269244768818
124,37683.140625,530.6316528320312,-557.0644330136299,-426.69006498952467,-162.96795654296875,573.8236375125125
125,31367.63671875,517.150390625,-550.7582726795259,-420.3054639662183,-163.06600952148438,560.5833968614712
126,34218.515625,482.81842041015625,-522.6399370489214,-394.6535872582035,-159.98294067382812,582.7146807904174
127,41470.5546875,482.4751892089844,-522.7834871143009,-395.42755614010605,-159.19491577148438,565.02364302072
128,32652.416015625,485.49505615234375,-514.0875088170433,-383.5120049676886,-163.21939086914062,563.9720644335932
129,35354.51953125,535.8494873046875,-564.4763664350379,-424.35824392902435,-175.14764404296875,589.0104330280427
130,31512.72265625,518.9091796875,-539.278412020614,-403.87113972272505,-169.25909423828125,577.7603959251805
131,34329.62109375,554.7899780273438,-578.5483130155358,-434.68147826338486,-179.83355712890625,592.0905172819006
132,33700.26171875,522.665283203125,-544.7746439853686,-405.02550289272347,-174.68643188476562,563.3178673539501
133,34681.2109375,534.3731079101562,-572.5126128262425,-429.3726272159772,-178.9249725341797,564.1586497060891
134,33280.17578125,518.4724731445312,-549.888015866554,-409.30058392279994,-175.73428344726562,582.2500553942876
135,31703.138671875,542.681396484375,-563.3086923026827,-415.0536047233617,-185.31886291503906,588.6024570336447
136,34360.58984375,541.6065673828125,-556.0326074298421,-409.8867193121296,-182.68235778808594,588.661506907182
137,37841.4765625,516.4891967773438,-546.2117626830831,-404.05655915715147,-177.69400024414062,600.6131663054791
138,35429.8828125,549.6730346679688,-578.3711363075812,-423.49735769113045,-193.59222412109375,608.0866602962876
139,33371.40625,564.25732421875,-592.7846212869246,-438.3838095005802,-193.00100708007812,590.0402241297925
140,33546.21484375,573.798095703125,-582.376724449874,-427.4580350215575,-193.6483612060547,625.8614595018588
141,37681.38671875,599.6546020507812,-591.8592494555423,-434.8000728894747,-196.323974609375,598.8591005275514
142,30389.873046875,549.78076171875,-553.2007856067239,-400.18966812335105,-191.26388549804688,597.118185574746
143,33683.05078125,545.9679565429688,-572.0728208312496,-414.283504304682,-197.23666381835938,619.419743740972
144,34630.296875,565.1737060546875,-607.4669561649634,-444.6961214646658,-203.46353149414062,638.7192703830684
145,34247.03125,587.4781494140625,-616.0481461226996,-447.66484004614733,-210.4791259765625,641.292795172083
146,33580.2890625,566.6648559570312,-569.417441153475,-409.6304930273397,-199.7336883544922,622.2189003405936
147,31867.4609375,632.6397094726562,-630.2767076498769,-455.83089224090213,-218.05728149414062,642.6526317631788
148,40408.55859375,627.575439453125,-621.8885464220075,-447.0670095688431,-218.52691650390625,643.9985437077369
149,32354.05078125,605.3699340820312,-615.6926618922557,-442.2484811411993,-216.80523681640625,624.6085902536385
150,40736.73828125,545.1973266601562,-576.0553435536897,-412.58117854592655,-204.34271240234375,643.8086801793231
151,38286.5546875,620.3228149414062,-656.6215303045483,-466.9012946654828,-237.15029907226562,638.6662756681285
152,30901.0546875,602.271484375,-620.5322091186811,-438.989312479428,-226.92861938476562,664.3176451502314
153,34481.234375,621.8197021484375,-614.9642318763183,-433.5904800464744,-226.71719360351562,622.9117437251618
154,31637.20703125,624.6697998046875,-606.8869622819674,-429.349898134739,-221.92132568359375,653.2133269202865
155,35832.40625,661.2830200195312,-649.325972451255,-465.4369946257299,-229.8612060546875,665.428603858398
156,34083.5859375,638.1038818359375,-643.0041847157859,-452.7563361677441,-237.809814453125,650.9682805189763
157,33823.0234375,628.33837890625,-656.1677813292922,-459.45659447526293,-245.88897705078125,659.0424994783219
158,30440.6015625,643.0826416015625,-684.1460713726659,-477.1825406811274,-258.7044372558594,686.8616153996248
159,31582.3203125,641.013671875,-656.6665524434237,-459.6851913330899,-246.22671508789062,690.1059586180339
160,32094.8984375,621.99755859375,-618.8709482795379,-433.4236562709144,-231.80911254882812,657.72913928506
161,29728.65625,683.1090087890625,-661.4725354063992,-458.04970579880444,-254.27853393554688,692.3122316313784
162,33246.71875,659.0632934570312,-660.0153755179742,-455.03867335390714,-256.22088623046875,652.0207614437178
163,32661.376953125,635.2391967773438,-664.9316878579596,-457.03304194144823,-259.8733215332031,673.4635761082311
164,31751.279296875,577.0911254882812,-621.943032384243,-422.67544464906507,-249.08448791503906,663.4496548168929
165,32109.689453125,612.5177612304688,-660.6582598542216,-455.9124919318947,-255.93222045898438,673.1468364058491
166,29920.76953125,652.6683959960938,-670.0901390109408,-460.2812518649931,-262.2611083984375,681.6864701500951
167,29522.41015625,597.549072265625,-601.0574078879973,-405.04491403309646,-245.015625,674.9234184260301
168,33466.421875,688.1849365234375,-706.6226238613044,-478.94528838891097,-284.5966796875,695.1591798193474
169,34501.859375,673.7091064453125,-727.3724230350444,-499.20582399725527,-285.208251953125,708.8426509390075
170,30850.47265625,618.322021484375,-668.0308049830801,-447.3125563358732,-275.8978271484375,681.5144139369081
171,33118.30078125,673.8745727539062,-715.3688141539217,-481.81715599908387,-291.9395751953125,730.4753863133485
172,34651.6953125,636.9817504882812,-667.843305839082,-447.9380563119852,-274.88153076171875,733.4206347955369
173,33914.74609375,620.6359252929688,-657.0437885190499,-440.17768582023206,-271.0826416015625,710.5327804065083
174,35792.5078125,641.1737060546875,-683.4971139029293,-456.51054987364176,-283.73321533203125,690.4070669291139
175,41060.59375,631.6199340820312,-683.400907347236,-458.2651824731506,-281.4196472167969,699.7073928949692
176,37202.90234375,659.4908447265625,-697.0907817945986,-462.6857265683178,-293.00628662109375,725.7748961514937
177,33001.2109375,605.1072998046875,-643.2376328686192,-425.4881357638572,-272.1868896484375,696.8666763441339
178,29208.3515625,660.206298828125,-697.2729928067766,-456.3525282136046,-301.15057373046875,715.5096279788892
179,35754.33984375,669.6763916015625,-709.4014121596692,-470.73058240144655,-298.3385314941406,717.6506596526651
180,37462.3125,654.49365234375,-698.4453366637272,-456.3357236510185,-302.63702392578125,724.2243918946313
181,32743.056640625,644.9657592773438,-703.4013147976889,-463.89943222805726,-299.37738037109375,731.7328543201224
182,34393.30078125,672.5489501953125,-721.4675427167981,-474.17982427750974,-309.1096496582031,725.7988941573728
183,32268.20703125,664.6878662109375,-701.3592911806641,-460.3612493853768,-301.24755859375,724.051658588988
184,33422.59375,690.4818115234375,-719.2474187768114,-464.90806147279704,-317.9241943359375,726.3045639423489
185,38256.1171875,663.4520874023438,-719.6548573175271,-471.8045582775784,-309.8128662109375,782.9898789184765
186,39417.375,676.960693359375,-724.9542668216707,-469.6346915267835,-319.14947509765625,738.9745312324985
187,35680.89453125,701.1135864257812,-739.8998532169444,-486.0180667283191,-317.35223388671875,761.1015156399577
188,36023.05078125,689.3041381835938,-720.7334286295056,-464.038983280602,-320.8680419921875,773.7448341129768
189,36350.66796875,663.2290649414062,-717.8263497943989,-461.6884156010577,-320.17242431640625,735.2392411430512
190,32249.640625,644.000732421875,-716.7288181661652,-463.6120659972331,-316.39593505859375,735.7060065340381
191,35346.890625,690.1965942382812,-747.1735923240707,-485.15898671255457,-327.51824951171875,757.9163360828338
192,36012.14453125,718.078369140625,-761.0365000837523,-483.4815134843968,-346.9437255859375,765.5931090962708
193,30323.33203125,626.9082641601562,-680.3374449822556,-430.159703270762,-312.72216796875,775.451794680821
194,38100.84765625,697.1580200195312,-757.971606310592,-483.1851458126401,-343.4830627441406,799.7642193420854
195,32321.654296875,693.6473999023438,-746.892720002334,-472.44095782011505,-343.064697265625,748.9422650731077
196,31769.98828125,737.8042602539062,-763.8195311911911,-477.87577025823236,-357.4297180175781,792.2312182449837
197,32033.58984375,741.7864990234375,-765.915021362882,-478.39584580276147,-359.39898681640625,781.0306495592396
198,30932.162109375,662.2185668945312,-718.2709221899063,-452.6309813914374,-332.0499267578125,766.2631614020854
199,36661.6640625,676.9597778320312,-747.1126571766491,-466.2148697327281,-351.12225341796875,800.1945075498928
200,32949.796875,738.4246215820312,-794.556741270001,-496.0366853425717,-373.15008544921875,808.9400755367911
201,33031.59375,679.3870239257812,-713.615500256872,-443.6990459450392,-337.39556884765625,790.9269193529956
202,34827.70703125,779.6259765625,-813.4531511630607,-508.3221398316067,-381.41375732421875,806.5526772234982
203,36063.9609375,688.8927612304688,-738.4450709683642,-462.4100618446301,-345.0437316894531,797.3435198668897
204,34161.9375,679.0790405273438,-728.4571949370686,-456.5784217176974,-339.84844970703125,747.1324452899446
205,31458.759765625,744.2816772460938,-784.8632602525043,-486.5339276422846,-372.91168212890625,787.7391413680651
206,32838.6171875,694.5206298828125,-735.2147941366853,-458.4480066581714,-345.95849609375,782.1747669848861
207,32767.72265625,740.0679321289062,-789.05083625096,-496.9881966239131,-365.07830810546875,825.5266734629369
208,36450.921875,700.7308349609375,-762.7857208710741,-473.1982443854557,-361.984375,821.0314852040875
209,34670.84375,712.7290649414062,-774.7490007298493,-481.64056686209113,-366.38555908203125,812.3748275052617
210,33811.23828125,757.3129272460938,-799.6118390137842,-493.4769482274353,-382.6686096191406,845.0888087578099
211,34946.671875,810.2664794921875,-845.6421043667517,-518.6302124063524,-408.764892578125,849.1522114175682
212,32562.51171875,782.8977661132812,-833.0111301972831,-506.5784088853814,-408.0408935546875,852.3638121127437
213,37112.91796875,760.4926147460938,-818.3528092536574,-501.12541728834265,-396.53424072265625,824.5971305666078
214,37175.4375,762.8273315429688,-815.5510928356607,-496.9746669275273,-398.22052001953125,815.2903264110655
215,38431.9453125,807.465087890625,-839.4150321537008,-509.93424243012754,-411.8509826660156,861.1350821198566
216,37886.6640625,816.8275756835938,-851.1805952309471,-517.2348612808462,-417.43218994140625,861.2834211096106
217,38429.12109375,748.9216918945312,-806.9216148701234,-487.1825709819067,-399.673828125,847.0797040359059
218,40108.84375,760.0880126953125,-834.2126062430724,-502.1630408898278,-415.0619812011719,854.062556020508
219,35319.95703125,786.8753662109375,-850.1871633579601,-513.29832667954,-421.1110534667969,861.3682625522415
220,32980.859375,814.5723266601562,-840.5020021795359,-505.8441114206629,-418.3223876953125,866.5621805593157
221,38964.05859375,807.0726928710938,-829.6008892903749,-509.64164679287387,-399.94903564453125,885.1271084913232
222,36844.5234375,777.7450561523438,-798.7523596279177,-480.11590605230003,-398.29559326171875,865.247272766311
223,34603.7421875,775.96337890625,-819.0001056073899,-489.50632146231027,-411.86724853515625,826.1191105579775
224,31973.708984375,781.2621459960938,-855.463615991045,-510.7260129592245,-430.9219970703125,881.6933163391772
225,31761.484375,763.7725219726562,-828.6705818790988,-485.31293872858384,-429.1970520019531,839.0474805123843
226,33653.46875,821.93603515625,-871.7689581592343,-517.0320877243541,-443.42108154296875,834.4735810528601
227,31693.3984375,788.6021728515625,-815.4999158057726,-484.99386704818966,-413.132568359375,867.5629628798446
228,32647.61328125,782.1426391601562,-797.5596630281536,-465.9633861447917,-414.495361328125,882.0022501433407
229,28570.76171875,751.9165649414062,-795.0909206753311,-461.66504493555453,-416.7823486328125,833.3160821926622
230,28243.494140625,762.3021240234375,-851.3345401150598,-496.05218143963293,-444.10296630859375,895.6781446050366
231,31539.951171875,732.6588745117188,-836.2013888963154,-481.7039378391234,-443.121826171875,849.070221401491
232,38112.1640625,765.6258544921875,-845.0775882046377,-489.92115766156314,-443.945556640625,928.1908409529046
233,36021.59765625,836.5318603515625,-883.3187628751309,-515.8111398047222,-459.384521484375,912.0620524329961
234,38967.484375,842.6492309570312,-865.4828379637343,-506.0396394138004,-449.30401611328125,898.1912262492231
235,41498.109375,847.1839599609375,-868.1139415647228,-504.66520712323,-454.3109130859375,886.4702212930392
236,38174.32421875,771.4117431640625,-821.6769817739685,-481.0378700508696,-425.79888916015625,886.9602789457864
237,54116.9296875,796.8383178710938,-887.8781813319054,-518.5925414713311,-461.6070556640625,911.4246133520027
238,46859.05859375,737.3748779296875,-844.3594988995058,-489.8338423528534,-443.1570739746094,891.5566304124985
239,58831.80859375,791.4266357421875,-900.9013068133609,-526.7289260734447,-467.7154541015625,933.0524417158
240,39070.0546875,759.2440185546875,-827.3433700654068,-480.30995880908984,-433.791748046875,894.5555948879053
241,48328.578125,835.273681640625,-856.9088398142301,-500.0341077487267,-446.0934143066406,910.0968198548928
242,51074.7421875,848.7603149414062,-857.2474663189275,-498.2291006468133,-448.77294921875,936.3680697742197
243,50628.00390625,844.7644653320312,-861.9205806808436,-498.88577006914477,-453.79351806640625,903.0593672107353
244,44599.3203125,807.2822875976562,-875.5271786359917,-507.2919968627241,-460.2939758300781,933.1511885760337
245,42700.86328125,781.6165771484375,-883.1432910850859,-513.32085813504,-462.27801513671875,911.4719187913113
246,46493.06640625,755.7807006835938,-869.175900482933,-505.3167904198048,-454.8238830566406,916.1938732778563
247,53430.6015625,799.2449951171875,-904.9046159153254,-521.2541149871338,-479.5631408691406,918.9857884393385
248,47599.19140625,820.0211791992188,-882.3486080164932,-514.59652899419,-459.69012451171875,893.8304403029675
249,41260.671875,877.2369995117188,-892.6871809135555,-505.7440658296823,-483.67889404296875,906.8615695559492
250,44109.45703125,836.4423828125,-864.7412286036196,-496.0655491625438,-460.8446044921875,900.2351144433057
251,40859.0,866.6251220703125,-901.899914291429,-510.0668347158679,-489.79132080078125,943.3127453619882
252,47904.74609375,839.9370727539062,-919.1133556296795,-532.344101528146,-483.4615783691406,930.6886895761181
253,42155.8984375,852.170166015625,-921.7947578013086,-532.7479739991858,-486.3084716796875,951.3989172230035
254,41392.67578125,890.4031982421875,-942.9522287463565,-534.6494067844264,-510.3785400390625,952.3757660599116
255,44061.9765625,862.9774169921875,-909.6286425348287,-522.700543378448,-483.66015625,952.707951067164
256,46238.8828125,886.88720703125,-920.1770327434422,-523.2488627836354,-496.16021728515625,941.5237222618814
257,38930.52734375,851.1423950195312,-908.0656001372523,-520.3217913223691,-484.6797790527344,954.708035336186
258,36587.61328125,825.728271484375,-904.8584208954603,-514.803002329684,-487.56927490234375,963.5698655751445
259,40568.27734375,849.16796875,-929.7031386563829,-528.366825099503,-501.67041015625,948.4301886185025
260,36703.796875,860.3978271484375,-901.7514949669567,-509.2567811325165,-490.6183776855469,947.3349456721946
261,41450.640625,882.0778198242188,-922.5167446316395,-520.0276460466615,-503.11138916015625,977.716164690162
262,38586.65625,867.1544799804688,-931.2750946865642,-524.5322470810489,-508.4285583496094,949.0725193804925
263,36142.1171875,859.2191772460938,-920.4455987928743,-518.5759274751256,-502.3370666503906,925.7198349985068
264,38700.6953125,870.934814453125,-931.8558895576034,-518.3610425669453,-516.8685302734375,954.5435410368078
265,34653.421875,885.2376098632812,-938.8900209178364,-520.6092235112011,-522.8510131835938,915.2916913304834
266,33136.453125,815.8130493164062,-874.0226473382374,-476.03384256150355,-497.4859924316406,982.3616644434296
267,38155.5390625,832.4744262695312,-897.0913958124945,-500.7293877713976,-495.4525146484375,963.0968275615727
268,40223.80078125,896.0847778320312,-927.0080566337808,-506.8064472768931,-525.251953125,967.7979738798169
269,38519.3671875,915.8114013671875,-955.9411973940807,-541.8318482727411,-517.6366577148438,986.8282685121047
270,35629.890625,835.6366577148438,-890.0278019852066,-492.6566631524884,-496.71392822265625,940.5887267751081
271,34200.70703125,896.1959838867188,-953.4757899145279,-526.8469920730832,-533.2860107421875,978.337592769006
272,42452.8359375,898.1550903320312,-933.9277002637825,-524.5500256185971,-511.72210693359375,976.5260855830501
273,35370.8359375,827.432373046875,-871.642246424565,-477.9228917626383,-492.1492004394531,963.9899606472019
274,37144.546875,867.9684448242188,-930.1899443622659,-520.2648684415947,-512.4063720703125,1009.7979517079633
275,32950.55078125,859.4138793945312,-905.2583526322906,-497.91320388115076,-509.1814270019531,1003.3640963341551
276,31570.51953125,882.1474609375,-912.623317557189,-500.04957246853724,-515.7172241210938,952.6111320040392
277,34178.56640625,877.1735229492188,-906.1748218663588,-485.8825719029263,-525.3652954101562,993.3502226779601
278,31392.173828125,835.5719604492188,-891.536078156943,-480.3635322131611,-513.9656982421875,983.8574361242696
279,36805.68359375,856.8148803710938,-929.7175897196388,-513.4009848345291,-520.395751953125,1038.2100731695375
280,36722.46875,933.4273071289062,-974.9675361439643,-531.2707905229238,-554.6209106445312,959.612757993283
281,29708.419921875,897.3124389648438,-931.8647332053799,-495.67705351597897,-545.234619140625,991.5180094082262
282,32106.44140625,875.856689453125,-935.8480908214865,-506.0108413801346,-537.2965087890625,989.3300017975822
283,32689.865234375,864.30419921875,-920.4053457441144,-506.3937871281159,-517.514404296875,981.2996967393818
284,41497.625,992.0757446289062,-1021.3346984176578,-566.4133366042895,-568.6517333984375,1065.4298726411143
285,32803.7890625,905.234375,-932.9435707376737,-509.24701006034644,-529.6207275390625,1010.6373193508106
286,38145.640625,907.2684326171875,-962.5723360069901,-525.789697911112,-545.9783325195312,984.9366994994316
287,42790.6875,878.9658813476562,-941.3854829873818,-505.2621171739346,-545.1541748046875,1029.953847697784
288,37320.19140625,944.4181518554688,-990.6968489893711,-545.3915390702662,-556.631591796875,1014.7425522363704
289,38043.3125,934.5758666992188,-974.3519713905722,-529.8494223636658,-555.628173828125,965.1258609978881
290,41701.6328125,941.5294189453125,-999.7089306281331,-542.0316001190255,-572.0966796875,1007.576705236454
291,32341.03515625,965.103271484375,-1017.7110717645977,-548.6248149163221,-586.3577880859375,1007.8209590990239
292,36380.3046875,939.4341430664062,-977.0874886826144,-529.9113707641603,-558.9701538085938,1024.1412975981034
293,37169.9140625,926.420654296875,-965.4203931628521,-525.9570525655782,-549.3291625976562,1045.8049151618377
294,36729.08984375,906.2783813476562,-956.8950373274147,-515.3420927399642,-551.941162109375,1018.73177608494
295,33574.03125,924.8811645507812,-982.4560490213894,-523.5531873877255,-573.6286010742188,988.753022990022
296,35913.2421875,947.1657104492188,-991.3611412003031,-533.7862160154943,-571.9686279296875,1000.8194281359007
297,33249.88671875,969.1627807617188,-1013.5301984964484,-539.2145091007078,-592.8945922851562,998.0065155614333
298,34215.4453125,924.5691528320312,-975.14677864302,-524.1551909181107,-563.739501953125,1028.6910303125471
299,35376.4140625,909.1884155273438,-957.5860182992477,-504.30113050856767,-566.6061401367188,1027.6512993171448
300,34179.80078125,979.7832641601562,-1033.7440992217298,-541.5074608212125,-615.2958374023438,1063.2340634057905
301,34972.7421875,958.6377563476562,-1006.4331137641168,-538.2239210870882,-585.261474609375,1091.0473977258532
302,32383.646484375,978.4384155273438,-1005.7237704990494,-534.6155144047286,-588.8853149414062,1051.6551178378227
303,37843.7421875,948.0736694335938,-988.3647151699859,-520.1731996212957,-585.2393798828125,1061.4780550211362
304,36303.6953125,971.9794921875,-1029.4477995433817,-554.7285609208018,-593.3990478515625,1076.5923126161902
305,35960.97265625,973.5310668945312,-1018.2465356407924,-540.5168790952541,-597.162109375,1097.2594332582125
306,32720.12890625,969.84521484375,-1011.8720308029681,-534.7774121140252,-596.3682861328125,1078.3884817096418
307,35280.796875,993.5303955078125,-1045.5765721486646,-552.3020299847935,-616.5931396484375,1090.0751106683056
308,31993.607421875,902.6780395507812,-954.2723609941678,-495.2062403293925,-573.8326416015625,1012.2336215806155
309,31059.16015625,943.3734741210938,-983.5886970968513,-530.2108545010506,-566.7222900390625,1044.1329518765087
310,31006.09765625,935.2396850585938,-966.7496489565269,-502.3946297817545,-580.4437866210938,1038.0489768696702
311,31829.361328125,985.958251953125,-1060.5596352204784,-552.3835576865927,-635.2200927734375,1072.8957526206532
312,30036.064453125,892.02880859375,-965.0421774147908,-508.6075581814525,-570.5432739257812,1024.1823869535046
313,36240.26171875,1014.3787841796875,-1054.638136406152,-550.504300504087,-630.1673583984375,1130.7297268949583
314,30528.390625,984.8575439453125,-1021.0042228768544,-534.4773950799332,-608.1585693359375,1063.7449735287132
315,33616.21875,954.0026245117188,-1008.3487889281726,-530.9313969650325,-596.771728515625,1096.7421791037948
316,32910.16015625,990.2431640625,-1064.010915792132,-554.1236775005041,-637.3590087890625,1108.3169503740417
317,34570.1875,931.8368530273438,-1003.7924147932557,-526.6700326722813,-596.4029541015625,1082.0025546562465
318,30141.4375,967.7190551757812,-1016.7363634248411,-532.1092611614762,-605.7838745117188,1064.0800920055208
319,32711.70703125,1007.7335815429688,-1051.1031583368467,-538.1600724814149,-641.1788940429688,1086.6314917999664
320,35434.96875,955.51220703125,-1041.2013729060777,-540.1018588943882,-626.3743896484375,1088.700310656498
321,34334.15234375,984.2801513671875,-1066.3930660024232,-549.1094512264422,-646.6045532226562,1076.4471130255938
322,35068.125,1016.8341064453125,-1088.327811938437,-562.4955898835383,-657.290283203125,1084.6404868232748
323,30097.4609375,1040.2908935546875,-1093.6149426866518,-558.4676564788642,-668.93408203125,1108.5282060614375
324,37368.43359375,972.5762939453125,-1045.3604341354876,-544.8452418136134,-625.6439819335938,1098.5893475338178
325,29174.95703125,916.8189086914062,-1000.6169232110955,-513.4534797772296,-608.9542846679688,1056.1941224820964
326,33768.3828125,997.9760131835938,-1081.4866319729401,-554.4036182692427,-658.853759765625,1102.9295198139416
327,37813.625,1009.0003051757812,-1068.5611526354123,-555.5290319617745,-641.2901611328125,1093.814457416251
328,36853.91796875,968.4707641601562,-1030.5782373681284,-534.298294150442,-620.3499145507812,1120.6078302329752
329,37612.7578125,1013.0706176757812,-1091.7503765067904,-559.3002466156032,-665.5626220703125,1146.5787344773435
330,34831.70703125,934.4090576171875,-1016.1252388559927,-527.4801285736908,-610.806396484375,1099.8220256996806
331,29294.65234375,1023.23828125,-1086.9447721684562,-551.1975843489148,-669.6839599609375,1115.8844492369171
332,32385.541015625,1009.1288452148438,-1073.3571949936345,-547.4255440622463,-657.4146118164062,1116.5908114510744
333,32575.9296875,919.1251831054688,-1001.9773089795876,-513.2234903500919,-610.9422607421875,1136.1300605884371
334,33489.69140625,965.1060180664062,-1042.4902504948207,-544.5056680032292,-622.480712890625,1079.3991284186395
335,36994.328125,1035.9573974609375,-1083.6746090336812,-558.1506479939555,-656.9049682617188,1097.7134047529626
336,31038.212890625,980.7774658203125,-1026.3927364259844,-513.8460519745832,-640.683349609375,1091.4345347236967
337,34984.8046875,982.8373413085938,-1062.850834718677,-544.6192468414131,-647.7894897460938,1118.1187211938861
338,35634.4140625,1015.2426147460938,-1104.4641032020065,-565.7748235478035,-673.361572265625,1144.3759368974058
339,34613.9296875,1061.7742919921875,-1113.7391233524922,-567.9700813590233,-682.2113037109375,1151.541274142941
340,32115.720703125,1046.4334716796875,-1083.2952796632496,-557.4892669029606,-657.257568359375,1140.7402328236662
341,32119.39453125,1036.8492431640625,-1076.9299443474038,-548.2978025893678,-660.7901611328125,1150.918861126665
342,31419.302734375,1019.4210815429688,-1104.5688022167778,-558.0401979887282,-683.1607666015625,1116.8081135936802
343,28431.998046875,1020.8673706054688,-1091.5698670022416,-543.5035310778529,-685.0828857421875,1124.2276747377002
344,32508.087890625,996.2985229492188,-1024.9513406482174,-522.0668043600976,-628.605712890625,1116.92168390868
345,35002.6015625,1082.499267578125,-1114.9153987148684,-559.6526045873204,-694.0784912109375,1172.3482483810544
346,29849.986328125,1056.827392578125,-1126.4031406227912,-574.727471280605,-689.5946044921875,1125.9000922802898
347,35290.58984375,1080.6806640625,-1150.7291450196253,-579.5381609634802,-713.98876953125,1133.2477488285165
348,34096.8125,1003.6906127929688,-1056.942718015694,-541.3998531111414,-644.4285888671875,1130.7931084889833
349,37271.53515625,1016.6989135742188,-1068.7345402358642,-541.3319608192036,-659.2532348632812,1177.9297631656507
350,34622.81640625,1091.3482666015625,-1140.9541389933893,-564.3741512938507,-720.7249755859375,1170.3406836314743
351,45930.84375,1068.0230712890625,-1117.3995945654592,-560.9225088896012,-695.5963745117188,1117.9263561733646
352,38565.20703125,1088.68505859375,-1147.2786368175794,-567.6016560008201,-724.59619140625,1181.0375255853785
353,39321.84375,1058.941162109375,-1112.8358790564912,-555.5516744215604,-696.605224609375,1163.2464877287352
354,44560.4140625,1150.5330810546875,-1193.1765734996798,-595.2096768256893,-747.4586181640625,1204.7828146910313
355,31073.1953125,1043.8056640625,-1084.6678209141055,-534.4437898888411,-687.780029296875,1160.8899881473103
356,32470.47265625,1064.399169921875,-1118.771606466969,-556.1509605475267,-703.2758178710938,1162.6270877247075
357,30563.69921875,1062.7896728515625,-1116.961433835153,-548.4756978274904,-710.607177734375,1171.7715523982588
358,37316.95703125,1060.3487548828125,-1110.7628153709284,-561.0779671368708,-687.1060791015625,1151.8599091348117
359,34546.70703125,1086.5758056640625,-1118.051270770984,-564.8038696359416,-691.5592651367188,1141.4846363110703
360,37597.578125,1071.42578125,-1081.1298153544653,-519.4395179561216,-702.1128540039062,1184.7706750496677
361,33517.8359375,1091.922607421875,-1149.4246222284312,-554.184319025899,-744.0504150390625,1169.4975259420453
362,35983.3984375,1074.0518798828125,-1139.8330545872839,-566.6376481147871,-716.4942626953125,1182.215431569868
363,36622.1640625,1128.1148681640625,-1164.1662239997781,-570.0088979956828,-742.6966552734375,1186.8309948646893
364,41322.69921875,1179.6343994140625,-1189.8067246371922,-592.0525206336793,-747.1927490234375,1147.7267986474367
365,38106.9296875,1152.3880615234375,-1154.540555132123,-569.7387924499237,-731.002197265625,1205.3064516893312
366,34980.93359375,1171.799072265625,-1221.4218171927707,-600.1330510851557,-776.6109619140625,1232.71550064333
367,33723.84375,1039.979736328125,-1123.7533395650057,-546.8789244728355,-721.093017578125,1180.2079210614913
368,36690.84375,1015.751220703125,-1116.6043238728116,-542.4065791544315,-717.7471923828125,1181.6722943931472
369,40794.546875,1089.8060302734375,-1171.344131427713,-568.8659710854182,-753.0977172851562,1212.0401929395132
370,36790.6953125,1125.7503662109375,-1151.2164103064965,-558.9867487091849,-740.287109375,1225.6066669556735
371,34987.12890625,1158.3980712890625,-1141.2714455093796,-553.1069077509994,-735.2056884765625,1180.2551786043573
372,41463.25390625,1095.1102294921875,-1091.1769567431015,-533.3854421608678,-697.2393798828125,1158.2153157590615
373,33914.53125,1061.3250732421875,-1094.8426571034975,-526.3230321326441,-710.6495361328125,1183.081257194459
374,31055.8515625,1107.6124267578125,-1188.5808005212725,-576.6962250991644,-764.855712890625,1256.1140926614928
375,30758.052734375,1049.8538818359375,-1113.0267926328615,-520.8377402415299,-740.236328125,1190.5700023900747
376,35862.91796875,1140.81005859375,-1188.7839057341873,-567.09375066801,-777.1126708984375,1226.0150185153555
377,30278.8671875,1101.6351318359375,-1091.1718591640672,-514.3872338248385,-720.9807739257812,1176.7099857845774
378,29302.90625,1200.720458984375,-1187.5822849150122,-574.9060016749268,-765.8453369140625,1181.107503111897
379,37184.2265625,1164.3349609375,-1171.652692029134,-564.7737318913196,-758.5987548828125,1234.9281755426903
380,32966.78515625,1104.6650390625,-1172.1797377922212,-554.9809038722063,-771.49853515625,1180.4593396553207
381,39915.13671875,1107.3658447265625,-1202.520467887758,-576.989983149464,-781.9130859375,1261.7640609335022
382,39809.75390625,1127.92431640625,-1202.8532104001283,-579.6421626583574,-779.0137939453125,1237.376272336623
383,34117.0625,1138.1890869140625,-1155.8945048690214,-537.2699167127159,-773.28076171875,1209.3174309687158
384,33399.47265625,1206.248779296875,-1207.5406875477706,-562.8416666509652,-805.873779296875,1218.5350666191332
385,32162.02734375,1082.6068115234375,-1110.3406360840715,-526.4279722890174,-729.890869140625,1216.9878093454292
386,31204.421875,1039.5205078125,-1110.5635443463916,-525.9837428928347,-730.7247314453125,1215.0652179036022
387,31636.6171875,1077.771728515625,-1159.0357577488385,-549.773710560156,-761.5775756835938,1233.7993878640145
388,35730.1875,1115.06396484375,-1154.246585659992,-542.8770353659354,-764.2119140625,1262.3473258110473
389,36310.4453125,1166.0225830078125,-1168.001814323487,-548.1341391008442,-774.8345947265625,1223.0422733445948
390,30114.38671875,1189.95947265625,-1188.3425781949543,-566.5970946444318,-777.181884765625,1292.8812400451454
391,31932.564453125,1121.4364013671875,-1149.5157782856847,-546.0311965170788,-754.355712890625,1252.5639966387173
392,31838.919921875,1110.4974365234375,-1189.2302067505377,-542.0440096740792,-808.9827270507812,1233.5671591908217
393,33907.40234375,1048.8475341796875,-1154.839201230146,-550.8924170955643,-754.9334716796875,1207.934282621791
394,34851.2578125,1065.3555908203125,-1148.3684597903723,-530.6725979485875,-772.119873046875,1206.623590030854
395,38229.73046875,1234.166259765625,-1268.842736664481,-588.7589641726308,-850.104736328125,1292.4701068764894
396,32176.01953125,1162.8731689453125,-1174.3773367535418,-546.3269783768897,-785.0629272460938,1273.548981197284
397,33669.8828125,1124.8385009765625,-1162.1715824959301,-531.9616765090695,-787.7623291015625,1250.4211088993202
398,33458.36328125,1105.197509765625,-1199.8051205094625,-560.9308449647109,-798.5928344726562,1273.499673973573
399,36255.00390625,1067.1226806640625,-1169.994137561568,-553.9325346450462,-770.0770263671875,1251.801713260241
400,37565.78125,1063.4638671875,-1132.2212333130315,-522.2031469400636,-762.5225830078125,1265.0784398934134
401,35762.765625,1177.01611328125,-1205.0044518806415,-573.9151953406074,-788.861572265625,1228.9538214544768
402,32897.94921875,1232.5718994140625,-1246.5440328850027,-575.636525199943,-838.6343994140625,1300.6165485716917
403,36859.64453125,1182.3255615234375,-1236.0725660366143,-576.0448127648929,-825.03466796875,1296.0518835953521
404,31079.0625,1060.889892578125,-1155.2646073132046,-528.2673941200821,-783.7465209960938,1281.387320352198
405,36959.828125,1081.3392333984375,-1194.7444054400019,-548.0670491106277,-808.3466796875,1247.0684363308353
406,38625.25,1105.0584716796875,-1212.1605274498475,-568.1852726100025,-804.9690551757812,1257.2092312428808
407,33540.51953125,1123.6795654296875,-1162.1193746332892,-541.9971325104937,-775.15283203125,1241.8720565155777
408,34384.4453125,1198.4056396484375,-1219.5190171646916,-564.8678870653297,-818.3139038085938,1227.9446880752957
409,32673.75390625,1161.2490234375,-1188.178102603977,-539.9230822179965,-810.3187866210938,1265.8894991003792
410,32624.173828125,1186.87060546875,-1272.6437422994195,-591.9632789380984,-850.8505859375,1278.637690375188
411,33376.30859375,1164.0284423828125,-1252.0006847704976,-574.4736144512176,-846.9088745117188,1314.017148115242
412,32502.37890625,1159.5855712890625,-1208.9155859520959,-548.325486694865,-825.7376098632812,1303.053474263979
413,36900.8125,1154.2830810546875,-1200.6365929388357,-555.317334947913,-806.6491088867188,1279.4825408849333
414,32207.95703125,1131.6536865234375,-1188.3428629810885,-549.151846164368,-798.98876953125,1232.3891507602411
415,31871.529296875,1148.6702880859375,-1213.9325630724238,-546.2971084369153,-834.5443115234375,1303.6988229407932
416,30375.28125,1170.19580078125,-1220.0124470112278,-562.1783155494732,-822.2926635742188,1294.3229570059925
417,33339.43359375,1173.0064697265625,-1216.5033123562775,-549.9158396205596,-833.234375,1252.9769404712993
418,33518.93359375,1182.0606689453125,-1241.7323773295186,-565.665137640949,-845.0840454101562,1257.9617459848153
419,33858.984375,1146.637451171875,-1192.7287643909954,-543.3572929261288,-811.7142944335938,1275.988851241371
420,31196.171875,1110.3251953125,-1144.7843125133531,-527.7790147240496,-771.256591796875,1240.0076609567634
421,29913.93359375,1201.5018310546875,-1248.6146071474054,-569.6962590973808,-848.64794921875,1270.0165940641245
422,33845.62890625,1130.3792724609375,-1178.9315042720239,-538.530312156078,-800.5015258789062,1306.080858510331
423,30855.537109375,1177.0408935546875,-1229.526899837194,-555.5216316654848,-842.506591796875,1309.1820369830077
424,29083.71484375,1192.656982421875,-1239.7755030919675,-559.4863761671231,-850.3613891601562,1307.4535303175862
425,39068.859375,1252.304931640625,-1286.4765269785125,-591.8902764963855,-868.2327880859375,1313.8846870899308
426,35297.640625,1238.6373291015625,-1274.4433195892998,-578.0225389702518,-870.5260009765625,1314.2074599851057
427,39775.3046875,1268.42919921875,-1323.9814099777416,-582.693762668308,-926.609619140625,1296.7994044746097
428,35000.875,1188.893798828125,-1238.8080649728713,-558.7555624118833,-850.0656127929688,1316.5608433783505
429,37792.3046875,1172.008544921875,-1206.8525410579296,-546.6748927967401,-825.2220458984375,1351.2013809771424
430,36391.62890625,1261.36962890625,-1311.1535228012817,-586.9273401538599,-905.28271484375,1324.9801107744652
431,39152.93359375,1203.825439453125,-1260.0657163983997,-569.622518975087,-863.053955078125,1321.4941948906237
432,35987.05078125,1273.588623046875,-1307.2126529608906,-589.0829583157838,-897.662109375,1319.8818839790836
433,34048.09375,1117.8756103515625,-1158.9448332795412,-522.9433596462013,-795.0018310546875,1249.2604699954452
434,40551.16796875,1241.756103515625,-1306.8200481557274,-583.5958462658323,-904.0302734375,1356.4605501791075
435,36141.3671875,1219.4615478515625,-1261.47507596478,-571.2591718032596,-862.7698974609375,1354.3884199413078
436,36610.4765625,1157.36279296875,-1198.601508853182,-539.46698378559,-823.9180908203125,1257.96769771481
437,38852.1796875,1175.9708251953125,-1240.118167941614,-564.3966867014458,-844.65185546875,1292.6103783050942
438,42250.33984375,1289.9068603515625,-1360.7951197983198,-614.2581752464142,-933.171142578125,1393.8200251447504
439,33067.75390625,1210.527099609375,-1239.8652658732735,-556.5118544798472,-854.1917724609375,1332.5543084506273
440,29998.8515625,1183.24267578125,-1207.9474053769345,-540.8269813896128,-833.9005126953125,1317.5226932725768
441,34163.16015625,1198.578125,-1257.7761373463632,-559.3863900724411,-872.9871826171875,1328.9852742930502
442,34253.5078125,1259.653564453125,-1328.6905788356057,-602.6548177317335,-907.544677734375,1343.1634871886736
443,34643.72265625,1244.3558349609375,-1262.7729796833664,-567.5841460866227,-868.986083984375,1343.3918613729777
444,43340.87109375,1215.6575927734375,-1233.1229501165508,-557.3161001388041,-844.758544921875,1332.65103335533
445,39336.359375,1220.68359375,-1279.8989244222746,-569.5006539844082,-887.9978637695312,1330.260102696422
446,34963.1640625,1258.2489013671875,-1331.1952513161377,-591.3391717178077,-924.820068359375,1392.3275212114295
447,36464.5703125,1248.6944580078125,-1291.0915625546095,-579.4596852757005,-889.5398559570312,1328.0116351885733
448,41554.1953125,1272.5850830078125,-1288.4021132185792,-589.8070767424272,-873.2438354492188,1310.5623899167524
449,45575.8125,1335.02490234375,-1351.6899681828709,-599.7367249932864,-939.9415283203125,1360.125734309134
450,37120.26953125,1215.598388671875,-1281.0898213604994,-581.1357692095048,-874.9425659179688,1385.8525048294412
451,39132.796875,1313.2332763671875,-1379.8463835189414,-612.6774598657449,-958.961181640625,1412.1542671988013
452,41012.69140625,1250.4307861328125,-1288.5158560276598,-576.6461399682432,-889.837158203125,1388.374229692386
453,39510.078125,1264.2081298828125,-1300.6860951244025,-576.1261701059651,-905.699951171875,1339.9928929625771
454,36171.40625,1222.0623779296875,-1275.370463083622,-568.701061037493,-883.3367919921875,1400.5051646522334
455,42846.0703125,1196.263671875,-1261.7686527056508,-555.5699959766007,-882.748291015625,1356.9053040584367
456,43116.55078125,1272.8546142578125,-1339.7821408936315,-594.3730811350541,-931.7613525390625,1405.114706750407
457,47083.62109375,1325.6396484375,-1353.381087061789,-596.2377137194651,-946.42919921875,1436.535556838884
458,38842.96875,1287.4267578125,-1307.9123047039475,-578.274243711131,-912.047607421875,1399.9806654214829
459,40351.44921875,1281.077880859375,-1342.4347574297963,-590.998224989853,-939.2957153320312,1379.2128415951647
460,36090.3046875,1202.5372314453125,-1315.0529399733366,-576.636318821025,-923.020751953125,1365.027809043708
461,40694.3125,1222.27099609375,-1345.6123949003877,-584.7572966841522,-951.0689086914062,1345.8211131919359
462,40103.765625,1255.631591796875,-1353.2847379216505,-585.8720918774652,-959.2657470703125,1379.4612029871662
463,44469.109375,1283.412841796875,-1328.362159291957,-575.5612334994826,-941.0011596679688,1386.2770759800726
464,41541.90625,1244.991943359375,-1280.0915662562247,-549.7897413288482,-912.8773193359375,1420.576613172901
465,47031.50390625,1308.9342041015625,-1380.5554117194577,-604.3330409531682,-970.2779541015625,1422.2591926926323
466,44172.30078125,1205.78173828125,-1334.9251202850605,-575.705552083813,-949.0244140625,1397.7719156250998
467,54338.72265625,1186.18408203125,-1340.883037934559,-582.5798415788586,-947.8789672851562,1416.6266576346625
468,47309.98828125,1215.84326171875,-1338.0127563420479,-581.6369905607571,-945.4697265625,1389.8303703423526
469,58981.7734375,1297.010986328125,-1357.0139456846,-603.293576525449,-942.1505126953125,1433.089865761782
470,48282.1640625,1281.842041015625,-1303.848480388111,-567.1232305630656,-920.9065551757812,1383.5640825787539
471,53685.92578125,1372.140380859375,-1401.2947031695871,-601.8272751706197,-999.334228515625,1408.053817160274
472,48575.921875,1321.5865478515625,-1409.337491378934,-613.3453749992426,-994.9901123046875,1458.4355238839769
473,50254.734375,1314.4671630859375,-1414.8966083693922,-609.5086828760475,-1006.73486328125,1435.0940490410812
474,50471.53515625,1299.7115478515625,-1385.772453014417,-601.9507335866375,-979.7771606445312,1451.89058764407
475,51240.61328125,1321.3863525390625,-1353.9548125931947,-592.4274699503042,-951.9091796875,1432.7810865973959
476,41095.88671875,1374.099365234375,-1400.5263310432645,-611.6057806581005,-986.1506958007812,1409.877516924451
477,48353.19921875,1372.3375244140625,-1424.1071412960437,-617.0117600590361,-1008.8692626953125,1412.9291373261306
478,42627.57421875,1224.7073974609375,-1314.9529305760973,-579.2062528328494,-919.683349609375,1340.7500536296639
479,55979.03515625,1300.8154296875,-1379.2386848886822,-599.6370851360587,-974.5020751953125,1433.9323209545532
480,47529.5703125,1451.01708984375,-1498.2488452686093,-652.3096908103769,-1057.4239501953125,1458.1740131233996
481,42865.546875,1288.2308349609375,-1335.7758657708607,-579.1812169796628,-945.7432861328125,1447.67845854592
482,44952.2734375,1299.21044921875,-1381.5625109273115,-593.7025214453331,-984.8250122070312,1435.1428510289759
483,45140.8515625,1286.90087890625,-1379.7535182990628,-601.5435215071338,-972.7625122070312,1478.928492969002
484,38285.765625,1289.2728271484375,-1342.6281500771197,-582.5557490619387,-950.0905151367188,1418.9028604018094
485,41741.94140625,1365.8480224609375,-1412.460788186393,-608.9016203713932,-1004.448974609375,1424.6073877349033
486,47901.7421875,1314.5283203125,-1393.0687624963464,-604.1224965676198,-986.182861328125,1416.7554043434989
487,36189.6015625,1241.548583984375,-1322.121008325029,-564.287371395934,-947.2920532226562,1360.2278803637478
488,43255.87109375,1400.42236328125,-1463.9665125603874,-615.2458874355157,-1060.90087890625,1442.2179630732555
489,42324.94140625,1383.9742431640625,-1438.5205015588494,-621.654090969119,-1021.0829467773438,1490.5795488943752
490,53485.9453125,1290.7872314453125,-1342.5248444365006,-572.4001965758991,-962.65576171875,1489.6535875698246
491,47580.41796875,1372.7177734375,-1479.199388669891,-629.0770213104724,-1062.6529541015625,1439.0408779970896
492,37783.8046875,1231.700927734375,-1337.1673524747189,-573.4295641292404,-954.6722412109375,1399.6502410868254
493,40724.953125,1330.6239013671875,-1396.503404011306,-600.0918612404806,-995.514404296875,1452.5325960622508
494,47123.53515625,1342.31005859375,-1390.8924746021457,-599.4827734364025,-989.2620849609375,1445.8631151421444
495,39817.85546875,1300.4095458984375,-1373.6783963759583,-592.174872491431,-976.87939453125,1545.9749189715428
496,50401.72265625,1338.5159912109375,-1445.6923024482162,-614.5364322575809,-1038.94482421875,1455.0126159094798
497,46649.36328125,1354.9326171875,-1457.7566000446213,-616.4887161373628,-1051.5848388671875,1464.6596740637851
498,50233.09375,1369.5330810546875,-1434.4511882378497,-603.5219973072653,-1038.6614990234375,1460.8519288451373
499,36862.38671875,1357.5865478515625,-1412.2122022670233,-595.3272164576226,-1021.106201171875,1520.5669085624863
500,44624.21875,1270.22314453125,-1350.6895805672007,-579.2135322662732,-964.3450927734375,1497.3060682804878
501,42336.1484375,1434.811767578125,-1512.9995266802714,-640.5678310558305,-1090.53955078125,1526.2377395956714
502,38611.78515625,1302.597412109375,-1374.4406268745786,-593.8677896058311,-975.7160034179688,1478.5790373149525
503,33618.4921875,1382.63525390625,-1451.6235840703907,-610.3986026235004,-1051.53125,1403.4988701960524
504,39428.99609375,1330.8077392578125,-1408.6940085750177,-597.0310266911622,-1014.5786743164062,1492.6551579799561
505,45699.7578125,1394.9891357421875,-1472.3280538819427,-614.3151356503065,-1072.51611328125,1522.0080382783347
506,41798.4609375,1365.79736328125,-1420.1099985981514,-612.3943738425304,-1009.64453125,1504.9564112465046
507,39941.3203125,1347.842041015625,-1397.4953981952171,-599.0667497196595,-998.0357666015625,1414.640136030267
508,43075.5859375,1352.2423095703125,-1408.7551592156187,-594.4513923434437,-1017.879638671875,1463.490999959266
509,44046.46484375,1358.3173828125,-1446.5869850773215,-609.6417343152536,-1046.181640625,1472.303166599783
510,78827.359375,1370.745849609375,-1456.8650183028112,-621.6161395496257,-1044.06103515625,1547.1814022407002
511,50551.234375,1458.1240234375,-1499.6425122048745,-629.8850921234155,-1087.19677734375,1482.6225911642566
512,50803.5625,1427.2767333984375,-1461.4491930548104,-622.5079164464028,-1048.6766357421875,1493.3858399158787
513,49070.14453125,1286.565673828125,-1351.9893758784633,-565.4801207793528,-983.1365966796875,1427.043448862512
514,55710.65625,1381.4010009765625,-1473.3578507738484,-620.2328644039405,-1066.40625,1480.6178863312552
515,45131.73828125,1386.1988525390625,-1463.4959208987693,-628.7916742714162,-1043.38037109375,1489.7991621214067
516,43290.53125,1367.53759765625,-1393.5343697746496,-591.7545282134997,-1002.2247924804688,1459.914484494959
517,56486.609375,1451.850830078125,-1477.6132486035303,-619.6296017283296,-1072.4794921875,1534.8095225172694
518,54002.7265625,1368.9307861328125,-1431.557721003855,-598.6161521102883,-1041.177001953125,1480.4094214346885
519,41849.68359375,1384.967529296875,-1468.5827177815581,-617.5510494737397,-1063.7896728515625,1465.4975029380867
520,50961.66796875,1399.1962890625,-1478.6308311386324,-615.7237373365381,-1078.6339111328125,1522.0671534008275
521,48658.51171875,1487.2646484375,-1531.9358221773168,-638.0477656135446,-1117.360107421875,1552.5872025306323
522,61465.7109375,1452.006103515625,-1483.9663598593106,-634.0055569777976,-1062.4510498046875,1512.1229798287786
523,48951.41015625,1462.96826171875,-1493.7110927523063,-626.6058898025142,-1083.8814697265625,1579.6998758292646
524,51948.7578125,1441.894287109375,-1526.9426473505268,-647.6146840948084,-1099.1600341796875,1530.833358268694
525,46517.625,1380.1038818359375,-1480.1747323778984,-619.7022991442648,-1075.590576171875,1542.2395079939058
526,45424.00390625,1411.7960205078125,-1489.6743097072872,-618.6136474811874,-1088.825927734375,1514.876413526636
527,46208.59375,1399.15771484375,-1439.5589466477932,-601.1498050573468,-1048.011474609375,1533.7591039296553
528,54438.5546875,1484.502685546875,-1530.2410763053906,-641.3733345148369,-1111.084716796875,1545.4595348758394
529,51797.1328125,1476.2835693359375,-1540.9050984456926,-637.8562596745114,-1128.81103515625,1518.4375974832435
530,44339.1953125,1365.2911376953125,-1456.6530457435902,-604.794881039558,-1064.82275390625,1575.7209609977792
531,44912.85546875,1389.479248046875,-1474.4157212021737,-614.4966559451049,-1074.8988037109375,1520.0606351332801
532,46330.4609375,1442.418212890625,-1493.8565399915133,-626.256054869775,-1084.5006103515625,1545.8198847077904
533,44073.15234375,1423.621337890625,-1459.4175764220554,-594.3968544590075,-1081.2760009765625,1532.377771852016
534,36179.12109375,1331.46630859375,-1402.4086943589066,-579.5882484566334,-1028.525634765625,1453.5602527628598
535,49197.8203125,1419.94873046875,-1502.6160038842304,-619.8882682972072,-1103.40966796875,1566.015091144415
536,42809.51171875,1410.5782470703125,-1457.1592216458857,-602.4560836852284,-1068.37890625,1471.732193998998
537,50931.8515625,1452.5286865234375,-1503.9932046496388,-623.0177290937011,-1101.2193603515625,1575.9212298637858
538,48160.875,1521.2398681640625,-1581.4404866167406,-656.7270568789977,-1155.891845703125,1600.742290569355
539,49835.12890625,1452.982177734375,-1524.8108860618427,-632.8006688206913,-1115.0126953125,1588.1066072215056
540,46933.328125,1433.4205322265625,-1502.2576736390733,-622.478201166741,-1099.724365234375,1525.9970020895673
541,46981.578125,1397.1690673828125,-1446.3761910732853,-601.3041457328962,-1056.340087890625,1524.5080166177802
542,39529.0234375,1488.3282470703125,-1555.32836308173,-656.0396731332513,-1124.11083984375,1565.958150086394
543,41505.63671875,1385.7880859375,-1454.6156461853516,-616.648015712386,-1047.45947265625,1532.5676585550366
544,47349.4765625,1405.4683837890625,-1456.9376812385826,-618.490371784797,-1048.05908203125,1554.6365815111503
545,46544.328125,1433.6329345703125,-1492.8649431759136,-617.4331125553341,-1094.289794921875,1519.7464256485475
546,50408.828125,1446.5186767578125,-1524.3934052541879,-621.4012325983521,-1128.740234375,1571.9266220135246
547,47057.484375,1435.7474365234375,-1487.987828291061,-617.3888585506404,-1088.248779296875,1553.4271710322469
548,46338.1640625,1258.469482421875,-1310.957252765772,-560.3076608560507,-938.31201171875,1556.890733298716
549,39581.8359375,1378.935302734375,-1465.8086529901975,-606.9072173760067,-1073.626708984375,1526.1811799066256
550,43535.78515625,1498.6942138671875,-1576.8493851308174,-647.8184573600463,-1161.2886962890625,1626.8195481337343
551,45584.453125,1378.0745849609375,-1408.094071288891,-582.2876937120406,-1032.258056640625,1583.9798783149151
552,46500.9609375,1434.691650390625,-1459.104241916017,-586.3840745361905,-1090.900146484375,1537.0952694979144
553,42238.28515625,1437.3052978515625,-1504.864615856748,-624.4780532396248,-1100.483154296875,1523.5517680433318
554,45263.33984375,1372.5194091796875,-1437.7422431038194,-594.0292176434273,-1054.641357421875,1584.2895851657938
555,39624.98046875,1427.59033203125,-1471.8145488500982,-614.5063881495421,-1071.63525390625,1566.64624205477
556,49485.19921875,1493.6060791015625,-1544.9593667114436,-639.8482599156259,-1131.388916015625,1595.1701171181983
557,48315.3671875,1534.3768310546875,-1597.1513748325633,-642.4642362300534,-1193.35888671875,1650.5756934235328
558,44781.49609375,1479.1402587890625,-1552.1931355359864,-637.3987617352876,-1143.492919921875,1651.1086346923648
559,43574.73828125,1475.05712890625,-1507.5716521577408,-628.3104363436307,-1099.0765380859375,1588.3120996823732
560,41904.00390625,1487.5098876953125,-1526.9748022012698,-621.4894830749654,-1131.856689453125,1614.1151114634392
561,41906.96875,1388.0177001953125,-1458.0286394182503,-592.9225053470494,-1081.3826904296875,1542.3524562270377
562,50011.71875,1405.39453125,-1482.8937536601898,-595.1440538047801,-1109.687255859375,1631.625055264512
563,43465.515625,1417.91015625,-1462.5688685335176,-596.0204913701816,-1083.1854248046875,1619.9061752676105
564,35783.1875,1455.1666259765625,-1470.904398264554,-601.4554932324257,-1086.81103515625,1511.7691306024462
565,49263.875,1513.5556640625,-1553.9408175630772,-642.5413505689052,-1139.249267578125,1664.881247788634
566,44597.31640625,1407.9571533203125,-1481.2675414039863,-612.601045389019,-1085.8331298828125,1549.6742103525196
567,41317.08984375,1386.2109375,-1460.9331406450365,-608.5962054972073,-1065.421142578125,1603.6499912734494
568,44831.265625,1478.8597412109375,-1528.308113329078,-637.760161551519,-1113.1849365234375,1586.1810841120305
569,41445.15234375,1431.3780517578125,-1466.6031399605013,-597.6898731131254,-1086.1416015625,1595.3927327791798
570,44659.015625,1504.81396484375,-1565.1952255722626,-647.8891386959727,-1146.632568359375,1694.8903465741653
571,48218.90625,1501.15771484375,-1583.8993191189497,-633.6428575706568,-1187.820556640625,1630.3457842369396
572,36517.7265625,1458.6466064453125,-1528.5735667531912,-624.942883907405,-1129.538330078125,1628.7721838531859
573,38891.69921875,1454.1319580078125,-1477.6412304496985,-604.6871793171983,-1091.192626953125,1635.3941742285544
574,45039.46875,1514.1859130859375,-1528.924905004089,-636.7605648476324,-1115.2054443359375,1608.2545319559642
575,41405.5078125,1482.5103759765625,-1542.1726230040192,-619.1079699285327,-1153.830810546875,1639.2136310432427
576,38301.82421875,1486.1771240234375,-1561.8778684417223,-634.158009431741,-1159.64990234375,1587.5547335751712
577,39419.9140625,1366.395263671875,-1417.1593095821768,-579.766216620195,-1046.741455078125,1552.8497706731243
578,38526.48828125,1500.281005859375,-1530.5287114178882,-631.2801946958648,-1124.060791015625,1622.0362622937018
579,44027.6015625,1439.399169921875,-1483.9816231345687,-605.7331442781654,-1097.8106689453125,1603.968998966491
580,40943.2109375,1391.336669921875,-1480.2694842918213,-605.4606394470105,-1093.510986328125,1603.5257768205236
581,41455.8046875,1378.4373779296875,-1474.1632733273905,-594.9285406119775,-1099.04345703125,1635.6423422499806
582,35790.6171875,1431.54736328125,-1477.5936635816397,-605.9876191213652,-1089.507568359375,1588.964988355366
583,43750.78125,1479.9896240234375,-1487.1253576484332,-613.817169422266,-1091.63525390625,1623.7010671160642
584,40069.14453125,1432.860107421875,-1435.2331551825844,-591.3008750951134,-1054.915283203125,1568.826625088646
585,46201.140625,1445.080078125,-1485.9632366794708,-598.8426049414636,-1108.90087890625,1612.090941292506
586,42181.37890625,1341.53515625,-1441.2327386251418,-586.8478689371375,-1067.9810791015625,1587.586484315786
587,41133.890625,1400.1124267578125,-1505.8098371363299,-625.0283477545769,-1100.976806640625,1655.9475445817102
588,43730.37890625,1524.7869873046875,-1580.6955034561329,-647.0078732550015,-1167.1094970703125,1640.4012743404949
589,37771.7578125,1466.0118408203125,-1493.5092281862396,-616.4174127435081,-1096.36474609375,1621.587095201698
590,40033.98828125,1462.2930908203125,-1522.8284648303902,-616.0282146575887,-1133.500244140625,1586.9356313392934
591,40630.359375,1380.199951171875,-1443.520097755637,-589.0062834273522,-1068.142333984375,1601.2955188922829
592,49830.58203125,1539.741455078125,-1600.0048738063897,-642.8545923424538,-1196.4378662109375,1648.5203408498596
593,37733.01953125,1456.0716552734375,-1499.1461109255586,-609.6254262063799,-1111.90087890625,1641.0345326632241
594,36089.30859375,1501.750244140625,-1556.302731135845,-625.7262906433863,-1163.2205810546875,1635.453257566089
595,39979.19921875,1463.5980224609375,-1527.3008897438087,-608.8007231694089,-1148.125244140625,1608.9180431838072
596,42068.5234375,1542.8123779296875,-1604.206738349088,-635.6685979153406,-1210.672607421875,1666.4476160020483
597,42309.890625,1480.9967041015625,-1524.7559259850168,-608.9119324777374,-1144.804931640625,1675.673551075002
598,40745.6484375,1464.935546875,-1513.8751445659655,-612.9452631059321,-1126.162353515625,1598.7441891565882
599,48009.4765625,1499.400634765625,-1551.0775620335912,-617.2697662391432,-1167.259765625,1711.8061326615516
600,45934.8359375,1472.9613037109375,-1534.206577498047,-613.1484977259768,-1151.3226318359375,1600.2953157215297
601,43478.31640625,1464.8834228515625,-1503.5376897868823,-615.8484960367093,-1109.6114501953125,1651.4737298657506
602,47303.83984375,1530.2769775390625,-1567.9284442678104,-626.6536534013237,-1176.593505859375,1707.538266676224
603,43292.1015625,1489.28759765625,-1556.352374772831,-619.5390966029006,-1171.0166015625,1724.515375226382
604,43540.1328125,1384.947998046875,-1445.5265378510046,-582.1563214627494,-1079.2127685546875,1542.7827018361252
605,44561.62890625,1459.111083984375,-1478.822703415202,-587.6110819745809,-1114.0145263671875,1634.284408555128
606,41197.82421875,1449.7373046875,-1482.014032650798,-599.2185268264856,-1103.494384765625,1663.5219991477861
607,35358.41796875,1490.25439453125,-1556.8586740363398,-620.0929099854558,-1170.957275390625,1638.9124563440191
608,38113.0703125,1394.9168701171875,-1448.5595857555682,-585.7208024992312,-1078.5484619140625,1711.7792053025255
609,43227.82421875,1504.759765625,-1535.6453773384571,-629.6964927509083,-1132.43603515625,1649.4957298937659
610,42293.59375,1452.3992919921875,-1462.219367591598,-586.0357677666739,-1095.2294921875,1621.9752868193568
611,41442.1484375,1383.33837890625,-1444.8160382064093,-581.3246061041986,-1079.3642578125,1647.811416866658
612,37926.77734375,1372.5029296875,-1435.2473177599625,-575.3606227402944,-1074.8583984375,1642.043413504886
613,34616.24609375,1511.2249755859375,-1530.4447748597509,-611.2594004440848,-1148.981689453125,1606.502098392955
614,47752.2109375,1488.66796875,-1500.2499062340412,-605.8042449582072,-1118.0570068359375,1674.7876559140404
615,41210.1640625,1475.5115966796875,-1530.8357392797336,-613.5535638639792,-1146.602783203125,1613.781854510778
616,45244.8671875,1501.9083251953125,-1557.909735965442,-617.6049827893188,-1175.380859375,1697.7862688161601
617,38482.54296875,1553.8497314453125,-1584.8222172939463,-631.5222858906968,-1191.625,1694.0310900576062
618,40232.4453125,1543.2061767578125,-1574.8544625289037,-623.9729773898839,-1188.601806640625,1673.849221886236
619,41729.05078125,1463.22900390625,-1517.4955522981174,-604.1470175665506,-1141.685546875,1600.4121922258296
620,36947.328125,1543.3421630859375,-1577.9758343299209,-630.7046885034824,-1184.0889892578125,1647.369274139173
621,41630.25390625,1449.6572265625,-1483.3919164629028,-600.1555994884418,-1104.04541015625,1667.7644274155562
622,40618.23828125,1412.0743408203125,-1453.5013103733156,-569.4655326536242,-1105.044677734375,1603.9018548226627
623,45575.44140625,1466.1728515625,-1508.490395131637,-602.526158071146,-1132.455322265625,1706.215966326153
624,48526.29296875,1528.939453125,-1553.1058005088578,-616.9846898706267,-1170.1513671875,1704.0761314869053
625,44217.83203125,1594.4482421875,-1623.6332703105095,-643.1811060261366,-1225.565185546875,1765.27733435816
626,41577.79296875,1454.075927734375,-1506.383657591456,-592.4381151214627,-1142.4320068359375,1594.2972768006866
627,42729.390625,1466.7901611328125,-1531.9946389594338,-593.9302656398379,-1172.58056640625,1682.518255517634
628,39039.22265625,1449.227294921875,-1485.451094282045,-576.8837097909291,-1135.709228515625,1727.2102638183756
629,40580.74609375,1502.0545654296875,-1500.4856848446384,-601.5596999614231,-1123.657470703125,1712.1740181700502
630,47658.21875,1637.996826171875,-1626.7714939096418,-641.5536305393032,-1231.522216796875,1714.660792234085
631,44157.35546875,1425.932861328125,-1451.6361458280267,-575.0629512917392,-1095.7164306640625,1658.1145576026336
632,43105.9375,1459.9344482421875,-1564.0465813828441,-615.9614698371659,-1185.1064453125,1726.0260102761647
633,46161.296875,1372.8619384765625,-1497.2711707523222,-596.7114892744587,-1125.69970703125,1681.310427044448
634,48738.8203125,1518.273681640625,-1584.2890851701168,-615.3490277262891,-1211.175048828125,1739.6700511672875
635,38337.15234375,1516.845458984375,-1509.7022531229663,-594.7683881969782,-1143.667236328125,1633.026866149947
636,41989.390625,1534.0335693359375,-1519.6508566672294,-618.9122529574049,-1125.92333984375,1761.4072681099856
637,49017.3125,1524.67431640625,-1536.139201098299,-613.798101996994,-1152.92626953125,1763.8117547595493
638,39049.58984375,1490.6512451171875,-1576.8019946170093,-625.8406234295624,-1188.70166015625,1708.4562985069638
639,38356.82421875,1490.083984375,-1595.6506766505931,-624.9024995707833,-1213.4351806640625,1745.381221353432
640,47427.8125,1488.8990478515625,-1570.6130825387718,-622.731355631578,-1184.8521728515625,1740.1522423282995
641,41098.23828125,1505.345947265625,-1504.7308188812538,-604.524685553248,-1125.257568359375,1722.0244936089675
642,43531.07421875,1525.681640625,-1513.457454666085,-609.9927537164737,-1129.330810546875,1736.5267308528878
643,47277.1015625,1558.6671142578125,-1583.5192420220785,-623.8850554725936,-1199.542724609375,1751.8156747046055
644,39342.515625,1421.8583984375,-1514.4887602955523,-606.2905920442613,-1135.247802734375,1678.872739288886
645,49071.80078125,1394.5179443359375,-1495.2879403520865,-598.2985952213428,-1121.2366943359375,1685.8390113102546
646,50632.078125,1492.4647216796875,-1559.5187346343914,-623.6435512186059,-1169.843994140625,1746.66781381407
647,38043.2578125,1521.225341796875,-1529.3047996182954,-592.7870506455218,-1170.647216796875,1716.755897282283
648,35156.265625,1530.2423095703125,-1560.5889385998075,-604.0245232358865,-1195.70556640625,1622.62904458032
649,43037.6328125,1479.61083984375,-1552.224317183309,-604.7154696031107,-1184.385986328125,1755.833743136553
650,43080.03125,1524.8218994140625,-1609.5298166373684,-637.6263547161532,-1214.8792724609375,1770.390897336826
651,45175.109375,1541.2332763671875,-1590.443570129697,-623.348621612352,-1208.86865234375,1742.4915268502957
652,38466.21484375,1568.156982421875,-1606.99112047051,-626.2423253880897,-1225.93603515625,1722.2455368005342
653,41151.9140625,1546.4039306640625,-1612.9817448637332,-632.1833648334142,-1225.998046875,1737.0675847226385
654,42569.7109375,1446.423095703125,-1519.5238463118244,-605.877926545361,-1142.057373046875,1756.2263536707278
655,40407.20703125,1527.1514892578125,-1576.726560304135,-615.495665473871,-1201.53857421875,1717.377321475726
656,38982.3046875,1426.0341796875,-1466.0700399757598,-596.0658007000808,-1087.50537109375,1708.808845784611
657,38836.859375,1433.6595458984375,-1486.9736186997407,-588.233832438048,-1123.4246826171875,1724.2773530580141
658,41109.0078125,1495.0576171875,-1596.0183801833123,-619.7097560548734,-1220.3857421875,1783.2403814062748
659,43698.70703125,1481.6182861328125,-1589.7896142493423,-619.7434853857803,-1212.5576171875,1694.307406642565
660,42908.296875,1369.389892578125,-1448.0646502888455,-572.6763699438118,-1094.2353515625,1695.1990165994987
661,39920.3828125,1478.7501220703125,-1562.021312602326,-614.2018337842499,-1184.7744140625,1773.1129408046572
662,44935.296875,1467.41650390625,-1591.7391140979616,-627.7327861362039,-1205.0078125,1800.2893413465376
663,42905.6484375,1411.5859375,-1527.7098888691598,-615.5974423054687,-1140.140625,1675.2227851360344
664,41752.35546875,1429.1053466796875,-1528.5269334244924,-606.9284705858128,-1151.998046875,1719.3435934865013
665,40134.27734375,1407.159912109375,-1521.7758689150082,-604.3358249988273,-1146.800048828125,1692.1374569239285
666,40945.74609375,1371.55419921875,-1532.6452924331327,-610.6322163930304,-1152.516357421875,1728.171189760843
667,42150.8203125,1288.505126953125,-1443.8629200840628,-569.3288792902861,-1093.16748046875,1711.175807300841
668,45706.64453125,1418.1497802734375,-1543.5489505501246,-605.5529992115466,-1172.494873046875,1755.234693615293
669,37589.1953125,1428.0960693359375,-1551.4984785385284,-618.556429204982,-1166.177490234375,1735.3255678092214
670,41718.359375,1461.9864501953125,-1613.084954691923,-623.624664431124,-1236.825439453125,1792.1979147124894
671,47895.99609375,1478.367431640625,-1640.099963535286,-640.0277984767325,-1250.0902099609375,1792.0728962158998
672,43233.35546875,1446.30615234375,-1582.0450170964973,-610.7148857475297,-1214.1627197265625,1748.1330917211142
673,48295.9296875,1452.362548828125,-1594.8813480026834,-625.4867649666778,-1211.7431640625,1757.232540504927
674,47358.75,1320.531494140625,-1481.245158459726,-592.3107383493941,-1111.16796875,1770.1604361985103
675,51928.44921875,1390.907470703125,-1538.5641568881374,-605.3942109909754,-1166.46240234375,1811.3730605517412
676,50640.86328125,1454.0064697265625,-1568.9713320950846,-617.5382650784084,-1189.291259765625,1789.0343123375217
677,47295.1484375,1318.6778564453125,-1454.759928881293,-589.7495242714043,-1081.262939453125,1735.8917766164207
678,41645.08984375,1426.42041015625,-1573.6972782243834,-632.9328221387552,-1175.95556640625,1784.2078429786081
679,39241.21875,1497.955078125,-1617.2644800731252,-643.4909537789683,-1217.2169189453125,1773.5901553128174
680,45875.5078125,1465.1767578125,-1550.084470087761,-596.9927936417107,-1191.3646240234375,1776.934441575282
681,41704.35546875,1533.0887451171875,-1616.6674619083074,-634.8044431453351,-1227.328857421875,1768.133331726659
682,38803.36328125,1479.2430419921875,-1569.6172418404226,-615.3934277988824,-1192.77978515625,1755.9279543170148
683,45803.5546875,1430.70654296875,-1547.954145113453,-601.9017143112418,-1182.5654296875,1779.3904075259738
684,35372.859375,1406.649169921875,-1505.9902722247382,-578.5252407160558,-1159.331298828125,1733.9554311968557
685,45711.8203125,1512.1619873046875,-1573.3030098773738,-612.6970760012246,-1200.7574462890625,1728.0401078077305
686,42741.15625,1542.1102294921875,-1600.1041232599382,-628.8110385848645,-1214.1163330078125,1873.0600430285122
687,48104.3125,1482.19970703125,-1555.783083320502,-599.5036310664377,-1195.349365234375,1750.137522532911
688,39478.86328125,1459.6439208984375,-1579.3303377212123,-613.0049128451482,-1207.90673828125,1761.6403483001689
689,47965.37890625,1467.6005859375,-1564.3935265023354,-605.5199740711691,-1198.592041015625,1801.9440456569437
690,39797.19140625,1489.4102783203125,-1542.4626444974042,-602.7684066766467,-1174.61767578125,1798.5237877918037
691,46050.109375,1478.4163818359375,-1519.837022163143,-593.0429524877868,-1158.4925537109375,1757.8148231054433
692,38918.28515625,1397.2415771484375,-1478.1377572753877,-578.1300057199263,-1125.009765625,1792.9935858793892
693,40110.1015625,1487.7818603515625,-1574.2272381100865,-619.9306563746713,-1192.8707275390625,1751.7160029181077
694,46008.9140625,1432.8955078125,-1475.9887128220748,-600.6488397287083,-1094.1748046875,1780.112577009257
695,38174.5234375,1447.347900390625,-1490.6224180440518,-589.7635433296771,-1126.0736083984375,1824.1526155282593
696,44341.6875,1461.603271484375,-1543.7409852508983,-617.4225595525062,-1157.89794921875,1740.7669107006807
697,42332.51171875,1448.021240234375,-1531.8283042499288,-603.338333938965,-1160.612548828125,1730.790548652814
698,37546.83984375,1460.9317626953125,-1501.8564683081165,-596.255603688541,-1132.0010986328125,1815.1219545430372
699,37248.48046875,1514.765625,-1562.8444861792495,-595.0327490054538,-1209.7646484375,1825.5464504460072
700,39052.73828125,1388.261474609375,-1496.0713954919825,-591.5847540279259,-1130.608154296875,1770.9315096394519
701,44950.9921875,1420.8173828125,-1529.745192064372,-599.8681394400348,-1162.3463134765625,1798.4592138159953
702,48805.56640625,1530.3504638671875,-1611.6413745302486,-641.429915568583,-1212.764404296875,1780.7307925765417
703,39755.50390625,1373.2576904296875,-1425.917044835261,-564.3767637456795,-1076.9254150390625,1735.0510483764053
704,34674.83984375,1335.66015625,-1429.8789131750232,-572.726920211862,-1071.43994140625,1673.4526299030467
705,38612.24609375,1513.015869140625,-1608.805896244225,-626.2259379286587,-1228.224853515625,1837.2953091014294
706,45226.59375,1452.306884765625,-1516.979440308789,-603.2455103233997,-1142.16748046875,1814.4842918784182
707,39186.84375,1371.548095703125,-1435.3666820559176,-587.4197963496196,-1059.93359375,1819.5450782736234
708,34153.671875,1459.945068359375,-1558.5661343787262,-600.1524242982665,-1198.0172119140625,1812.5279683870592
709,42789.7890625,1519.443115234375,-1623.6378475642791,-640.6536055884353,-1228.730224609375,1923.2018817787268
710,34197.16015625,1488.5262451171875,-1544.104218642364,-603.5949213521059,-1175.6365966796875,1747.952986723874
711,45037.2890625,1460.4842529296875,-1519.4047641709053,-607.9231787792942,-1139.35205078125,1789.3627935863742
712,45445.859375,1445.286376953125,-1518.143834738351,-589.5188291785878,-1160.78125,1797.3092701501605
713,42416.93359375,1392.1795654296875,-1479.8639749136858,-593.2078485676657,-1108.3201904296875,1813.8956950031557
714,40067.2421875,1466.6168212890625,-1513.7250992629017,-591.7973976093616,-1152.40966796875,1825.365513151248
715,42502.8359375,1413.47802734375,-1468.8993010730653,-583.5495847956448,-1106.6871337890625,1846.2140363215299
716,47711.14453125,1394.536376953125,-1490.1158249995574,-584.6448333692639,-1131.838623046875,1788.6229421961677
717,43749.828125,1464.388671875,-1558.9921831808822,-617.9189092655502,-1176.341552734375,1833.579981339168
718,41414.26953125,1477.678955078125,-1530.0563490881545,-612.2232194303497,-1147.29150390625,1782.2979312035852
719,42063.671875,1398.7529296875,-1446.6921565925818,-587.4669129077461,-1074.031494140625,1741.0203229148426
720,43323.33984375,1476.8238525390625,-1560.4420069073371,-609.835582812228,-1188.258056640625,1865.6641822217616
721,40371.85546875,1409.1475830078125,-1486.1249993722406,-582.0083302153262,-1130.145751953125,1765.668313665867
722,37657.125,1494.2352294921875,-1532.2519381441193,-608.7287155006097,-1154.404052734375,1845.6400242491086
723,39382.3046875,1499.1983642578125,-1540.0373531524237,-603.2676939219382,-1170.9620361328125,1785.6869272905367
724,41112.08984375,1344.7147216796875,-1437.289490243958,-582.817489568682,-1068.0899658203125,1756.6781174416424
725,45683.046875,1449.5379638671875,-1531.7384931330507,-607.5977891770129,-1155.1759033203125,1828.7695090271625
726,35689.546875,1493.2843017578125,-1513.9455973240913,-595.1338310339853,-1148.5146484375,1826.812293398361
727,35329.2265625,1503.80712890625,-1529.7357876400056,-606.2288470084372,-1154.3837890625,1786.5603273937645
728,41011.953125,1429.42724609375,-1497.24562465068,-597.5879026841748,-1124.572021484375,1804.3692622772583
729,41975.36328125,1460.0576171875,-1533.5879999075757,-605.3781574343072,-1160.2623291015625,1874.4033471342566
730,34057.890625,1549.1763916015625,-1576.6237017682122,-616.102182480909,-1200.65185546875,1824.6679551508375
731,34274.484375,1452.699951171875,-1486.30887562186,-585.0293698530689,-1126.599365234375,1827.946937006699
732,40483.02734375,1481.676025390625,-1518.486901607467,-608.6940187207517,-1137.2410888671875,1781.646219917991
733,39673.40625,1529.8873291015625,-1575.3381986837812,-611.8410509180254,-1204.3714599609375,1788.0810350825434
734,32406.984375,1355.3565673828125,-1399.228808792907,-561.8260941909562,-1046.75341796875,1768.727159281374
735,44756.27734375,1423.8140869140625,-1450.2653706354445,-583.357187301049,-1083.63525390625,1818.5371805005461
736,39931.2265625,1437.49951171875,-1480.1886478810634,-573.094439620065,-1133.86767578125,1778.6889203933529
737,40965.93359375,1594.0003662109375,-1651.1468561971208,-641.9499872261305,-1261.4959716796875,1909.4329954833224
738,41344.16015625,1448.2835693359375,-1489.223163989445,-592.5248657057787,-1120.872802734375,1807.7939945823666
739,35786.2265625,1486.116455078125,-1547.6409422561337,-607.1619346428008,-1175.5987548828125,1816.4999389824015
740,38486.7734375,1401.496337890625,-1457.2827611349064,-575.7827916534159,-1101.875,1829.4548207022474
741,34912.62890625,1530.6236572265625,-1565.5500705818968,-608.496861827685,-1196.3165283203125,1868.0322462498732
742,37262.203125,1522.30908203125,-1572.849286301006,-601.7805303496682,-1213.8359375,1835.3682808997978
743,37722.34765625,1432.9373779296875,-1507.9775107563696,-598.8640239377729,-1136.391845703125,1826.4552272560352
744,43153.89453125,1384.7008056640625,-1441.4730824833725,-580.4870535792772,-1076.2325439453125,1847.5677263244197
745,39864.4765625,1574.2996826171875,-1626.7921441202457,-641.0809152861528,-1232.1390380859375,1804.054917153918
746,40822.15625,1429.701171875,-1497.5790144859384,-597.2542764848599,-1125.4058837890625,1819.267235044917
747,46361.5390625,1471.940185546875,-1574.5738555723224,-617.9882941962572,-1195.73193359375,1845.5574500937355
748,38939.2890625,1485.29150390625,-1563.4941984481318,-611.3731266344106,-1190.1513671875,1852.472007572857
749,32987.40234375,1437.5958251953125,-1506.2761148959194,-581.5541142768484,-1155.9024658203125,1823.0914041671901
750,41034.515625,1417.1214599609375,-1512.8208228581107,-599.2475194999002,-1141.9666748046875,1877.522255435822
751,44045.49609375,1446.970947265625,-1545.5885905796104,-605.4177826824971,-1175.2135009765625,1896.945572574163
752,40057.5859375,1480.2529296875,-1565.6712527825466,-617.8258402391307,-1184.806884765625,1838.2897817467772
753,35225.5234375,1419.0908203125,-1514.5470857896591,-600.2306251079525,-1142.8955078125,1842.178027182056
754,34664.625,1461.8489990234375,-1570.5316454193853,-614.9924451563807,-1194.424072265625,1840.7522345940058
755,35889.97265625,1426.350341796875,-1536.6213810503937,-616.0812348228402,-1150.6751708984375,1782.2573135012526
756,38829.0234375,1473.249267578125,-1568.5798155721413,-608.3272577859598,-1200.315673828125,1864.7488006098606
757,34007.25,1284.07666015625,-1415.7910019878937,-571.1477307371504,-1055.8040771484375,1781.0841961130118
758,34572.734375,1338.2320556640625,-1497.5330000475883,-591.5743849606156,-1132.4482421875,1820.4955524965055
759,33576.5390625,1293.8980712890625,-1435.6769217776775,-560.733952258405,-1093.6787109375,1780.3983946975932
760,41501.49609375,1422.928466796875,-1570.5571184554938,-629.4616580027025,-1176.369384765625,1837.868777959106
761,40563.1015625,1283.033447265625,-1434.7109377954139,-563.8268316421643,-1088.605224609375,1803.5474038388345
762,41325.078125,1278.48779296875,-1482.9182920345613,-584.4720822261222,-1123.0577392578125,1777.0645886985064
763,40376.828125,1372.6632080078125,-1571.0046046880498,-611.8727560277521,-1198.914794921875,1899.5432195389633
764,43468.0234375,1394.585693359375,-1553.842688136288,-607.7959547087278,-1182.558349609375,1811.3933601804047
765,37671.12109375,1396.223388671875,-1552.345619452034,-610.3816190909936,-1177.455078125,1866.3431378980456
766,43657.78125,1386.298095703125,-1560.0911957976411,-612.5604246181437,-1184.41357421875,1842.1856259346343
767,40436.53125,1336.2216796875,-1521.0880046525092,-598.0445837856323,-1153.8043212890625,1819.7338726920977
768,39406.5546875,1349.322509765625,-1503.2529929448742,-586.5780087490459,-1145.84375,1817.1221766575811
769,39793.734375,1232.9443359375,-1408.0718244076472,-576.4688538294981,-1039.503662109375,1777.8151681838458
770,39344.07421875,1464.8170166015625,-1633.9983070890435,-647.4047506528922,-1233.241943359375,1851.7602764196204
771,37900.1328125,1424.112060546875,-1602.4834446298742,-619.0508682893905,-1229.290771484375,1849.8311794118304
772,41367.109375,1382.8375244140625,-1551.7046469081838,-626.0075479021476,-1157.121337890625,1903.6327920442257
773,43278.390625,1345.4775390625,-1501.7951389017871,-583.4196450560709,-1147.969482421875,1739.4634507277467
774,44686.59765625,1398.6356201171875,-1573.3237620049624,-624.2057187061293,-1186.3975830078125,1872.300929463509
775,42598.5546875,1437.66943359375,-1608.2863033592048,-627.874589423025,-1225.5146484375,1899.5247099479143
776,35016.34375,1288.191162109375,-1447.2663004456483,-570.355569162818,-1096.138427734375,1880.2242620657182
777,36730.046875,1310.9453125,-1498.1811992991245,-588.0068385840852,-1137.7178955078125,1803.6655894935343
778,36113.66796875,1295.3583984375,-1480.9803517271093,-594.06916703007,-1108.638916015625,1869.5418988225524
779,38702.421875,1401.5804443359375,-1553.0438027278888,-614.4326809530512,-1173.263916015625,1769.0734833325628
780,37572.0,1388.7344970703125,-1547.170911637067,-598.3309794367079,-1186.0499267578125,1911.1261415001536
781,37081.11328125,1367.38330078125,-1553.5239607356975,-596.7265579060206,-1195.996826171875,1882.3533474059084
782,42029.515625,1281.5211181640625,-1452.7859238738915,-581.1181270088327,-1089.584716796875,1832.0450583029624
783,42746.453125,1394.4393310546875,-1526.7854558454783,-607.4523431992113,-1149.1663818359375,1869.1814798209057
784,48513.45703125,1368.5479736328125,-1488.1240459396213,-569.6621496914595,-1148.077392578125,1844.6273332012963
785,37552.08203125,1194.405517578125,-1402.2598870277077,-563.1993410624236,-1048.8255615234375,1809.2839301902468
786,39944.94140625,1294.3974609375,-1492.7315291185378,-577.644866164632,-1143.8582763671875,1841.434051742276
787,40231.671875,1329.914794921875,-1494.5667075787449,-604.2331151162051,-1112.9169921875,1802.8903793658517
788,39796.64453125,1499.641845703125,-1638.2339988612139,-624.414147382978,-1267.2747802734375,1860.8112319771717
789,36114.91796875,1335.3968505859375,-1507.5704214920404,-590.7855231513385,-1145.981201171875,1920.5852652789813
790,44753.25,1437.9454345703125,-1603.8969656610527,-624.7296975385995,-1223.959228515625,1840.5155858970388
791,40960.6015625,1521.2469482421875,-1633.8372902990334,-628.6925459266654,-1256.430908203125,1901.95857478329
792,34250.5,1277.7337646484375,-1387.8887327378156,-554.5296996153434,-1041.69873046875,1775.5378266202938
793,37025.36328125,1300.5452880859375,-1473.0813786218537,-588.3306064930871,-1105.9384765625,1787.0002821849173
794,39992.78515625,1414.05859375,-1587.2167899339008,-599.4730458746213,-1234.6796875,1902.7364173885387
795,35473.8203125,1246.5040283203125,-1400.9470810492312,-571.281229769557,-1037.082275390625,1827.1715811793533
796,36873.859375,1416.719970703125,-1506.0287780009862,-587.4801784851311,-1148.185791015625,1819.013282234226
797,43020.67578125,1331.7825927734375,-1428.7065627590403,-569.053979739605,-1074.565673828125,1907.2908319454775
798,38583.28515625,1271.946044921875,-1426.3795855067315,-570.8501623409445,-1069.4117431640625,1826.1733895850696
799,36521.625,1398.6536865234375,-1552.5226672034441,-603.5662208398535,-1186.195556640625,1872.0778836948825
800,40279.95703125,1370.3260498046875,-1492.3621722211706,-591.241000689903,-1126.4014892578125,1945.9783050265273
801,37951.05078125,1317.4263916015625,-1454.7093161415228,-584.9016290768902,-1087.259521484375,1897.7532616096917
802,40010.8515625,1384.261474609375,-1556.1160241292262,-608.3905248578576,-1184.6568603515625,1837.4331220085248
803,42223.8984375,1306.72509765625,-1458.3264765621307,-578.3946607847843,-1099.914794921875,1880.107394380769
804,39791.7578125,1363.6287841796875,-1449.6440277224337,-588.7021615346825,-1076.1773681640625,1898.624657052819
805,44660.78125,1461.7943115234375,-1551.5510094068077,-619.4614463373152,-1165.11181640625,1854.7387768470885
806,37454.1640625,1335.6595458984375,-1461.8695992362725,-578.9162261319386,-1103.691650390625,1864.2612289805434
807,41855.4296875,1249.7725830078125,-1447.1282188307223,-581.3396126292374,-1082.23583984375,1881.9059880340174
808,41280.203125,1301.062255859375,-1534.0267245367413,-607.3899240635578,-1158.2960205078125,1896.1263520388097
809,46097.48046875,1342.0389404296875,-1527.6832636969168,-591.1951949500482,-1170.610107421875,1926.5724938016995
810,40878.05078125,1389.717529296875,-1492.8129210336183,-594.5483369577726,-1122.830810546875,1966.8863632894015
811,36966.28515625,1494.9886474609375,-1582.038032137158,-614.6336482842662,-1209.2554931640625,1936.5748147714198
812,50788.58203125,1395.8822021484375,-1514.381391858802,-609.0917308857003,-1131.612060546875,1899.9898497948457
813,37910.8984375,1346.2510986328125,-1532.1669616075417,-606.6507325558176,-1156.895263671875,1921.2064960260298
814,41074.19921875,1342.3914794921875,-1543.2729507940007,-610.8904445452735,-1165.478271484375,1922.2380471844556
815,39395.06640625,1237.5955810546875,-1406.378900666623,-567.2037435741111,-1048.968994140625,1873.1756592195898
816,36817.98828125,1444.201171875,-1535.226145165966,-598.8957796631316,-1170.4129638671875,1931.7310493651514
817,38155.171875,1406.8438720703125,-1486.5180048491934,-580.0397878285627,-1133.0977783203125,1893.0342640107206
818,39357.6328125,1446.13330078125,-1587.4455444749387,-624.8519606675894,-1203.241943359375,1894.1193094919522
819,36254.8515625,1230.755126953125,-1428.6061320064625,-570.7940556461028,-1072.26513671875,1816.4274675162756
820,40734.8671875,1173.4560546875,-1398.8982789683755,-572.5254848967904,-1032.9659423828125,1924.5574035991372
821,47008.9609375,1360.0909423828125,-1552.2751524613163,-615.224233944753,-1171.313720703125,1906.9698853140253
822,41608.125,1393.02783203125,-1492.5428697140803,-597.8339325385085,-1118.38623046875,1958.99560899267
823,35769.5546875,1317.67919921875,-1386.9969778068498,-566.7849362746015,-1025.2650146484375,1832.3830606202928
824,50164.12890625,1381.5003662109375,-1481.1807097271962,-589.2382164476385,-1114.9281005859375,1888.2614389823302
825,40271.28515625,1169.5615234375,-1382.144673222273,-570.5035721118725,-1014.5513305664062,1868.3021215879203
826,46277.3125,1331.11083984375,-1552.7582847592025,-608.8344237249878,-1179.90478515625,1978.31069796341
827,49984.69921875,1384.5997314453125,-1596.825456843229,-638.8022890490311,-1197.5289306640625,1925.5288783120816
828,39507.03125,1415.856201171875,-1522.5393848664867,-609.6365173187379,-1141.1285400390625,1902.4762356625488
829,37304.5078125,1283.6646728515625,-1358.094197902586,-562.3883940450287,-994.6322631835938,1859.8956821076988
830,44414.35546875,1263.7918701171875,-1357.139601483942,-551.9551047459253,-1006.4805908203125,1877.075901543035
831,45126.40625,1414.1820068359375,-1600.352029441038,-631.7357597716355,-1210.770263671875,1964.2477244920042
832,38746.8046875,1224.99755859375,-1405.7795890941281,-555.1527284909967,-1063.2835693359375,1943.450401734799
833,41269.9296875,1373.2584228515625,-1530.6843565490697,-614.8110804424755,-1144.841552734375,1947.8576959428788
834,39312.66796875,1419.4932861328125,-1504.6342268325584,-616.7730143852725,-1109.8265380859375,1898.049211181119
835,42365.51953125,1401.051025390625,-1467.873941158506,-591.9361479004874,-1094.922119140625,1886.8022037809908
836,43718.0546875,1278.7493896484375,-1385.5729455783314,-558.1116389064866,-1034.32666015625,1825.976283915754
837,46361.51171875,1316.0322265625,-1518.448739989889,-608.7219622538846,-1137.158447265625,1926.827500368255
838,41115.8203125,1222.8538818359375,-1433.328413040198,-571.5922491483461,-1077.1702880859375,1939.694634024745
839,44254.6171875,1307.514404296875,-1487.740795047933,-598.3903482403398,-1111.68798828125,1902.3710416320478
840,38463.62109375,1459.6329345703125,-1557.9867237505873,-610.2039670643767,-1184.7283935546875,1990.7474587298082
841,38901.625,1466.408203125,-1549.5673526172448,-619.6598594370686,-1162.3843994140625,1988.2222667825833
842,47536.08984375,1386.220458984375,-1485.5043320235536,-592.8605650170443,-1115.8046875,1963.175646037438
843,40657.01953125,1212.6256103515625,-1408.1974412029354,-576.7504180257885,-1039.308837890625,1879.740175408869
844,40412.265625,1308.59912109375,-1530.907110630515,-614.9961632018715,-1144.888671875,1907.7437314190481
845,37149.8984375,1329.2962646484375,-1497.8885658332617,-596.623634123663,-1126.5811767578125,1906.7190570213286
846,37005.203125,1267.0430908203125,-1356.3451309173042,-555.2509658473218,-1001.3677368164062,1838.2033409140931
847,40750.8671875,1386.1234130859375,-1452.516058830683,-584.7628442928183,-1084.6915283203125,1946.121654504463
848,43896.16015625,1299.72705078125,-1412.418531843532,-576.929998330284,-1044.360595703125,1839.7651793798798
849,40753.8515625,1267.292724609375,-1464.7864416334553,-596.2747258702067,-1085.6396484375,1893.9143780823879
850,43571.8046875,1233.7181396484375,-1453.8693244552205,-598.2197126856039,-1069.56201171875,1946.4875776841045
851,51003.17578125,1315.35400390625,-1490.2799884553297,-606.896938800369,-1104.2288818359375,1940.1932586857558
852,34893.4453125,1317.35546875,-1399.1271743958182,-565.6001296867914,-1041.9088134765625,1848.167255732305
853,49852.5234375,1341.3709716796875,-1405.5888938481103,-570.1611370783414,-1044.28466796875,1892.5626683767712
854,39512.66015625,1341.5821533203125,-1443.6482848996181,-581.3640991727707,-1077.855224609375,1922.7434011445096
855,44834.83203125,1306.16259765625,-1502.6367240835557,-598.7124701328686,-1129.9052734375,2001.3302929225008
856,41484.68359375,1191.5369873046875,-1406.6989283016328,-570.1945848698174,-1045.6304931640625,1912.9639234822691
857,53319.53515625,1281.004150390625,-1464.3971742281942,-602.3496495993127,-1077.5594482421875,1929.0227193720648
858,37009.36328125,1366.890625,-1471.6611485645321,-594.1549842082109,-1096.8826904296875,1941.6007546492651
859,39602.984375,1373.9881591796875,-1457.8423347276207,-596.1697882881892,-1077.090576171875,1882.3375924072066
860,43853.91015625,1318.0274658203125,-1422.0612326489595,-573.6957087733617,-1060.456787109375,1919.1244731822721
861,44003.390625,1430.5931396484375,-1624.454844703781,-639.9001567245222,-1230.693359375,1984.8935033444416
862,41860.98046875,1298.960205078125,-1498.093706448357,-588.7686855716437,-1136.65625,1861.5661212190764
863,46885.56640625,1212.9442138671875,-1364.6816643985676,-555.3620051483379,-1011.6494750976562,1872.537287427797
864,36917.5,1400.66552734375,-1468.3251891592354,-582.4543082633825,-1107.3385009765625,1882.2277028405547
865,39920.875,1400.24755859375,-1472.618026056764,-585.9813432109254,-1108.2958984375,1939.3247305591392
866,43680.4609375,1365.3651123046875,-1469.2176211724548,-583.3018147180346,-1107.394775390625,1898.3026350605257
867,41345.77734375,1302.2332763671875,-1495.9731565353732,-593.2956604463321,-1128.346923828125,1943.1233366071942
868,46456.09375,1274.0648193359375,-1494.330804136762,-603.5102799352198,-1113.525634765625,1919.2560996209602
869,42323.98828125,1278.960693359375,-1456.1770015923519,-585.124782474919,-1088.8153076171875,1898.2498361930818
870,36165.7578125,1323.39599609375,-1412.9900747635866,-575.5627464793156,-1046.7841796875,1855.3288487640643
871,40407.62890625,1319.4083251953125,-1380.0475265714515,-559.8393117173748,-1025.26025390625,1905.9208581696475
872,46119.0,1437.9954833984375,-1546.9236096256209,-609.3973800510894,-1171.90771484375,1976.2273726546414
873,37780.94140625,1289.9945068359375,-1489.2235520228178,-601.6360509815989,-1109.484375,1919.5139035962732
874,45827.99609375,1234.870849609375,-1461.741690779259,-599.4445992940715,-1077.871337890625,1898.688426288897
875,47318.87890625,1276.378173828125,-1466.641523509318,-598.405972368488,-1085.29443359375,1863.2513464760914
876,39624.15234375,1313.5426025390625,-1405.7737170516425,-571.7479620014228,-1042.5322265625,1905.0587648970225
877,39715.14453125,1449.45751953125,-1525.6782106731955,-610.109614742634,-1144.460693359375,1882.756246914464
878,43992.9921875,1271.3406982421875,-1375.6237406359446,-561.7136289388798,-1017.3876953125,1846.248781282997
879,40151.22265625,1287.26904296875,-1477.1553315536332,-591.0569450916004,-1107.6229248046875,1999.0281738373508
880,40563.33203125,1267.3387451171875,-1459.034622340066,-585.7596486525367,-1091.59375,1889.147568541962
881,42882.03125,1345.87255859375,-1490.948234349357,-585.5945785729291,-1131.692138671875,1958.27960384246
882,34765.1875,1379.9365234375,-1446.5145624143843,-582.8943855179313,-1079.525146484375,1900.2107292956978
883,41389.1171875,1298.565185546875,-1339.1596998181644,-551.1282672442015,-985.039306640625,1934.1976507327345
884,49596.52734375,1310.493408203125,-1402.1599160260016,-572.3704371197575,-1037.23681640625,1851.8790267823074
885,43545.49609375,1177.1600341796875,-1370.5424715507388,-563.0164423064872,-1009.4075317382812,1858.3483201820866
886,42413.6171875,1196.8800048828125,-1420.1334854671532,-586.0754170852044,-1042.572509765625,1926.986994352371
887,50576.328125,1190.8228759765625,-1381.824465075605,-562.3700569574762,-1024.3179931640625,1908.450839538323
888,40747.36328125,1345.764892578125,-1450.7567645859951,-578.9855131712789,-1089.714111328125,1914.8877652869146
889,38930.11328125,1270.2261962890625,-1357.0405568903866,-569.3299088540109,-984.6383056640625,1918.965995117576
890,42454.90625,1322.362060546875,-1431.142686503385,-581.8047951342583,-1061.67236328125,1889.566678457235
891,39398.5390625,1158.34326171875,-1337.0766087726126,-550.7149019474997,-982.9521484375,1830.7238661312367
892,38203.5703125,1181.10693359375,-1374.624806952385,-568.6589722069459,-1007.457275390625,1851.4727960880214
893,46676.2734375,1344.654541015625,-1497.2760840600636,-600.9269531558083,-1120.4364013671875,1901.9075403859676
894,41206.2890625,1412.1236572265625,-1484.2179466060086,-595.4761088934449,-1110.92724609375,1961.4918428681522
