Wnight963/UAV_optim/maddpg-master/experiments/learning_curves/exp_4/agent_0_traj.csv
,q_loss,p_loss,target_q,rew,target_q_next,target_q_std
0,286740.96875,4.1973958015441895,-339.76103582213693,-340.68896018420423,1.1599054336547852,413.56797460222487
1,277110.59375,9.255669593811035,-346.38593290935523,-347.2697546397233,1.104777216911316,402.1408176386475
2,289807.125,17.93197250366211,-349.28876739284084,-350.1771797812803,1.1105154752731323,423.2983217805441
3,274570.8125,30.34619903564453,-354.8520436356422,-355.69348610121915,1.0518031120300293,411.83356159587413
4,263438.3125,46.7292366027832,-348.2597041373619,-349.0220597068435,0.9529444575309753,420.11696866410733
5,257916.734375,70.1716079711914,-358.08421194372227,-358.8077474400214,0.9044193625450134,430.85246928317355
6,232676.578125,100.33502960205078,-369.84926241022754,-370.52640039348955,0.8464224338531494,420.5471935687087
7,176430.84375,133.1567840576172,-321.68371788822293,-322.29335862476654,0.7620509266853333,413.0983861119165
8,176068.78125,192.6320343017578,-382.0121619695482,-382.6060947252306,0.7424159049987793,426.62663848290174
9,139439.34375,241.51516723632812,-363.49060763321927,-364.0009412604419,0.6379170417785645,432.7517234867477
10,107130.921875,293.19293212890625,-346.77016572856746,-347.19607854245567,0.5323910117149353,426.70293983676214
11,78675.375,376.9740905761719,-365.9722378598769,-366.3420492684668,0.4622642695903778,414.14939511854703
12,69516.1484375,438.5107421875,-336.55621276083184,-336.8217785381661,0.33195722103118896,432.83504758273233
13,76364.5078125,558.031982421875,-391.6669188988771,-391.8716438412824,0.2559061646461487,445.0867324351016
14,99572.984375,564.9345092773438,-349.47412576927286,-349.5234293558109,0.061629489064216614,432.5023516716211
15,115187.1484375,593.9439086914062,-349.0735236531916,-349.0354948225415,-0.04753604158759117,425.44126013090494
16,128614.265625,599.5831298828125,-362.0945127695999,-361.8770850924924,-0.27178460359573364,433.1044237894843
17,124858.96875,570.3138427734375,-344.06085932249414,-343.6561836666435,-0.5058445930480957,420.2925110524788
18,132172.90625,577.765380859375,-365.106821041241,-364.4801555920993,-0.7833318114280701,441.35665820507296
19,115169.8359375,528.9196166992188,-367.7342888249882,-366.86286600324644,-1.0892785787582397,437.64875723867425
20,101203.875,506.533447265625,-366.35172179652545,-365.18997451702126,-1.4521840810775757,430.8523567717382
21,79464.28125,446.61126708984375,-354.5916121529625,-353.20527284789046,-1.7329241037368774,437.80086441181686
22,62240.80078125,410.5939025878906,-374.17144245220396,-372.4481663372919,-2.15409517288208,442.83748359459224
23,60462.0703125,354.3316955566406,-353.6283243717115,-351.63359035319434,-2.493417501449585,437.85081538840996
24,57969.3046875,340.8507080078125,-376.6493013308876,-374.25595792412037,-2.9916794300079346,437.025912299285
25,60318.3125,316.16632080078125,-358.9237867011476,-356.2385693160488,-3.3565216064453125,441.5643691391755
26,62233.2734375,286.48101806640625,-331.06402826641823,-328.258715928622,-3.5066404342651367,427.260452907297
27,67278.359375,312.94940185546875,-376.06317176490563,-372.6917667781237,-4.214256286621094,437.2650637889904
28,64230.1796875,305.5235595703125,-360.1536109006411,-356.60377768847684,-4.437291622161865,431.2828354937284
29,64113.14453125,341.6470031738281,-371.96306946887364,-367.86574468471537,-5.1216559410095215,443.66000977593586
30,60442.8984375,373.15460205078125,-381.3258475896976,-376.7739907649419,-5.689821243286133,445.0515558344956
31,52996.515625,378.1930236816406,-356.18919262849784,-351.4100405059621,-5.973939895629883,429.085121280188
32,53574.88671875,422.43023681640625,-390.820099646317,-385.290960277918,-6.911423683166504,435.2512089155544
33,54788.90625,408.83563232421875,-365.6624602317313,-359.8471462799438,-7.2691426277160645,438.6407647453163
34,53991.61328125,406.676513671875,-368.6473955192103,-362.3135403772316,-7.917319297790527,438.93520756033735
35,64931.57421875,412.77606201171875,-399.74927278629553,-392.6039646677724,-8.931634902954102,448.65819879884316
36,54446.08203125,380.5708923339844,-377.02151391788317,-369.4284688249503,-9.49130630493164,433.5049021178331
37,54172.6015625,353.5494384765625,-375.6646894458214,-367.8427715081371,-9.777398109436035,434.1067445669478
38,54141.46875,372.15948486328125,-399.05844769056245,-390.21473122399584,-11.054645538330078,447.9878524159152
39,57626.515625,368.6396484375,-373.0942114009674,-363.636963503695,-11.82155990600586,455.225442635232
40,53594.90234375,367.3758850097656,-373.1549915157517,-363.21790190688586,-12.421361923217773,438.8589914493367
41,57581.33984375,404.64666748046875,-409.1976886256587,-398.1106519834128,-13.858796119689941,468.3195244504015
42,59265.2421875,388.8729248046875,-390.99776481395463,-379.58757218459436,-14.262741088867188,443.8217596046239
43,54204.3046875,388.0274658203125,-384.78637065251445,-372.75648769280144,-15.037353515625,449.64918712621375
44,51918.72265625,366.8483581542969,-375.0694871053089,-362.5816149801791,-15.609840393066406,450.7457955834767
45,52843.61328125,373.2236633300781,-386.0553468850047,-372.5858723755939,-16.836841583251953,445.98638418652985
46,55757.328125,398.92633056640625,-416.76453131159076,-402.20926722399895,-18.194080352783203,456.68899747287304
47,60246.3671875,377.24493408203125,-377.0409352060318,-362.2303274174597,-18.51325798034668,456.6665990941887
48,50531.125,396.0499267578125,-406.2814226604077,-390.1565035714429,-20.156147003173828,460.43432945933546
49,51958.33984375,374.5912170410156,-387.97263455733344,-371.50280223048907,-20.587291717529297,453.40645199757853
50,50160.265625,390.0657958984375,-405.80069027114166,-387.74104343758165,-22.57455825805664,467.15709642618526
51,47405.36328125,375.8016357421875,-393.72717713878166,-374.9862611449536,-23.426145553588867,450.83664652342907
52,53728.62890625,389.3817138671875,-416.696484437787,-397.0296593623132,-24.583532333374023,455.19463019272257
53,54441.6171875,380.5439758300781,-394.183948111676,-374.61998456955405,-24.4549560546875,461.1834873840596
54,54035.34375,397.8751220703125,-396.8919336765955,-375.9737261184617,-26.14776039123535,472.63272807047406
55,56918.03125,376.73150634765625,-394.6002013184294,-373.27405182249385,-26.65768814086914,464.72829283645416
56,53797.48046875,384.135498046875,-410.38540326307634,-387.81685878029316,-28.21068000793457,460.08007553865605
57,51209.73046875,396.3581237792969,-420.0700188881484,-395.73357895260557,-30.420549392700195,470.3237284120361
58,48915.375,396.85809326171875,-407.3268117035676,-382.63078508260617,-30.870033264160156,467.91441881931024
59,50372.796875,414.2369384765625,-421.9944510555009,-395.37505177073155,-33.27424621582031,468.02371587473414
60,56322.5,392.8348388671875,-423.83684575180473,-397.2438096509485,-33.241294860839844,471.36932413641773
61,48732.140625,373.47686767578125,-401.6111359334218,-374.1344672751512,-34.3458366394043,460.29088251835776
62,46984.01171875,392.3738098144531,-430.67031758582925,-400.6892498287245,-37.47633361816406,480.3556295879267
63,50667.3828125,348.3330383300781,-397.67370848755195,-368.6739928795777,-36.24964904785156,471.4781008386607
64,56523.34375,372.6404113769531,-425.47576601506876,-394.0702347610305,-39.25691604614258,478.5997962038787
65,52619.58203125,406.73651123046875,-461.39239558961935,-427.606418942546,-42.23247146606445,484.3358888544243
66,50301.625,392.0957336425781,-420.2215004781374,-386.9314837482172,-41.61252212524414,479.4726420941819
67,52080.4296875,399.9146423339844,-441.9298505240787,-407.07498436323056,-43.568580627441406,484.71220266041655
68,47838.828125,419.58099365234375,-463.6434370765971,-426.2658722927546,-46.72195816040039,485.6044901789483
69,46063.96875,368.3125,-408.6194833209696,-373.64028275731124,-43.724002838134766,475.7269176013297
70,47923.46484375,402.59124755859375,-442.9914169766704,-404.05341275004866,-48.67250442504883,496.686439468487
71,44481.03125,370.5662841796875,-414.2592140846862,-375.9772111860342,-47.852500915527344,474.3031821123961
72,47471.78125,390.5950012207031,-445.0720628951299,-403.49511110358003,-51.97119140625,487.1519124879858
73,53591.46484375,371.2451171875,-445.2938035779273,-404.37649845264866,-51.14663314819336,505.974659625802
74,47157.6796875,380.4261169433594,-435.32717318356674,-392.1455207273707,-53.97706604003906,486.5225635869118
75,49004.2734375,398.44818115234375,-457.065155164675,-410.7190110863843,-57.932682037353516,503.0413848490333
76,44364.09765625,392.28228759765625,-458.78024607502647,-412.1240017366295,-58.32030487060547,495.4628651724886
77,45740.6953125,390.1715087890625,-444.75843649355465,-397.2387675395696,-59.39958953857422,506.246974991919
78,50151.609375,389.066162109375,-446.2465360434544,-398.44874723130124,-59.74723815917969,487.5942941686197
79,45857.00390625,426.5673828125,-470.98230539293377,-419.1590176745545,-64.77910614013672,498.4597617789157
80,51656.890625,399.276611328125,-462.59543941985817,-410.6152415924566,-64.97525024414062,498.39288805935814
81,47035.01953125,398.36285400390625,-468.1702920016188,-414.0350827904006,-67.66901397705078,495.761529304466
82,43970.55859375,375.7013854980469,-440.0655634438144,-386.35177981716015,-67.14222717285156,501.4128435601727
83,41914.6796875,396.0509338378906,-463.15395440956246,-407.6906182312018,-69.32917022705078,499.6318688899455
84,37944.9609375,401.2836608886719,-458.2080476309628,-401.1407608102299,-71.3341064453125,497.3933424029223
85,41682.69140625,396.5606994628906,-456.9320668088621,-398.8907061510078,-72.55170440673828,492.4277155424726
86,42516.0859375,402.9300231933594,-465.7595775599737,-406.53487907470844,-74.03086853027344,489.9682693428852
87,43588.8203125,428.669677734375,-482.97725836594776,-418.6029561581557,-80.4678726196289,509.6750768423823
88,40192.49609375,386.6409912109375,-453.0235940194933,-391.50553590418826,-76.89756774902344,502.37450145785175
89,42656.984375,383.4944152832031,-442.44049384527926,-382.1265721487787,-75.39239501953125,510.5862801217748
90,42148.66015625,416.5305480957031,-470.4174605589678,-404.5623480136592,-82.31889343261719,499.2753710794095
91,41125.8515625,433.4224853515625,-488.77528904105543,-420.4793297707232,-85.36994934082031,519.0141711063668
92,43513.25390625,409.5150451660156,-463.88709464215106,-395.10148862437245,-85.98200988769531,513.9474484338385
93,34891.921875,391.0700378417969,-456.8337430078583,-385.89997746468464,-88.66720581054688,525.4260413850927
94,40655.3671875,401.5666198730469,-489.72247637210006,-416.07576891503174,-92.05838012695312,514.2276096028346
95,39970.0078125,392.2229919433594,-461.9796066601547,-389.87407406541934,-90.13191986083984,529.2707597829622
96,40186.0625,408.93853759765625,-466.523046796176,-392.9717929920713,-91.93907165527344,519.9910588358982
97,40924.46484375,434.70806884765625,-475.1087714901737,-400.6370862305416,-93.08960723876953,506.84775144482234
98,38506.296875,462.1095275878906,-488.54180649531634,-410.14924591648025,-97.9906997680664,513.2238196979345
99,37903.06640625,456.0932312011719,-496.68914018289803,-415.6966933518081,-101.24055480957031,522.2039127482752
100,36744.6953125,439.3450012207031,-497.69464538748787,-413.11552548838716,-105.7238998413086,521.1212046470482
101,36387.9921875,415.3855895996094,-485.72747767227867,-402.1133859545358,-104.51762390136719,519.4200275975674
102,37463.7265625,415.29644775390625,-493.2442998379796,-410.39290063674923,-103.56425476074219,522.1875100132282
103,39881.01171875,451.5488586425781,-507.5429205182007,-420.4403762706088,-108.87818145751953,526.7410064296445
104,37183.57421875,459.4644470214844,-504.14583072627136,-412.4667781500873,-114.59881591796875,545.3695209789344
105,38324.0390625,447.286865234375,-502.81498987474413,-410.9475244701018,-114.83433532714844,519.8193466556507
106,38372.21875,411.0783386230469,-472.7663123929624,-386.4638706738055,-107.8780517578125,532.278133965713
107,37227.76953125,436.9564208984375,-490.2780876530485,-399.2746482513995,-113.75430297851562,544.3912703762503
108,38900.90625,452.891357421875,-497.38755792691256,-403.53424220532645,-117.31664276123047,532.0070353792304
109,41018.25390625,486.5030822753906,-533.9550402430608,-432.0212025465293,-127.41729736328125,534.170930723485
110,32504.5390625,432.515380859375,-481.0471839012833,-386.6301105813785,-118.0213394165039,532.0320045740933
111,32161.37109375,424.7736511230469,-481.5173921796955,-386.17794461634435,-119.17430114746094,522.5681634106012
112,35877.46875,446.9707336425781,-500.51152611065083,-400.03539330608805,-125.59516906738281,535.2367721805047
113,38353.27734375,495.41656494140625,-541.5818265326343,-431.7253309737854,-137.32061767578125,537.7861446448611
114,31888.98828125,457.53436279296875,-495.72325710461064,-392.45603535998436,-129.0840301513672,549.9690201864886
115,32933.0703125,492.3336181640625,-533.6288459423149,-424.2343551389557,-136.7431182861328,540.3115025600872
116,35550.3125,495.92633056640625,-529.2253593823347,-415.52513411600944,-142.12527465820312,552.2903833751317
117,35272.33984375,482.3287048339844,-541.1535756768908,-425.53253761087706,-144.52630615234375,569.683211862861
118,38176.4921875,492.1557922363281,-557.2828397840094,-437.49397149718783,-149.736083984375,558.1107378885853
119,34943.42578125,478.4009094238281,-534.4471231211892,-418.5106354150847,-144.9206085205078,539.7746642447115
120,39107.375,517.0567626953125,-559.5391289020602,-434.0110803792664,-156.91006469726562,551.6072546935804
121,35054.47265625,474.1313171386719,-520.2570538052908,-401.7581492833644,-148.12362670898438,551.2944768627862
122,32187.2734375,471.6297607421875,-514.6392839469008,-398.76727009625097,-144.8400115966797,549.0398698443919
123,35098.703125,469.300048828125,-509.202247908219,-393.30387345321594,-144.87295532226562,555.772319452795
124,34705.8046875,514.7067260742188,-557.128744238554,-428.39711005486026,-160.91455078125,553.891737132397
125,35438.9609375,502.7913818359375,-553.1475102682241,-420.7277465432992,-165.5247039794922,577.1848996993516
126,31882.8203125,488.77642822265625,-537.7213274929968,-410.7396276954798,-158.7271270751953,546.5146541440419
127,37906.4140625,503.1230773925781,-546.112247215435,-414.97396914350344,-163.9228515625,569.7104730151862
128,38617.4921875,505.1900634765625,-534.6259456148949,-402.78351316088765,-164.80303955078125,563.1752523982351
129,42214.25,519.5882568359375,-555.4827434628439,-423.0041859892366,-165.59820556640625,562.7668842211482
130,40664.56640625,508.2784423828125,-541.4063246111916,-406.7514823220271,-168.31854248046875,558.9848345140194
131,38548.6640625,495.7392272949219,-547.871498289712,-414.8411505759538,-166.28793334960938,580.1679272985735
132,35621.671875,501.00189208984375,-559.3447602160302,-418.836229662693,-175.63565063476562,578.7348381060779
133,33526.4296875,520.6695556640625,-580.5739353191077,-434.9952800636267,-181.97332763671875,563.1224253011749
134,32290.18359375,493.7987365722656,-538.7264084098007,-399.447141387368,-174.09909057617188,578.0745165903932
135,30668.5859375,539.1796264648438,-579.889572219917,-428.52551670877114,-189.20506286621094,589.9105091874876
136,33621.5234375,533.2245483398438,-577.4441020849412,-427.9053621545451,-186.92343139648438,595.6022774244362
137,38571.77734375,521.2221069335938,-584.764879335176,-431.62815673631087,-191.4208984375,590.6166691645523
138,37024.76171875,504.7677001953125,-580.3072856111551,-430.243148593661,-187.58016967773438,582.9235769904186
139,36158.8203125,562.2537841796875,-631.4276907348575,-469.74638365720523,-202.1016387939453,636.0741838189205
140,35444.16796875,546.7827758789062,-579.3547431507393,-428.6714759788837,-188.35409545898438,606.185804469768
141,36326.2421875,559.9407348632812,-599.5338000556925,-440.5235320455748,-198.76283264160156,600.6022313476869
142,33232.890625,576.4066162109375,-622.0885121266272,-456.5676007590404,-206.90113830566406,633.3298164270478
143,32650.013671875,560.120361328125,-627.2720286357087,-461.55615425425214,-207.14483642578125,615.8852823865409
144,36193.1875,502.5303649902344,-561.1390402990053,-406.42559442297875,-193.39181518554688,625.9401146810154
145,34615.55078125,537.6895751953125,-592.5824429326359,-427.7459394732159,-206.04562377929688,635.7688160137427
146,35822.9921875,553.4290771484375,-599.1064249317333,-434.1120866949841,-206.242919921875,621.6517484148189
147,34440.1171875,587.72607421875,-632.4392985982093,-456.6423817502074,-219.74615478515625,626.7366022690835
148,40186.2265625,597.7530517578125,-640.9431458895156,-463.71720407044654,-221.5324249267578,661.4778626148883
149,32466.767578125,533.0179443359375,-606.2076176311489,-435.96263334102855,-212.80624389648438,645.5506174162164
150,40354.70703125,508.9834289550781,-596.5001307830613,-427.90881231081937,-210.7391357421875,650.8318391572908
151,31599.4140625,528.666748046875,-602.5487060055925,-425.1514586035951,-221.74655151367188,641.705243661024
152,35777.890625,587.78564453125,-653.0894534580353,-469.4083601605091,-229.60137939453125,655.1027100784765
153,35955.70703125,609.2628173828125,-646.4083995315275,-463.13890068559255,-229.08688354492188,651.1961661665115
154,37306.65234375,589.1106567382812,-605.1972429692903,-426.5330545920571,-223.33023071289062,665.6568671154918
155,34911.1015625,577.27490234375,-615.0376232994398,-432.61034087079145,-228.03411865234375,646.3699558473304
156,37446.75390625,604.5922241210938,-662.1784546773426,-464.6677971334907,-246.88832092285156,664.9277475551505
157,34065.6015625,563.04931640625,-642.4811916184351,-451.52854717388715,-238.6907958984375,664.6189238605763
158,37896.9140625,578.02783203125,-663.9692613643243,-466.1747664859982,-247.2431182861328,665.3270476203611
159,32731.88671875,589.3850708007812,-650.8365958357167,-455.9165421034612,-243.65005493164062,673.1524110668905
160,32445.74609375,584.11669921875,-618.2301472089027,-433.32692006061626,-231.12904357910156,633.5783287227556
161,34856.61328125,597.4011840820312,-602.0574987483728,-412.31067984416677,-237.18353271484375,674.6461748860918
162,34949.08984375,617.690185546875,-648.326672664242,-445.01568502998356,-254.13873291015625,680.9294016076454
163,40441.97265625,600.5164794921875,-664.1503950622923,-458.07567979517063,-257.5933837890625,676.7730221417391
164,48378.44921875,566.7059936523438,-657.9703390287581,-450.96612279823717,-258.7552490234375,681.1631257759431
165,35545.15234375,508.94866943359375,-610.2408500194787,-413.4810637925057,-245.94973754882812,646.4902739344303
166,36236.15625,575.5366821289062,-669.8617353907695,-450.290520358321,-274.4640197753906,704.947368706884
167,36204.91796875,584.2570190429688,-669.9100938578758,-457.11648267271636,-265.9920349121094,668.4245931719013
168,38815.1484375,572.3751220703125,-624.1175071493453,-417.15417667196243,-258.70416259765625,667.225972411363
169,33570.640625,613.6629028320312,-679.7292469476772,-457.20603912542146,-278.1540222167969,694.5260875891896
170,37392.31640625,614.4503173828125,-685.447930680017,-462.5186229986948,-278.6616516113281,692.7226185421283
171,36809.37890625,625.5811157226562,-692.7624694528015,-464.30977146217634,-285.56585693359375,688.2045406538072
172,34283.3671875,574.001953125,-654.79214968281,-436.82948484977373,-272.45330810546875,706.807787014478
173,37233.22265625,580.5828247070312,-672.3746276354741,-448.02295894807645,-280.4395751953125,708.8605498766668
174,39722.75390625,591.736572265625,-693.7952443392594,-465.7351895969706,-285.0750732421875,719.9007257229297
175,40657.1796875,624.7474975585938,-696.2796572157956,-462.71394725933965,-291.9571533203125,705.0702763443129
176,36102.90625,655.9921264648438,-708.7097263036807,-467.4526129054882,-301.5713806152344,708.9360386699515
177,37864.63671875,661.9683837890625,-721.512630095977,-476.2294224767868,-306.60400390625,704.1081257343491
178,33143.53125,619.2929077148438,-694.9938050575784,-459.23465453872876,-294.698974609375,731.2553328724019
179,39298.24609375,645.8076782226562,-733.042381277012,-484.1250429171904,-311.14666748046875,747.7594790629099
180,30636.900390625,596.745361328125,-674.0330397068249,-435.38218956912914,-298.31353759765625,694.1047780697095
181,40111.09375,616.2403564453125,-682.6010951834267,-439.9310957827839,-303.3374938964844,709.3209472032657
182,36187.171875,645.4241333007812,-706.3116545331422,-461.7830209038677,-305.6607971191406,715.1670134814273
183,37685.0546875,660.9539794921875,-712.8630263374,-459.0602537187561,-317.25347900390625,737.9873401293123
184,32620.091796875,664.9854736328125,-744.0997298888446,-482.2854464165915,-327.26788330078125,747.2120839493799
185,31719.6171875,647.0509033203125,-735.3193639237732,-471.6332131363284,-329.6076965332031,740.732765163287
186,34949.26171875,661.5149536132812,-745.3299044506003,-476.86580451513487,-335.58013916015625,725.0313034574023
187,35132.171875,656.5214233398438,-719.3369854623149,-458.25748810946703,-326.349365234375,724.8043903314831
188,34624.375,656.9807739257812,-713.4747439210148,-456.72661221982753,-320.9351501464844,724.7411682971947
189,40395.79296875,665.0903930664062,-735.1449287036954,-477.0989504929221,-322.5574645996094,763.1741833544754
190,34838.1875,630.7706298828125,-697.8865418544544,-445.4306602583306,-315.56988525390625,750.7125663223491
191,37534.53125,647.6419067382812,-718.6125470571303,-454.08357018296044,-330.6612243652344,723.3163575422739
192,34576.12109375,631.7686767578125,-689.5562671107396,-438.35524892398786,-314.00128173828125,742.2006863227925
193,30411.318359375,648.5598754882812,-701.2976205108115,-440.46312073028037,-326.04315185546875,739.4543923554173
194,38592.875,693.3743286132812,-765.3858526040956,-484.1171095519483,-351.5859375,758.5500633091673
195,36065.56640625,704.7496337890625,-777.1873058608329,-494.2731181937797,-353.6427307128906,755.8334107585271
196,32290.390625,666.7498779296875,-723.8826769946947,-454.77387043043177,-336.3860168457031,740.4229590720587
197,44818.9140625,738.68115234375,-797.3302387614565,-501.477142180951,-369.81634521484375,791.818967265752
198,37303.80859375,695.1892700195312,-762.2611667770352,-475.14651822915016,-358.893310546875,741.2538938048402
199,33994.6328125,700.4657592773438,-768.6713212005664,-482.29852858948146,-357.96600341796875,761.5892265713105
200,34411.4296875,698.9215087890625,-763.3976624647538,-472.90563820250424,-363.1150207519531,747.59107127972
201,36440.90234375,667.1314697265625,-737.1601848264588,-458.4154829170918,-348.4308776855469,771.9800312934069
202,34003.328125,686.6388549804688,-737.10825530024,-454.14707575099294,-353.70147705078125,791.8918352730274
203,30093.046875,729.3728637695312,-788.344895079096,-486.3866671764451,-377.44775390625,783.5725809443275
204,35418.203125,652.1807861328125,-726.771839187293,-444.1712866582663,-353.2507019042969,786.0382276643082
205,36748.6640625,736.4576416015625,-805.3121168556308,-496.8266336347592,-385.60687255859375,811.7001788397854
206,33362.13671875,768.8640747070312,-817.0648291208852,-504.8206729841954,-390.3052062988281,783.0211668486451
207,36750.8359375,718.6591186523438,-762.4498976622438,-466.7938157328133,-369.5700988769531,791.8880396024772
208,32771.0078125,741.9088134765625,-805.5178854939552,-493.1544512575981,-390.45428466796875,786.9773032580832
209,37860.46875,757.1708984375,-833.6543211826017,-509.6764886066212,-404.9722900390625,827.9818827237784
210,35246.37890625,734.6144409179688,-816.1741142005277,-502.0002773193959,-392.71728515625,843.9197539176978
211,37772.23828125,694.7902221679688,-751.2486114596642,-454.6630534131705,-370.73193359375,775.6357188062332
212,35488.83984375,784.4716796875,-835.5862227692376,-513.4716685410696,-402.6431884765625,819.905651441971
213,33513.76953125,754.0150756835938,-807.5247422611685,-495.07041535967676,-390.56793212890625,814.2953772422227
214,32238.021484375,754.5536499023438,-822.5731013610794,-496.1420502553063,-408.038818359375,783.9280216240171
215,36483.00390625,713.0084228515625,-786.8839421743888,-474.26575525909556,-390.77276611328125,849.303173043224
216,34768.5078125,739.4744262695312,-809.9130113088809,-483.1838836040398,-408.41143798828125,794.7582283785513
217,30944.40625,765.3911743164062,-818.2842316450949,-487.1942587112939,-413.86248779296875,817.8042296222835
218,37302.21484375,785.1466064453125,-835.2414801947174,-502.9146891212423,-415.4084777832031,828.9276860981946
219,34055.9375,800.848876953125,-857.2758563335643,-508.90771563142835,-435.460205078125,870.6284955350121
220,33956.3515625,729.2859497070312,-814.7194188168534,-486.91931346000916,-409.7501220703125,842.6051715201374
221,32307.10546875,752.6786499023438,-847.5244156314959,-504.237336014208,-429.10882568359375,835.548417038155
222,31212.029296875,722.1314086914062,-788.8310584869205,-458.3082613748467,-413.15350341796875,826.4872544542621
223,35072.484375,800.0394897460938,-857.8948107271411,-514.0631065457085,-429.78961181640625,856.2022283160352
224,31789.767578125,752.1386108398438,-807.3450907812976,-477.58333299400374,-412.20220947265625,858.2524734380296
225,29910.380859375,767.0345458984375,-838.5453617341171,-495.7367580578018,-428.5107421875,844.0839304568304
226,32176.1484375,750.8814086914062,-842.6120453621037,-487.75401134144136,-443.5725402832031,859.3297135878331
227,28061.345703125,755.7926635742188,-858.7118263290338,-503.70337064804795,-443.7605895996094,825.195147359059
228,36636.97265625,735.4144897460938,-805.3774697931623,-460.8862239803327,-430.61407470703125,897.8656592536407
229,32170.943359375,757.4520263671875,-824.7761069989158,-477.0923850696395,-434.6046447753906,865.10736780596
230,29108.255859375,768.8141479492188,-842.1447598593718,-487.9771855593136,-442.70947265625,836.83435482295
231,29587.59765625,778.751220703125,-863.1923391812298,-505.703372602845,-446.8612060546875,844.5163661382993
232,31196.53515625,790.4166259765625,-877.221415932441,-512.708759742637,-455.64080810546875,851.7588322086137
233,33896.78125,772.7850952148438,-861.1245075874456,-502.1756860151614,-448.68603515625,885.4538296533876
234,30861.423828125,790.3626708984375,-863.2266710657111,-496.6318172529756,-458.2435607910156,889.5333249791161
235,30917.3359375,790.1746215820312,-864.3627717999232,-494.4865731946614,-462.34527587890625,894.8534361820664
236,35651.87890625,740.9761962890625,-823.3778516587427,-469.95010363921494,-441.7846984863281,835.7850824239749
237,37143.38671875,755.1343994140625,-835.1913107944781,-483.6857294032711,-439.3819885253906,872.9754329776562
238,33269.3828125,776.2171630859375,-845.3658480325932,-482.68278546358783,-453.35382080078125,879.7621690759822
239,36052.41796875,775.7039184570312,-853.9915213144577,-490.4675237577135,-454.4049987792969,895.2772894257487
240,41183.3671875,766.9990234375,-846.3513946399534,-483.7348199595207,-453.27069091796875,911.8316412580754
241,38867.234375,842.7706298828125,-918.2596797856188,-530.6134628618752,-484.5577697753906,888.2145706626976
242,39097.625,813.7546997070312,-875.1175134550326,-504.59140740442194,-463.15765380859375,905.1636263153138
243,39812.9296875,852.4030151367188,-924.1930818513442,-534.3405118312627,-487.31573486328125,911.4061140503828
244,39040.19921875,769.8470458984375,-847.4128636916018,-483.2035101484822,-455.2616882324219,886.4644086763245
245,31645.85546875,843.9210815429688,-902.3384043556933,-513.9295651936267,-485.51104736328125,940.6504441041095
246,37310.296875,862.7478637695312,-926.2382211046548,-532.8917643382234,-491.6830749511719,927.2174014408401
247,39835.3671875,846.0736694335938,-922.1673888724213,-525.2722842534919,-496.118896484375,923.2682219393672
248,41557.40625,869.3068237304688,-951.6275866440312,-548.3701704915428,-504.07177734375,919.238954081959
249,38523.5859375,842.152587890625,-916.2934344441959,-517.9350088592016,-497.9480285644531,934.9139818417752
250,34210.94140625,792.0736694335938,-862.5675742697099,-479.31501836964264,-479.0657043457031,902.7805628944129
251,41288.703125,807.60302734375,-880.919549192176,-505.63103937326434,-469.1106262207031,942.0044132856714
252,43884.5703125,866.2926635742188,-919.9820926524676,-533.2392801539017,-483.42852783203125,900.0353580598174
253,45748.7578125,836.6135864257812,-881.5189057827074,-497.66337916022945,-479.81939697265625,894.8488883441971
254,39777.28125,848.3927612304688,-929.9513164624509,-531.569371694879,-497.9774169921875,905.7325810704243
255,36475.6015625,806.6376342773438,-891.8924225579283,-501.1565145811798,-488.4198913574219,908.7460832757808
256,48677.96875,815.6145629882812,-896.5964793187436,-506.17623270078184,-488.0252990722656,927.2885978156738
257,43053.4375,857.5841674804688,-924.9039976289603,-522.275477251235,-503.28564453125,931.009265718608
258,41770.19921875,896.3876342773438,-945.7667441436802,-539.2516752636074,-508.14385986328125,921.1776315348029
259,41246.4296875,859.8648071289062,-915.41756393432,-512.7022577141163,-503.3941345214844,925.1954061114802
260,39095.96875,858.33154296875,-932.7360067777915,-526.0261457902492,-508.3873291015625,900.4799824926907
261,38871.22265625,902.6333618164062,-984.5392726575776,-546.5183020657215,-547.5262451171875,951.5565195147946
262,35940.7109375,822.5125122070312,-883.1566429142224,-498.207037029959,-481.1869812011719,911.4563136639754
263,40031.08984375,835.2770385742188,-889.3595871765945,-498.03311020292665,-489.1580810546875,909.4492192478943
264,35677.984375,905.8670043945312,-968.1885085560809,-536.3616860825996,-539.7835083007812,971.2403745446006
265,35568.6171875,900.4600219726562,-974.0367222238906,-536.0010052688062,-547.544677734375,967.6080359874207
266,40372.203125,845.0567626953125,-924.1017180360828,-515.8721954630198,-510.286865234375,931.7025271245043
267,40688.72265625,888.7797241210938,-953.2627401649129,-532.0952880802673,-526.4593505859375,948.0569933636291
268,34325.68359375,835.6673583984375,-883.9692881929033,-487.20498720526655,-495.9553527832031,931.3808223864896
269,35604.60546875,899.6739501953125,-963.0928433285394,-531.9706050337592,-538.90283203125,956.7129385871291
270,36407.19140625,881.8701171875,-957.4483102182774,-520.8279478963846,-545.775390625,990.5735153388846
271,33409.61328125,827.9598999023438,-893.03797639411,-487.9129891471757,-506.40625,947.5374699245258
272,38313.8671875,905.367431640625,-950.0655775677637,-526.4207960437277,-529.5559692382812,988.9063351790975
273,40112.48828125,931.2468872070312,-979.7042438405024,-538.053965002151,-552.0628662109375,954.7274365795473
274,31819.69921875,812.2010498046875,-893.6623495428665,-480.78421467713366,-516.09765625,945.72300727178
275,37635.70703125,884.1328125,-981.7084879203893,-543.0034917055822,-548.3812866210938,989.8929257719516
276,34480.3828125,865.0912475585938,-943.265439757271,-520.6432422818002,-528.2777099609375,927.6602571832892
277,36254.046875,880.08740234375,-929.438608472703,-501.7447902662233,-534.6172485351562,941.6783020989691
278,36587.8984375,856.25830078125,-914.0237201694653,-496.6497657524675,-521.7174072265625,968.6420599614398
279,31637.33984375,850.1961669921875,-919.638073520229,-491.5373053081863,-535.1259765625,980.4655975017426
280,38988.51953125,900.630126953125,-961.0571458425268,-519.5831026822223,-551.8425903320312,1015.5563832073366
281,34853.4296875,856.0209350585938,-912.5756389572001,-489.64958249048277,-528.6575927734375,917.4784406113341
282,35597.2109375,885.0565185546875,-948.1973152937032,-511.8097269849517,-545.4844970703125,950.0604319142335
283,37055.0703125,897.9656982421875,-961.9297713742646,-527.1336250410006,-543.4951782226562,965.2400384198744
284,33412.20703125,933.1541137695312,-979.8130535502528,-533.4931760004797,-557.89990234375,973.330905162019
285,33649.9140625,890.014892578125,-937.4295138177299,-496.1455877223821,-551.6048583984375,948.1480691299889
286,43912.484375,941.0260009765625,-1023.631885984917,-548.8280209507838,-593.5048217773438,1013.55031327725
287,39560.66015625,881.0491333007812,-974.0138403444809,-527.7783852077346,-557.7943115234375,961.8467194962133
288,33289.03125,920.2369384765625,-977.4105192824442,-527.0218203223485,-562.98583984375,978.4399613886129
289,30802.79296875,920.7197265625,-965.4400903725076,-503.9016699048235,-576.9230346679688,959.1776739665539
290,42432.8125,950.942138671875,-1019.2618725188339,-551.9460271496589,-584.144775390625,992.2486159605371
291,34472.2109375,954.0978393554688,-1032.3893043783564,-548.9637541072514,-604.2819213867188,982.8240114182146
292,35954.75,960.8732299804688,-1026.383562847624,-547.8381245928133,-598.1818237304688,1034.0537336938046
293,36111.00390625,938.6914672851562,-988.0241947386291,-530.7559220558842,-571.5853271484375,964.9750532783158
294,39444.1953125,956.271484375,-1004.3226159270367,-525.0962387155255,-599.032958984375,1026.1674886148767
295,33986.546875,904.3587646484375,-984.1871739482149,-522.1767160230889,-577.5130615234375,984.0916403248895
296,36496.5078125,872.8831176757812,-957.8267508234048,-507.13304360272946,-563.3671875,936.8994114826662
297,34139.03515625,886.737060546875,-960.5106215698705,-511.7659446654901,-560.9308471679688,1009.1961326433915
298,42751.19140625,912.5420532226562,-979.3192153040661,-515.0132706001742,-580.3824462890625,989.5569525039531
299,42535.49609375,944.8314819335938,-1030.3947865403138,-544.6628105723179,-607.1649169921875,1034.5953196980329
300,39209.80859375,973.9520263671875,-1064.723542742237,-564.0202836634511,-625.8790283203125,1058.6820244292549
301,35232.7890625,964.2847290039062,-1030.9994163064657,-547.560380348973,-604.298828125,1002.5530126716544
302,45937.875,922.2626342773438,-980.0733669676504,-515.9633912020981,-580.137451171875,1036.7773398371783
303,33501.875,913.0403442382812,-1002.9140199444314,-525.6756360800063,-596.5479736328125,1032.71588186109
304,38982.07421875,906.95849609375,-1005.5540024232598,-525.4189430138574,-600.1688232421875,1018.5588981204012
305,43169.3203125,905.0004272460938,-989.0294427028348,-519.903205125076,-586.4077758789062,1031.2678822686255
306,36053.20703125,934.8602294921875,-1001.3543143340411,-516.4613905039174,-606.1162109375,1001.7862208107207
307,43947.546875,923.4810180664062,-1008.7536198903055,-534.5181532509338,-592.7943115234375,1007.857210241674
308,38211.08203125,933.8869018554688,-1021.5471614989011,-526.0406784185232,-619.3831176757812,1010.3957263469064
309,36667.6484375,921.2817993164062,-989.0133953003431,-516.0406632767275,-591.2159423828125,1061.6962944942816
310,38331.8515625,973.0572509765625,-1039.4258496042157,-540.390626725536,-623.7940673828125,998.5723616924954
311,36802.421875,979.5506591796875,-1061.469903359787,-553.3596735083884,-635.1378173828125,1085.446161060077
312,35617.84765625,966.8671875,-1068.821831923182,-556.7923623844222,-640.036865234375,1024.241225608933
313,38498.78125,1000.2529907226562,-1090.3480250069008,-559.3518055866539,-663.7453002929688,1072.4357732993715
314,35157.3671875,1039.4298095703125,-1110.8210434456616,-578.1040672707632,-665.896240234375,1070.537755756225
315,31986.765625,979.0593872070312,-1042.0038158992497,-539.3860497119098,-628.272216796875,1020.1855274525418
316,37950.890625,988.6773681640625,-1070.462205167908,-549.5790063084585,-651.10400390625,1050.7126390767571
317,31578.45703125,949.3782348632812,-1028.5969001731337,-525.5887706671343,-628.7601318359375,1057.5214674648885
318,33659.71484375,980.6098022460938,-1054.0247568429904,-541.4314872277424,-640.7415771484375,1019.6538118356406
319,35864.1640625,1047.7779541015625,-1105.6480415450253,-577.2034752207651,-660.5556640625,1021.8374905462899
320,37295.2109375,1030.25341796875,-1090.4762500384063,-570.7008665207013,-649.71923828125,1054.479737801985
321,37595.4453125,908.6531982421875,-977.8052875555242,-507.78251534673666,-587.5284423828125,1021.0846984132071
322,33158.82421875,998.6688842773438,-1081.8365152676736,-557.8232548460974,-655.0166015625,1058.4911273313799
323,39378.18359375,997.1770629882812,-1056.5449725723051,-552.5568614777335,-629.985107421875,1034.614827320933
324,45597.1328125,972.4476318359375,-1015.2669655111469,-528.1809179891682,-608.8575439453125,1092.9929865322165
325,39106.77734375,983.5757446289062,-1055.3112032759552,-545.9269178548444,-636.7303466796875,1077.7923417620357
326,37454.30078125,991.6945190429688,-1077.5136571367796,-557.1069365718927,-650.5084228515625,1095.8840957655111
327,35000.08203125,981.689208984375,-1052.7569106648439,-533.7544693402242,-648.7530517578125,1086.3754366523322
328,37434.51953125,954.50146484375,-1003.2234124910217,-521.3218107745182,-602.3770141601562,1034.9279764510975
329,41883.63671875,1024.5196533203125,-1092.1274923691858,-567.1410636144091,-656.2330322265625,1053.8790747723572
330,40716.64453125,979.8353271484375,-1058.082040688844,-537.0776765299788,-651.2554931640625,1057.6887127829739
331,40619.9765625,988.9244384765625,-1066.2646025975887,-550.5090036062243,-644.6945190429688,1083.2662796028458
332,37816.09375,998.2532348632812,-1055.4182142480972,-537.8417179992185,-646.9705810546875,1042.9324487892325
333,37823.5703125,1026.6807861328125,-1065.8359928840268,-547.574671410393,-647.82666015625,1029.1799523005197
334,45884.1640625,1041.1060791015625,-1087.9326234117084,-558.6799742667868,-661.5657958984375,1076.3107993190922
335,44855.765625,1014.8383178710938,-1085.889878386939,-556.0088335193973,-662.351318359375,1086.814481439948
336,33520.67578125,1029.751220703125,-1111.4813004633988,-561.8573274283314,-687.0299682617188,1107.3637048533813
337,31975.4609375,1072.25390625,-1129.017956262631,-570.9972206465802,-697.52587890625,1099.1038946153417
338,34095.43359375,980.078369140625,-1038.9184663200708,-525.6769853411197,-641.5518188476562,1102.291782024196
339,36109.75390625,1047.15478515625,-1119.8678705702919,-575.700350610531,-680.2094116210938,1133.9094127066107
340,33412.44921875,1044.3369140625,-1115.5486942062587,-562.3911085163675,-691.4469604492188,1115.352537785614
341,39546.89453125,976.3117065429688,-1040.4894662596307,-538.864528727161,-627.0311889648438,1028.5485953987932
342,34093.14453125,997.0200805664062,-1062.769298889036,-527.4599651785239,-669.1366577148438,1155.3569009188989
343,40432.30859375,1061.9161376953125,-1156.17382152926,-590.0111433266457,-707.7033081054688,1132.9225799017113
344,30916.37890625,1008.6980590820312,-1086.0171230541487,-534.1603945571408,-689.8209228515625,1052.6904708197364
345,36386.41796875,1077.910400390625,-1129.0515364449634,-564.8708209842607,-705.2258911132812,1131.097194452463
346,34327.640625,1055.8369140625,-1096.4339962886681,-540.1050396945827,-695.4111938476562,1141.8223960010905
347,39304.890625,1069.08837890625,-1150.1842103800204,-565.5546858424254,-730.786865234375,1117.8374744012856
348,38466.21875,1016.0015258789062,-1102.1021956676445,-553.6230743353083,-685.598876953125,1099.5349889023275
349,36516.3203125,1052.138427734375,-1105.5043779571963,-546.172108558887,-699.1653442382812,1115.6235040313613
350,37196.390625,1060.3533935546875,-1132.308966445216,-571.3928585200017,-701.1451416015625,1107.5779294444549
351,36160.25,1006.9700317382812,-1095.5550067614076,-537.6099671785964,-697.4312744140625,1101.6049305361146
352,42455.5,1075.50048828125,-1161.8952736837025,-577.5249866930469,-730.4628295898438,1129.6048277386215
353,37839.6015625,1016.9378662109375,-1065.175362776479,-521.3363120271622,-679.798828125,1122.498605887563
354,41712.8046875,1085.0079345703125,-1121.347389684477,-548.7092744755084,-715.797607421875,1135.7967949277831
355,41150.11328125,1034.0701904296875,-1099.1596145556236,-544.6950583574289,-693.0806884765625,1162.4233722081688
356,42527.83203125,1037.117431640625,-1127.9348175927523,-558.2984268511173,-712.0454711914062,1150.4950807803934
357,35893.5625,1058.806884765625,-1135.7146325917524,-554.3876018667202,-726.6588134765625,1167.5918143081524
358,34883.890625,1027.5113525390625,-1068.0639885668563,-527.4667834185916,-675.7464599609375,1098.088206918275
359,43264.6015625,1082.5250244140625,-1124.9036252313003,-554.2912564205648,-713.2654418945312,1132.192504808815
360,38601.515625,1073.024658203125,-1144.3165005231397,-563.1938935727933,-726.4032592773438,1140.441258078366
361,33617.2890625,1020.4887084960938,-1091.6025840475788,-524.8031534120539,-708.499267578125,1126.5222948697044
362,39592.53125,1094.913818359375,-1168.2609755943504,-584.6311793270496,-729.5372924804688,1158.029275715202
363,34056.69140625,1063.4468994140625,-1111.373752874379,-523.5364291804012,-734.7966918945312,1120.1955015785254
364,34486.6796875,1011.19287109375,-1077.7511586381656,-525.3919063913238,-690.4490966796875,1155.4938808245572
365,32189.59765625,1129.5859375,-1185.9960404542726,-575.9316452449638,-762.58056640625,1251.4897137872176
366,36473.328125,1130.676513671875,-1180.911003786715,-568.2222890747414,-765.86083984375,1191.8812506048853
367,35330.44140625,1155.3458251953125,-1198.7135965322766,-574.7491534091223,-779.9555053710938,1150.7252224375877
368,34159.3046875,1116.569091796875,-1175.3366646584318,-565.213306911309,-762.6541748046875,1119.1886693666982
369,32116.103515625,1093.7708740234375,-1149.376048661059,-547.315341522394,-752.5758666992188,1195.396812253116
370,38865.12109375,1156.4205322265625,-1196.5419719892668,-578.2350289742576,-772.8836669921875,1210.0179768979956
371,35018.42578125,1085.9825439453125,-1140.6673399394767,-553.0380994127522,-734.5365600585938,1153.8993443101328
372,40936.25,1107.2239990234375,-1183.3058402560878,-557.1141837068596,-782.7395629882812,1170.248877170504
373,39065.234375,1095.2337646484375,-1182.2625340162467,-567.0598917272564,-769.0032958984375,1205.6456768899557
374,38950.76953125,1074.984375,-1121.297747737777,-531.2389460131083,-737.573486328125,1151.2102256365374
375,38425.69921875,1138.920166015625,-1172.9675182862456,-562.7903745068485,-762.721435546875,1135.9022990189578
376,32509.876953125,1060.9488525390625,-1123.3142489967327,-533.2587652114607,-737.5693359375,1160.9177365363769
377,34880.82421875,1060.5224609375,-1142.5501740141096,-539.2817068274389,-754.0855712890625,1154.6340041501217
378,34479.86328125,1119.0235595703125,-1189.6363777329561,-559.3907376219867,-787.8070678710938,1178.7962730687202
379,35370.25,1129.9876708984375,-1156.0420706046864,-548.8431858687779,-758.9985961914062,1196.0994219857928
380,31995.58203125,1192.557861328125,-1208.8804692749584,-573.8003898732081,-793.85009765625,1184.666981062038
381,34138.953125,1103.11279296875,-1155.1741916507162,-540.7951880120349,-767.9737548828125,1166.5933199556493
382,33367.2890625,1057.5537109375,-1167.792225426481,-555.7981826540073,-764.9925537109375,1158.373701000214
383,36856.08984375,1019.7091064453125,-1144.9277423344745,-545.986127877208,-748.677001953125,1155.4987233246973
384,36295.80859375,1095.157958984375,-1184.6693546424256,-559.77872617893,-781.11328125,1195.846451051578
385,33033.87890625,1135.3460693359375,-1150.415979288166,-540.1642202017097,-762.814697265625,1229.8505556714542
386,36029.91015625,1176.757568359375,-1188.167277384912,-562.4517065720534,-782.1444091796875,1186.7247101386088
387,41615.1953125,1211.3126220703125,-1226.8021867939851,-577.5423898487932,-811.5747680664062,1238.6329901309655
388,37307.63671875,1169.47021484375,-1230.7893878974232,-558.2520133852706,-840.6716918945312,1208.219701210613
389,29755.203125,1070.997314453125,-1162.8252858145308,-541.3258788781386,-776.874267578125,1152.4677978761579
390,36510.86328125,1030.1141357421875,-1101.170296814285,-529.9870948057546,-713.97900390625,1165.5605609711326
391,37241.1640625,1173.36572265625,-1198.0409812807475,-547.271185007449,-813.4622802734375,1228.8383109865379
392,35791.40234375,1125.818603515625,-1174.7576628093402,-548.0070933698471,-783.438232421875,1212.077260432307
393,35060.828125,1120.9730224609375,-1196.2637411163994,-557.4411968082997,-798.5281982421875,1194.2075977910504
394,32637.615234375,1095.13525390625,-1161.614747996555,-537.1033183237736,-780.6392822265625,1223.708581799789
395,35605.06640625,1115.4764404296875,-1140.7446435468696,-527.3997107646387,-766.68115234375,1256.9611478270824
396,35843.6796875,1152.9599609375,-1184.8025349873678,-550.2945665213839,-793.1349487304688,1173.7386322445302
397,32017.96875,1106.54541015625,-1160.6495521480897,-541.7142753811768,-773.6690673828125,1180.7287906438248
398,30264.6953125,1156.2696533203125,-1217.3164689872665,-557.8464723954226,-824.3374633789062,1214.5924340949757
399,35600.6875,1110.0833740234375,-1148.9569310477966,-521.9166888294772,-783.80029296875,1193.3240802025307
400,31606.240234375,1282.282958984375,-1308.2847300923768,-598.3622333872471,-887.403076171875,1258.490602851015
401,36524.84375,1138.1707763671875,-1173.199169446507,-533.0374944507867,-800.2020874023438,1179.1092617989789
402,32118.0546875,1181.234375,-1225.0892974465655,-564.2918905466365,-825.9967651367188,1209.9160148835335
403,32119.466796875,1141.9722900390625,-1187.127710577306,-551.5768350531537,-794.4385986328125,1233.7605239367995
404,36526.0546875,1207.66943359375,-1235.6523537853222,-559.9143787288995,-844.6724853515625,1219.4340007053868
405,33197.05859375,1172.1239013671875,-1203.9527587118482,-551.3798706792217,-815.7161254882812,1232.4229626063852
406,38933.7265625,1180.957275390625,-1230.3253315176905,-566.9066797438168,-829.2733154296875,1247.4616217122564
407,37643.7890625,1179.1787109375,-1215.3993853140985,-562.1590468858731,-816.5504150390625,1177.6693654252197
408,32669.00390625,1107.6170654296875,-1143.2535575834465,-526.1458729987396,-771.3845825195312,1197.3712835107897
409,34036.60546875,1130.9013671875,-1170.4852014389617,-530.5060119898319,-799.9739990234375,1229.4680290555634
410,33419.40234375,1137.5255126953125,-1170.9044481512371,-528.7884557846679,-802.6449584960938,1252.8282564917456
411,40555.7265625,1200.1036376953125,-1240.7063284190467,-561.2321368274838,-849.3427124023438,1236.4301533946768
412,36347.4296875,1161.2464599609375,-1200.8377457605097,-557.41202655345,-804.2821044921875,1209.886965991572
413,35593.765625,1143.8619384765625,-1192.2434120700905,-540.2388576346658,-815.0057373046875,1219.9682549318024
414,31645.44921875,1177.8299560546875,-1218.7672754954185,-547.9779241192259,-838.4866943359375,1296.6035681207836
415,33023.85546875,1224.9749755859375,-1277.1548429699951,-578.1741160897875,-873.7259521484375,1216.1771399207116
416,40361.05078125,1184.4759521484375,-1260.680678792969,-557.6566019603242,-878.7800903320312,1319.1323268124952
417,33250.4375,1112.5478515625,-1192.0281065483625,-528.7540644216865,-829.092529296875,1210.371207320539
418,33859.4375,1201.043701171875,-1243.165639171006,-572.5878446710312,-838.2222290039062,1271.4843274631937
419,31172.970703125,1204.549072265625,-1247.3712996587442,-558.4970215551375,-861.0927734375,1253.8277429706397
420,35088.91796875,1205.2789306640625,-1282.2831558584753,-575.0872798722287,-883.994873046875,1286.2403342755358
421,34742.15234375,1215.927734375,-1288.2251876057967,-567.0412004997396,-901.47998046875,1260.25448789221
422,32918.296875,1218.4090576171875,-1270.3077765280846,-565.3361559955868,-881.2145385742188,1256.1578222148464
423,33867.65234375,1176.7984619140625,-1238.4409760230933,-552.6888240379991,-857.190185546875,1267.6630608787627
424,36226.02734375,1170.6016845703125,-1273.439413008024,-574.2682411472547,-873.9639892578125,1346.9048847561571
425,38146.87890625,1179.932861328125,-1275.5015774150681,-574.56412491997,-876.1718139648438,1268.238128631078
426,36878.5625,1211.3150634765625,-1261.810527035103,-566.8692131427329,-868.6766357421875,1283.1868216727655
427,37975.78125,1173.6075439453125,-1214.1012921972253,-538.4307194833697,-844.5882568359375,1273.439105103253
428,36183.7265625,1209.9105224609375,-1286.565851548066,-575.5214418960114,-888.8055419921875,1360.2910472037972
429,38049.8828125,1204.2838134765625,-1302.8950475485608,-576.6564122140487,-907.7982788085938,1301.5192107252944
430,54949.296875,1218.407958984375,-1309.1741163134623,-585.8247281557927,-904.1867065429688,1294.384949724196
431,36381.3984375,1273.382568359375,-1303.4410405430503,-570.4354828999869,-916.2569580078125,1255.1218179769403
432,41778.01953125,1237.478759765625,-1273.4396210833806,-563.6461907167804,-887.2418212890625,1296.0818756592614
433,41431.37109375,1166.8624267578125,-1239.077198054261,-552.9074544785465,-857.712158203125,1249.9701190766234
434,47755.23828125,1213.53125,-1295.3155529123846,-569.2953259786707,-907.5252685546875,1306.581555275812
435,34182.98828125,1178.142578125,-1200.1228100494222,-516.930354481118,-853.9906005859375,1232.6564721623233
436,43092.46484375,1329.30029296875,-1357.5695995859764,-599.7243038757667,-947.306640625,1362.4563209523121
437,38214.2109375,1229.6094970703125,-1265.312456744272,-562.173461130928,-878.9237060546875,1309.7410132687644
438,41874.3671875,1266.3951416015625,-1356.1805030330625,-596.7003372692576,-949.3502197265625,1344.4988398731089
439,41528.234375,1186.83447265625,-1281.3741820572257,-570.6760522505581,-888.3726806640625,1322.4658404684228
440,41393.29296875,1245.5843505859375,-1285.5866480440727,-559.5604957717367,-907.53271484375,1328.824157460566
441,45517.08984375,1267.8453369140625,-1256.0727648334705,-558.3346295105421,-872.1727294921875,1365.5416640931337
442,50050.5625,1326.092041015625,-1298.0414752463962,-578.7190715488198,-899.1529541015625,1362.62347685123
443,45241.86328125,1278.9205322265625,-1263.4992948096258,-557.2426052983863,-882.8209228515625,1311.4124405075456
444,48237.55078125,1195.360107421875,-1257.7992421181466,-550.0750696024452,-884.6552124023438,1333.9421890476742
445,43204.55859375,1183.7901611328125,-1279.4630929497357,-568.0061996613915,-889.3211059570312,1332.8824542484788
446,43877.6328125,1251.3175048828125,-1334.0134296185172,-580.7152923622004,-941.6226806640625,1344.3423120133425
447,44180.2421875,1249.385986328125,-1281.2946173920743,-543.7213054916335,-921.9666748046875,1345.3376127081458
448,39781.09765625,1271.914794921875,-1323.5849443482803,-569.580327689891,-942.5057373046875,1368.7556665859677
449,40402.796875,1198.9132080078125,-1286.0787904733447,-547.6749072319483,-923.0048828125,1245.6345329914748
450,45474.83984375,1198.720947265625,-1298.7135876894072,-565.6739492846727,-916.299560546875,1317.7830700903633
451,40092.953125,1322.71240234375,-1378.4055870566917,-585.8109040472124,-990.7433471679688,1322.819946174677
452,44002.4140625,1239.94091796875,-1291.0194288277494,-561.8335924589503,-911.4822998046875,1350.3594737377998
453,49077.8359375,1260.8709716796875,-1326.515703910426,-582.7853668196358,-929.6629638671875,1361.847013789762
454,39671.25,1222.161865234375,-1306.1475147613112,-562.3220305601853,-929.7818603515625,1344.5863009033217
455,46394.52734375,1297.3773193359375,-1368.4936579031776,-590.3803118443489,-972.6416625976562,1372.2835674833143
456,39071.26953125,1303.2919921875,-1326.5850435595135,-576.6574288714781,-937.4094848632812,1391.0344676920665
457,46201.390625,1262.894287109375,-1285.8468287448084,-565.2863769127672,-900.7005615234375,1381.2925765890493
458,49362.83984375,1285.8331298828125,-1338.9860360926045,-568.8598412407591,-962.65771484375,1361.1107394390945
459,44947.85546875,1219.2706298828125,-1324.8160549793238,-561.6154771373451,-954.000732421875,1394.4063110775232
460,59049.58984375,1231.995849609375,-1356.0676570061698,-582.7096865618705,-966.6974487304688,1410.8469630094742
461,51013.41015625,1280.70263671875,-1377.1056822894193,-594.5895729037053,-978.1451416015625,1405.9937620332996
462,43319.6796875,1367.4317626953125,-1381.3483168831872,-592.8248844836683,-985.654296875,1360.1308730557996
463,53185.21875,1418.90771484375,-1403.5505686643867,-598.3162845313415,-1006.5427856445312,1424.37199327701
464,48601.796875,1396.2847900390625,-1408.6553205798234,-594.9167761999502,-1017.1732177734375,1359.244715367045
465,56309.10546875,1258.2117919921875,-1346.8318721580056,-587.0621702220958,-949.712158203125,1365.169994818608
466,45283.1328125,1280.676513671875,-1360.1586058506973,-569.484040511609,-988.34326171875,1360.8564535757214
467,55188.98046875,1373.4063720703125,-1433.1482261378842,-608.6981830674749,-1030.5625,1416.685424243856
468,48556.9296875,1332.615966796875,-1332.1723079977728,-565.7272709915118,-958.0562744140625,1389.3091096818505
469,49623.81640625,1385.453125,-1388.258856640604,-583.1702067582278,-1006.36083984375,1427.9510020351638
470,61037.80078125,1314.9979248046875,-1361.4876119942683,-578.9072879751025,-978.225341796875,1371.5804115027458
471,66096.859375,1297.27490234375,-1350.6961590852732,-588.5881640996927,-952.635009765625,1353.462610578576
472,49007.71484375,1324.4412841796875,-1341.8054930095977,-563.5921481972047,-972.7666625976562,1420.3453178325972
473,50011.82421875,1402.1348876953125,-1409.3431272043326,-603.7134236480985,-1007.037109375,1416.6361865152758
474,48879.74609375,1362.1268310546875,-1390.3328180900683,-608.7367330461183,-976.9951171875,1337.7311250998516
475,51724.02734375,1345.7032470703125,-1391.04133613576,-585.5236071372477,-1006.8971557617188,1338.6909450407757
476,48222.359375,1340.96728515625,-1406.2126593205762,-596.2101000199712,-1012.5032348632812,1459.8144234267286
477,53111.71875,1360.0740966796875,-1398.3372392382414,-593.650964629458,-1005.8577880859375,1418.8648894837793
478,48784.4140625,1469.83203125,-1479.0998734595014,-622.0361523034743,-1071.32958984375,1459.2073096398028
479,54085.578125,1369.9576416015625,-1370.6141941719804,-569.1183105277944,-1001.869873046875,1386.2612750815938
480,51039.0625,1293.6739501953125,-1362.5067566060673,-572.9127082345286,-986.9925537109375,1414.9497701804548
481,54708.2890625,1328.9871826171875,-1414.2021182983308,-606.5823085116349,-1009.5247802734375,1435.6130106414391
482,55638.63671875,1426.1402587890625,-1466.242348982936,-614.8769770203921,-1064.206787109375,1440.6952756360963
483,62959.34375,1445.0908203125,-1488.7093954280754,-623.0882111973864,-1082.0264892578125,1468.7449876003466
484,57114.73828125,1389.100341796875,-1458.8404425262656,-628.5522359650763,-1037.8603515625,1407.712453400087
485,50481.3671875,1317.871826171875,-1383.3821687879447,-583.6880979051289,-999.6175537109375,1361.8132318117196
486,46995.5390625,1306.4053955078125,-1390.2830971720532,-593.8095224936396,-995.592041015625,1412.6450445874966
487,51091.140625,1301.9459228515625,-1380.0317454947372,-575.786827207378,-1005.30615234375,1415.3008918544251
488,39873.90625,1449.7635498046875,-1514.9294479899322,-630.3540713796606,-1105.71923828125,1512.6189492348985
489,50877.44140625,1406.47705078125,-1480.6315699799093,-615.107118663668,-1081.9056396484375,1461.883463762335
490,43511.22265625,1315.568603515625,-1447.4366830283598,-612.5261132581912,-1043.63818359375,1439.1349289459183
491,52345.0546875,1346.6248779296875,-1467.9260515529527,-606.6036165890148,-1076.653076171875,1386.325149974092
492,52713.1953125,1276.452392578125,-1378.5495314696586,-587.0621939847028,-989.3591918945312,1407.349566186266
493,42644.36328125,1308.858154296875,-1422.6147124632412,-595.2604301265126,-1034.19287109375,1407.5887278896969
494,42146.4765625,1227.5943603515625,-1381.9673529573233,-571.4199793644698,-1013.1842041015625,1398.927234991903
495,51338.4296875,1236.1356201171875,-1402.3080435673296,-587.6113738799522,-1018.370849609375,1447.2787626375462
496,43489.0390625,1366.6795654296875,-1478.2178604166127,-599.9090619938086,-1097.885986328125,1518.7281790474278
497,49700.421875,1399.0128173828125,-1481.9080434865075,-614.9869056982677,-1083.6513671875,1398.7963720849841
498,50041.25,1324.4268798828125,-1408.175140084955,-575.9070110819534,-1040.335205078125,1438.1413325685437
499,44447.80078125,1310.74853515625,-1450.8885955750056,-602.8071833131879,-1060.1016845703125,1465.3405677103083
500,42431.06640625,1260.017822265625,-1413.1529120373782,-586.2803347186893,-1033.5906982421875,1470.5357624769947
501,50420.5859375,1360.533935546875,-1497.1236618087446,-615.8741575064888,-1101.5618896484375,1464.0095925474898
502,51650.5,1422.4786376953125,-1498.7331919842638,-615.8154584410374,-1103.647216796875,1487.2946059782325
503,52570.80078125,1447.1900634765625,-1517.6681143710553,-621.0825647825538,-1120.73193359375,1473.9786181741226
504,57522.26953125,1338.1182861328125,-1447.2286554930802,-601.7085062565352,-1056.900146484375,1523.0776177819628
505,49649.203125,1297.21240234375,-1441.4778609890473,-607.3376483661104,-1042.67529296875,1395.8181015804005
506,39313.64453125,1346.5823974609375,-1467.0780717694881,-602.6460014308552,-1080.5400390625,1465.5888072897694
507,49150.1328125,1430.2943115234375,-1526.4136111081966,-644.9189340221153,-1101.868408203125,1506.940823809194
508,46877.671875,1407.5867919921875,-1500.8972418771496,-622.0450002507678,-1098.565185546875,1424.2751536977016
509,50555.46875,1345.1630859375,-1478.5675088683638,-610.5469546525302,-1085.025634765625,1443.2773394536969
510,53204.88671875,1289.8282470703125,-1417.9146235879891,-593.4645275334742,-1030.5626220703125,1451.444889601189
511,42223.09375,1402.9794921875,-1476.7185755811365,-605.0339163735242,-1089.60595703125,1449.5736497208939
512,47804.453125,1322.8013916015625,-1392.2787496271417,-585.7995731234423,-1008.0989990234375,1435.896424479099
513,52134.328125,1308.2728271484375,-1427.7698628042986,-592.9035157574501,-1043.5830078125,1480.2382094063596
514,46687.4765625,1384.3203125,-1497.3222307842202,-614.2779993165262,-1103.80517578125,1456.3697071940214
515,45154.90625,1378.0308837890625,-1447.5955289639,-604.656513341463,-1053.673828125,1433.648830669768
516,53800.17578125,1461.634765625,-1520.2809991488707,-623.834094856913,-1120.55859375,1520.4547314730125
517,49733.7734375,1391.5994873046875,-1497.0705782777088,-609.209959435688,-1109.8258056640625,1472.7950136682098
518,44375.5859375,1364.38232421875,-1462.906635461708,-588.0584186982899,-1093.560302734375,1500.962328666504
519,48475.375,1467.2296142578125,-1522.2633747674718,-617.1292482671521,-1131.4176025390625,1557.5390187979613
520,42467.26953125,1400.3206787109375,-1454.02030836382,-590.6139091897853,-1079.258056640625,1454.6232108935233
521,43853.28515625,1352.2677001953125,-1457.2740166081749,-597.8983558655418,-1074.219482421875,1502.8140108503846
522,51435.890625,1502.700439453125,-1595.9563600368601,-655.2910829204868,-1175.83154296875,1528.259437038502
523,58943.5625,1393.3414306640625,-1429.1369043937373,-581.1576835846017,-1059.9739990234375,1455.4990068034572
524,44162.51171875,1398.14013671875,-1456.0643567396542,-599.4252513241238,-1070.798828125,1521.1075505484407
525,41452.1875,1356.017578125,-1441.080852165277,-581.4401934105149,-1074.55078125,1487.1993094796626
526,47882.33984375,1474.4521484375,-1576.1897108413925,-637.9865337867935,-1172.75390625,1504.1396096499839
527,46464.78125,1362.4903564453125,-1413.0578184935252,-586.2496481280759,-1033.51025390625,1458.4686412444023
528,44089.546875,1454.7598876953125,-1494.192804447223,-612.1607716113665,-1102.5400390625,1491.5443968020852
529,46126.15234375,1428.9383544921875,-1489.334385572282,-607.4047882421883,-1102.4119873046875,1552.488205184976
530,37702.3125,1416.9754638671875,-1492.345359745923,-606.2406634217348,-1107.630859375,1557.873983352555
531,45129.0390625,1454.0909423828125,-1506.459687990101,-615.4831559573875,-1113.720703125,1489.5540369679622
532,46382.3125,1564.2830810546875,-1626.2492304350978,-649.4279365205933,-1221.026611328125,1467.1479631293214
533,52494.734375,1424.3681640625,-1497.355164471268,-615.1469931781282,-1102.7601318359375,1534.8556229391436
534,39136.83984375,1413.16064453125,-1454.1540350307737,-578.9857063871833,-1093.96044921875,1499.5793907139398
535,44086.9765625,1367.05859375,-1424.1639151390837,-582.3479435030563,-1052.27001953125,1507.163662440636
536,47162.28125,1439.753662109375,-1505.415937573996,-622.7876060558225,-1103.285400390625,1499.6873263803266
537,49172.1640625,1565.7127685546875,-1615.2298408447175,-656.2884432062849,-1198.6767578125,1547.25726900827
538,41241.6171875,1430.843017578125,-1490.1678456893433,-604.5235000362862,-1107.055419921875,1475.0273621646452
539,41537.40625,1381.514892578125,-1435.6938340129677,-581.9623266337785,-1067.164306640625,1436.8386495708166
540,50033.07421875,1449.60498046875,-1512.9729786750877,-619.891453763006,-1116.3519287109375,1485.8741901154297
541,44146.921875,1478.5438232421875,-1518.5265738458697,-626.8116544990196,-1114.6435546875,1530.8499336042003
542,47941.6328125,1498.328857421875,-1537.8209308187572,-616.4009340495895,-1151.77490234375,1536.1146350148954
543,44054.16796875,1442.88623046875,-1538.2918446304811,-612.1876940558266,-1157.630126953125,1602.7037740987334
544,41894.1953125,1449.13037109375,-1560.3507519294428,-636.7339928065346,-1154.52099609375,1537.82411517803
545,51500.4375,1398.3306884765625,-1454.8343382527482,-591.990123934987,-1078.55517578125,1549.8694405394856
546,49044.13671875,1479.020751953125,-1501.5354300631489,-607.6156747192422,-1117.399658203125,1555.205288172632
547,44652.22265625,1453.1593017578125,-1490.4883838656906,-600.5620381996582,-1112.407958984375,1577.4667491587447
548,44578.07421875,1351.1873779296875,-1449.347267397674,-582.6275613142124,-1083.399658203125,1567.7144786577867
549,46096.48828125,1458.30126953125,-1586.2579419556293,-649.008510768715,-1171.561767578125,1579.9255663661347
550,54134.37109375,1408.98876953125,-1521.0125802194507,-618.5055119010426,-1128.1337890625,1543.2080472477178
551,47218.9375,1442.9693603515625,-1494.037280447649,-609.3621736532618,-1105.8438720703125,1631.6821312989437
552,49084.375,1550.923583984375,-1597.7572581434752,-649.047101384135,-1185.8876953125,1629.4812617641178
553,44231.36328125,1470.982421875,-1557.7138177649167,-629.038998509669,-1160.843505859375,1550.4844666079334
554,47264.9453125,1389.544921875,-1531.669738195821,-611.78945401328,-1149.850341796875,1664.174069726336
555,46380.65234375,1409.508544921875,-1572.2266340857,-628.1235791356862,-1180.12890625,1589.59222040154
556,50102.1640625,1379.7608642578125,-1486.9500866678154,-598.0151277477463,-1111.168701171875,1570.5439481912001
557,38322.7578125,1434.0859375,-1469.851426618718,-588.055125408512,-1102.245361328125,1584.0968422360381
558,51728.8671875,1482.642822265625,-1511.227521340185,-613.1170500050384,-1122.6380615234375,1566.9164875204808
559,45853.76171875,1455.530029296875,-1503.7139843653601,-606.1863729562323,-1121.909423828125,1517.9662107736553
560,43523.95703125,1393.84130859375,-1516.3460554545309,-608.8290990595268,-1134.396240234375,1598.6926116242223
561,40257.8671875,1375.1551513671875,-1525.3633513209309,-605.3727393664318,-1149.98828125,1609.822260160587
562,51863.109375,1439.532958984375,-1566.7403907665944,-622.3180129012984,-1180.5279541015625,1599.536017221636
563,43486.90234375,1456.83154296875,-1538.1708798725567,-635.0640451389773,-1128.883544921875,1595.228017827933
564,47093.5078125,1476.8270263671875,-1516.9724997763622,-595.205768488637,-1152.208251953125,1608.5009334093631
565,45570.8828125,1476.2501220703125,-1560.5798149669245,-619.5694172070993,-1176.262939453125,1607.5331706511618
566,41989.7109375,1346.052734375,-1503.1143496738396,-603.8142290398126,-1124.125244140625,1610.8098801450878
567,49840.58984375,1459.6925048828125,-1621.2269133985244,-660.9425194006612,-1200.35546875,1595.0586796118093
568,49834.9453125,1488.6329345703125,-1601.8229526105245,-633.3801115215663,-1210.553466796875,1642.86424202167
569,45301.16015625,1533.6719970703125,-1573.7758598845614,-627.7477448858483,-1182.53515625,1654.2901905369883
570,45787.53515625,1502.635986328125,-1516.800368005025,-607.6161436453338,-1136.480224609375,1617.1630055075652
571,56538.734375,1504.4576416015625,-1550.7692970955104,-616.8626176712391,-1167.38330078125,1565.4496899426206
572,44817.734375,1462.7515869140625,-1600.074194690638,-634.9450320296518,-1206.411376953125,1656.6027872721747
573,41922.32421875,1371.8380126953125,-1524.7278999854198,-606.975995772643,-1147.18994140625,1625.853562308715
574,44255.28515625,1377.30712890625,-1497.720961888068,-596.7662106118431,-1126.1934814453125,1569.0928498667704
575,46178.84765625,1397.2369384765625,-1458.3791143390326,-594.532928194755,-1079.8077392578125,1540.9254499682038
576,47640.8984375,1520.17578125,-1564.78175948945,-614.3171257962764,-1188.080810546875,1611.8144066942498
577,51761.7890625,1429.9788818359375,-1508.7602090896078,-603.110843674556,-1132.061767578125,1597.3023870967863
578,42042.890625,1339.26416015625,-1490.9730737500986,-585.7166806824666,-1131.570556640625,1552.0474079051767
579,53581.5078125,1371.9453125,-1564.115220789196,-617.0809153500516,-1183.7928466796875,1672.737056709872
580,54724.06640625,1392.1727294921875,-1545.0387653607104,-613.2712283876884,-1164.70947265625,1601.638954023353
581,42621.71875,1486.3096923828125,-1555.5826981103264,-617.7332635423384,-1172.3118896484375,1584.5881628508243
582,42095.7265625,1498.84228515625,-1545.9833400381117,-609.5719435316829,-1170.51416015625,1642.0211346797757
583,49028.87109375,1430.1761474609375,-1505.5278278336916,-614.4922193377336,-1113.79443359375,1564.0533291118102
584,46096.16015625,1405.1304931640625,-1553.304128592539,-626.8295102127672,-1158.09326171875,1637.2520714605862
585,45128.140625,1311.830078125,-1475.3277229318728,-599.3109930089079,-1095.02099609375,1576.0831078968145
586,38914.0625,1474.470458984375,-1584.9986272922397,-621.8402398287001,-1203.947998046875,1626.9025102664652
587,48747.1953125,1462.479248046875,-1512.8611175842218,-597.0795685151227,-1144.7269287109375,1570.3328871845122
588,46520.26171875,1449.5499267578125,-1511.150400747737,-603.1755180352424,-1134.968505859375,1604.7065547108775
589,46006.4609375,1411.48046875,-1511.4328774479438,-605.3583086918329,-1132.59326171875,1680.5534175317978
590,44068.9375,1316.8221435546875,-1477.938898324533,-583.3095491758869,-1118.28662109375,1549.5170660650538
591,47398.60546875,1427.956298828125,-1581.9746201372575,-626.8851890942881,-1193.86181640625,1567.257312641271
592,44582.859375,1367.1605224609375,-1475.2943902316033,-582.8941809317557,-1115.500244140625,1544.961026875635
593,43651.46484375,1492.728759765625,-1590.739888865461,-607.9748648516434,-1228.456298828125,1667.4329532542852
594,44521.6484375,1443.5260009765625,-1580.9987632839043,-625.6414244953576,-1194.1966552734375,1663.208585605135
595,49126.5,1462.3885498046875,-1605.3754625660135,-627.0924942080629,-1222.853759765625,1678.2902483707398
596,46867.6953125,1326.0966796875,-1442.8116505632545,-565.0246621648217,-1097.2337646484375,1572.6293760197002
597,39177.4609375,1439.0782470703125,-1563.460556726791,-609.5362959630602,-1192.4053955078125,1607.1049309231446
598,47701.7421875,1460.324951171875,-1582.8492191602859,-614.8809381152887,-1209.9603271484375,1659.9521458235627
599,42222.0546875,1421.542724609375,-1517.2570863968058,-597.3196281520013,-1149.921875,1673.079077581147
600,48859.609375,1455.904052734375,-1547.1699041972718,-601.993616629656,-1181.4703369140625,1557.475879354217
601,47082.55859375,1426.0743408203125,-1561.6358623290268,-615.7808525626383,-1182.3187255859375,1601.3602906201313
602,44817.0078125,1343.5848388671875,-1472.7275622796078,-596.0586084097433,-1095.836181640625,1556.8727617060963
603,45072.546875,1402.7064208984375,-1509.4531608048187,-593.1712808500334,-1145.352294921875,1616.1373956197287
604,48458.09375,1488.16015625,-1589.40489574671,-624.4927757166347,-1206.14013671875,1637.736316026907
605,43126.34765625,1373.3414306640625,-1491.4546103455023,-582.7953961852836,-1135.823974609375,1621.6087629349997
606,43782.15234375,1538.8253173828125,-1648.3946860791389,-648.3263767452183,-1250.0853271484375,1678.4804302737232
607,40552.68359375,1499.153564453125,-1613.5487660394724,-628.0149041264991,-1231.9173583984375,1697.8114951380562
608,48697.37890625,1540.1849365234375,-1642.89461497024,-635.3193060054659,-1259.46923828125,1694.0972209325407
609,48601.4609375,1453.7015380859375,-1568.512853912308,-612.5463658350027,-1194.9581298828125,1696.6879927620464
610,51888.11328125,1493.48779296875,-1616.134920204589,-627.5368518555255,-1235.74755859375,1724.0960875210828
611,40885.546875,1413.4822998046875,-1542.1765733131674,-588.737417117739,-1191.7989501953125,1633.1164388075913
612,42218.9140625,1434.232666015625,-1554.5430147498419,-594.556625401186,-1199.98291015625,1585.7545096485119
613,42546.12890625,1462.7001953125,-1539.027372753315,-604.7587318748909,-1167.835693359375,1600.6919348541187
614,47793.73828125,1466.763916015625,-1542.054100063644,-602.3919538708549,-1174.57763671875,1668.6834435952576
615,53272.14453125,1565.2080078125,-1689.0638269834965,-651.4314289389924,-1297.04052734375,1668.7080239749012
616,39678.4609375,1398.3087158203125,-1533.4869777853883,-603.8626065594426,-1162.030517578125,1607.4393870974634
617,47048.453125,1437.19775390625,-1537.5757509736793,-601.1144553197996,-1170.5765380859375,1642.0183541677702
618,48117.77734375,1501.379638671875,-1590.4271051085766,-612.0723965718622,-1222.943359375,1612.0273604782828
619,41337.0859375,1442.7120361328125,-1578.0527552134813,-613.4961874078485,-1205.6956787109375,1620.6005149829407
620,48645.8125,1456.21240234375,-1572.115234730463,-619.7800613738368,-1190.4189453125,1679.8124569010179
621,54302.5546875,1490.4547119140625,-1575.5459006929896,-618.2863707998893,-1196.574462890625,1705.755721329399
622,47090.96875,1376.738037109375,-1493.5272520054782,-590.2111244006732,-1129.1451416015625,1634.3802332814555
623,43426.55859375,1438.264404296875,-1569.6815065300123,-616.0342265417828,-1192.05908203125,1647.3375453642132
624,38556.1484375,1456.419189453125,-1551.6599341198375,-598.1213075710034,-1191.92333984375,1634.9970242690792
625,44450.3046875,1588.4283447265625,-1676.6604364353548,-652.6604462246725,-1280.0,1697.2659249003132
626,45034.84765625,1538.941162109375,-1638.6060934365078,-638.4667340047006,-1250.1741943359375,1647.1552241787706
627,48331.4453125,1431.0650634765625,-1595.3867107686262,-608.936557736681,-1233.062744140625,1706.4483158275373
628,49463.0703125,1307.3345947265625,-1483.614258814163,-581.7755108035424,-1127.2984619140625,1620.3999342066065
629,47445.28125,1444.75732421875,-1570.4789974676396,-610.3805335400575,-1200.123046875,1692.626810004161
630,41487.79296875,1476.4310302734375,-1533.5976679180367,-606.6189069424373,-1158.723388671875,1687.140770363867
631,47720.2578125,1530.4891357421875,-1551.733918057921,-593.9295874779843,-1197.25537109375,1670.5834730578706
632,51633.93359375,1614.4840087890625,-1673.8149747920352,-640.8214725463777,-1291.241943359375,1671.5063219824483
633,54793.93359375,1406.8829345703125,-1541.125926572294,-588.7559015771606,-1190.462646484375,1600.2320822045622
634,54905.4296875,1425.4007568359375,-1602.565478863297,-617.4784363701099,-1231.35888671875,1674.2934352070235
635,52134.76953125,1440.898193359375,-1606.7173315657178,-615.1517365481579,-1239.4569091796875,1720.5621158304111
636,42976.86328125,1502.5762939453125,-1597.0020036566784,-617.7833600926924,-1224.0233154296875,1699.2294657401364
637,48500.92578125,1660.097900390625,-1750.6448082035681,-668.9161584413882,-1352.1607666015625,1707.1461489255219
638,45317.28125,1397.62646484375,-1512.3567524901202,-577.2669965845143,-1168.862060546875,1682.0334237740478
639,48901.73046875,1446.5897216796875,-1593.6080660232578,-618.2439434715782,-1219.205078125,1682.8720881472125
640,43766.26171875,1464.81494140625,-1582.4653521138207,-614.5026243071036,-1209.953369140625,1641.6108881974258
641,45669.734375,1512.8365478515625,-1600.2295009095387,-603.0386408259326,-1246.4886474609375,1666.6921280913996
642,40074.52734375,1445.5992431640625,-1584.3098619297853,-606.5009459496249,-1222.2611083984375,1626.7162619762773
643,40899.984375,1469.90869140625,-1600.3133243589446,-622.7262475013515,-1221.98388671875,1730.3421159630755
644,35137.3828125,1400.3865966796875,-1515.5385865285298,-579.3546968772313,-1170.2298583984375,1613.4951244738527
645,45874.06640625,1497.7064208984375,-1641.7822352966778,-624.4634562066308,-1271.6484375,1691.2494672142734
646,48593.015625,1361.095703125,-1479.7956573129,-576.4914016551636,-1129.13037109375,1613.8137937045778
647,41689.640625,1498.947509765625,-1608.2514339875945,-610.5564335667112,-1247.11865234375,1712.5896435071224
648,46550.2890625,1462.8043212890625,-1599.0884024827337,-599.3061280014522,-1249.7279052734375,1654.9106703265763
649,47232.46484375,1419.9969482421875,-1569.47211726968,-608.8182179785224,-1200.8173828125,1750.3981061508284
650,41604.57421875,1509.04345703125,-1607.0899504402814,-611.3560285508794,-1244.66748046875,1728.3381240058113
651,40819.37109375,1546.0120849609375,-1644.418756154897,-631.5383216595001,-1266.1005859375,1732.4147466561037
652,54960.30078125,1470.661376953125,-1604.8028452164026,-603.0755276219451,-1252.1591796875,1716.894641419671
653,39103.53125,1473.5111083984375,-1630.8520288994823,-606.3919140907292,-1280.5751953125,1702.1875344476052
654,46981.98828125,1432.692626953125,-1580.0794142090372,-595.0270697817795,-1231.3154296875,1687.571995491832
655,39880.796875,1392.345458984375,-1483.5508395009952,-570.0078480088428,-1141.9287109375,1614.687376766817
656,43759.98828125,1534.1072998046875,-1632.1951171779065,-613.9166093283322,-1272.84814453125,1735.5619986960019
657,42666.8828125,1530.8245849609375,-1688.0846535468613,-643.3003547070685,-1305.9803466796875,1741.3232783735357
658,45380.6796875,1513.2227783203125,-1681.198322977531,-636.7289353672743,-1305.5867919921875,1677.5658092424876
659,48626.453125,1439.041748046875,-1563.4756160095565,-604.9721648533127,-1198.12939453125,1742.9218817830556
660,46515.84765625,1467.64306640625,-1600.9752414435538,-610.1711222075319,-1238.505126953125,1661.4395097781255
661,39661.8046875,1403.5673828125,-1536.2454897089412,-599.3120889639963,-1171.166748046875,1655.2113208038388
662,42890.1171875,1368.3868408203125,-1511.27628173966,-583.4511509203169,-1159.7813720703125,1679.2375105677777
663,37748.41796875,1524.2415771484375,-1657.7907390925557,-620.0929103802412,-1297.122314453125,1666.7753572537924
664,43342.59375,1484.169189453125,-1631.120527630619,-601.9193387548842,-1286.50146484375,1725.2995711411243
665,45188.48828125,1531.1934814453125,-1660.3510744683304,-640.6797037692598,-1274.5892333984375,1701.61448132726
666,37823.63671875,1446.629150390625,-1586.2833950388472,-599.2196963492077,-1233.82958984375,1633.445236489462
667,44321.2109375,1442.208984375,-1609.4649465214563,-605.2466141071272,-1255.2728271484375,1718.5518845911745
668,43687.32421875,1386.6041259765625,-1538.9432320392189,-599.103642405985,-1174.799560546875,1698.7278997724075
669,47937.12890625,1545.5220947265625,-1647.8580294185385,-614.4972463713093,-1291.700927734375,1726.3675281401486
670,41959.7421875,1426.5767822265625,-1550.267382788856,-596.359656020638,-1192.3846435546875,1617.175787053703
671,48681.4765625,1462.8505859375,-1637.8843922414517,-635.2394181057509,-1253.30615234375,1704.545862355659
672,53468.8671875,1379.3304443359375,-1549.2689683292392,-597.9494658083986,-1189.1494140625,1669.5952512584286
673,45030.24609375,1546.2005615234375,-1665.400994737011,-642.049367934775,-1279.189453125,1704.7217092383721
674,48901.6328125,1466.6219482421875,-1570.7876131860846,-601.3965303270453,-1211.73876953125,1685.5205291223817
675,47438.046875,1430.0367431640625,-1579.4240531529708,-601.7825660578383,-1222.0517578125,1660.8968251590265
676,39883.640625,1475.3258056640625,-1640.4267057179654,-616.4339296533907,-1279.990966796875,1775.7982145158442
677,39292.3046875,1536.7694091796875,-1654.2732051597245,-617.2487103686003,-1296.2806396484375,1767.9324610982846
678,45152.984375,1481.4832763671875,-1608.216555372086,-606.1968920946313,-1252.524658203125,1689.5232927934953
679,54430.9921875,1340.899658203125,-1478.1198175938384,-570.6132974931553,-1134.3831787109375,1661.9434899791145
680,41138.2890625,1398.8046875,-1544.0586222728352,-587.3214107824126,-1195.9215087890625,1725.2664112603918
681,41317.00390625,1495.8599853515625,-1625.0216275327707,-612.2073462906162,-1266.017822265625,1728.3205730898123
682,49468.59375,1417.4921875,-1523.6529235338617,-584.2378498518663,-1174.268798828125,1638.9976421054675
683,46704.75390625,1433.2303466796875,-1574.4219781903194,-600.7710269657537,-1217.063720703125,1688.3660225243445
684,40940.5859375,1428.144287109375,-1565.1661860246493,-592.212135880003,-1216.192626953125,1695.1164840810216
685,43658.95703125,1557.5242919921875,-1664.1100292736298,-624.8983783049143,-1299.0146484375,1758.3636044220634
686,46137.37890625,1487.56591796875,-1595.688291221983,-598.1962416230099,-1246.8651123046875,1675.816009675334
687,50636.9609375,1525.87158203125,-1682.9537755763556,-628.0747076401884,-1318.598876953125,1747.480468206655
688,43073.59375,1463.643310546875,-1606.7269320119376,-611.0453423742407,-1244.60205078125,1715.8752438988872
689,36509.9140625,1429.4827880859375,-1574.191774742907,-605.3055442961363,-1211.1077880859375,1670.4751377671694
690,39222.73828125,1559.8604736328125,-1700.9443250156266,-652.4844489888546,-1310.574951171875,1754.7426547672937
691,44852.0546875,1472.4530029296875,-1620.7209563061826,-616.2931847023078,-1255.53466796875,1728.4843118934039
692,51972.40625,1408.8690185546875,-1544.9054261872604,-591.9176297688914,-1191.2347412109375,1642.7454339690316
693,47053.90234375,1427.3502197265625,-1549.2250113305479,-588.4932977152832,-1200.91455078125,1695.6115163385132
694,49432.75390625,1499.8040771484375,-1616.8621520460083,-616.9630013570621,-1249.8739013671875,1771.5436128129522
695,48357.02734375,1528.9144287109375,-1662.93715322264,-631.2872920992272,-1289.562255859375,1689.886172347889
696,40130.359375,1424.6697998046875,-1589.1847798990484,-600.012764927971,-1236.4649658203125,1779.6124631145997
697,46022.828125,1437.9256591796875,-1581.8029291880534,-597.7257401976021,-1230.0965576171875,1791.631438481165
698,44530.125,1510.294921875,-1614.738716605218,-608.9250908522921,-1257.2669677734375,1676.4565904601036
699,46561.9453125,1436.297119140625,-1548.9464259668162,-593.6380970868189,-1194.135498046875,1784.838445177844
700,52583.3828125,1402.4033203125,-1577.201720041077,-609.6901248737641,-1209.3895263671875,1728.7556079952337
701,47315.75,1528.9134521484375,-1700.9201728079813,-645.1163808666514,-1319.7547607421875,1839.128881098419
702,47391.0390625,1457.854248046875,-1578.8163325601117,-613.3708547127294,-1206.806884765625,1670.915463498849
703,45517.23828125,1517.6019287109375,-1631.2642130948598,-635.3950770340851,-1244.83642578125,1783.0690778047224
704,48261.96875,1476.701904296875,-1618.8072336348228,-613.0279474940603,-1257.22412109375,1746.8012993274085
705,41802.15625,1415.5511474609375,-1569.3295637994374,-596.946503380623,-1215.4788818359375,1710.27725190393
706,40341.421875,1492.745849609375,-1621.3127078102623,-613.3665725802722,-1259.9327392578125,1737.9363012273018
707,44822.8671875,1401.8619384765625,-1548.2330686584198,-602.6448455780828,-1181.9853515625,1698.7354834191683
708,46790.60546875,1391.793701171875,-1545.812999028215,-591.7039424363206,-1192.6363525390625,1706.2863204614418
709,41585.31640625,1531.3656005859375,-1661.6215492071956,-640.5067006714082,-1276.3935546875,1708.653774340028
710,38137.83984375,1553.6732177734375,-1682.5974700484169,-622.9701636548828,-1324.5340576171875,1763.6406200704932
711,43797.48828125,1331.4478759765625,-1484.8136449496678,-578.3074684686445,-1133.1328125,1728.0231451959862
712,48876.03515625,1503.21533203125,-1638.3073032569193,-617.5974557226575,-1275.88720703125,1826.9321714305966
713,40865.25,1477.49853515625,-1613.7865063342683,-610.2381452328011,-1254.4354248046875,1781.5520936368575
714,40370.3125,1421.595947265625,-1547.815883254299,-585.969391267786,-1202.30810546875,1725.8321674607353
715,46439.03515625,1500.82421875,-1631.4949777968168,-604.0004351770444,-1284.3681640625,1796.588932950913
716,43758.7421875,1452.7039794921875,-1609.9953559240703,-609.8565325294995,-1250.173583984375,1725.190955470318
717,47960.15625,1434.4725341796875,-1565.398401854349,-595.6165454499178,-1212.227294921875,1729.0856907390616
718,43827.7578125,1461.364013671875,-1593.5062547632224,-605.6969834395414,-1234.7615966796875,1788.6604511048693
719,42577.5390625,1496.240966796875,-1652.4326561472171,-619.2533423444979,-1291.47412109375,1741.3704705927355
720,41729.54296875,1427.7943115234375,-1561.0231407796546,-588.9437445674605,-1215.0992431640625,1710.6342196626124
721,44210.5625,1521.4852294921875,-1611.6892486309707,-602.5905874678939,-1261.373291015625,1746.5316583680817
722,36882.72265625,1428.41552734375,-1521.1048709016816,-574.4030451025404,-1183.3773193359375,1761.373249612952
723,48248.5234375,1461.6727294921875,-1627.6509325697366,-621.0912777824603,-1258.199462890625,1769.4989750167824
724,44323.625,1437.043701171875,-1617.461328728911,-625.2903123286035,-1240.2138671875,1777.7346379104686
725,44102.6171875,1507.7479248046875,-1628.970971940277,-610.9061143839784,-1272.5810546875,1790.2552011060875
726,42046.703125,1594.0364990234375,-1679.9922422050483,-630.0110839905203,-1312.4764404296875,1831.0499080260363
727,40894.8125,1488.9635009765625,-1583.9462366146663,-603.9182673508927,-1225.034912109375,1750.1175688182161
728,37378.12109375,1397.0318603515625,-1556.8102317718085,-583.36424570654,-1216.8074951171875,1724.6544120518
729,50558.625,1445.9183349609375,-1643.8036226293602,-637.2814151021248,-1258.1527099609375,1831.351401673299
730,45447.98046875,1433.190673828125,-1565.6378494698006,-593.7449042159517,-1214.8662109375,1727.8527251867938
731,39205.84375,1378.3643798828125,-1478.1266348216545,-571.6847691751879,-1133.05224609375,1691.362879897433
732,38589.15234375,1410.7156982421875,-1532.0176563213113,-587.717158849211,-1180.3756103515625,1708.2857776605772
733,46698.42578125,1356.018798828125,-1527.7218854876196,-575.5892878780102,-1190.165771484375,1770.2670152667931
734,45324.61328125,1370.2733154296875,-1548.250130798578,-597.6852405003307,-1188.2060546875,1708.030886647325
735,38163.19921875,1402.6085205078125,-1503.1057561522034,-566.8196953329873,-1170.357666015625,1765.2191363568663
736,38219.9921875,1453.6829833984375,-1537.0815843553396,-581.9561051593275,-1193.906982421875,1743.1622793794222
737,35922.11328125,1366.9097900390625,-1496.210031264301,-573.6982874055649,-1153.1396484375,1719.2444444969549
738,43325.09765625,1386.2183837890625,-1542.2001583385463,-582.713116768859,-1199.3587646484375,1762.2655380530823
739,38296.9296875,1459.3768310546875,-1580.2174032748655,-599.1398230896309,-1226.346923828125,1722.6772988858122
740,42843.2578125,1461.2076416015625,-1565.7120229695925,-595.984437329136,-1212.159423828125,1752.9421646234232
741,45819.9765625,1434.53369140625,-1538.8925991284123,-577.7219957441487,-1201.4632568359375,1677.0235994084376
742,41234.92578125,1362.33837890625,-1545.357175149864,-586.6878578876167,-1198.336669921875,1739.4697223409908
743,43118.26171875,1420.6522216796875,-1595.4540255653437,-593.4553229319627,-1252.498291015625,1781.692549233534
744,46353.68359375,1418.3067626953125,-1546.8520625246285,-591.7095888418673,-1193.927978515625,1753.260094490514
745,43278.984375,1581.0225830078125,-1665.592237829073,-627.1053347888685,-1298.108642578125,1827.4897502418594
746,43188.359375,1403.0615234375,-1498.913277933584,-569.6687259318544,-1161.5556640625,1678.2622242559855
747,43731.15234375,1465.4217529296875,-1636.4177977774516,-631.70702567289,-1255.8885498046875,1747.3821463804795
748,37428.484375,1321.9141845703125,-1483.6217036311361,-565.2806909439,-1147.92626953125,1651.475697342552
749,44794.05859375,1457.937255859375,-1570.5304897890032,-598.0731382280194,-1215.57177734375,1753.617002560911
750,43484.3046875,1529.9989013671875,-1635.7819643470466,-626.5878717046237,-1261.4925537109375,1793.997482490283
751,39424.00390625,1382.5716552734375,-1519.0559217039643,-569.1638680569973,-1187.3651123046875,1736.4884230822406
752,41109.08203125,1370.890625,-1508.862757774594,-573.1660210480568,-1169.620849609375,1719.1322548554774
753,39698.75,1437.7120361328125,-1569.395491465385,-586.9426754472953,-1228.0660400390625,1734.7059238318786
754,41465.26953125,1470.09228515625,-1581.9711067905346,-586.1978936000426,-1244.7164306640625,1724.4605713063381
755,47518.35546875,1540.1783447265625,-1678.1546175085643,-628.7886065930762,-1311.70751953125,1822.3125371341598
756,42353.4375,1312.7152099609375,-1475.9120523711272,-573.2437889602572,-1128.3353271484375,1675.4293988858851
757,43099.55078125,1449.3436279296875,-1602.1051749674427,-603.6619393601837,-1248.053955078125,1812.4660121460472
758,42736.59765625,1491.1431884765625,-1580.018422381475,-589.7164765893363,-1237.87744140625,1772.4327913727009
759,40043.10546875,1500.783447265625,-1579.2937790971116,-590.7907697516359,-1235.6287841796875,1756.9583927754882
760,47074.5390625,1397.075927734375,-1542.099850504571,-579.8031688268343,-1202.870849609375,1780.1298535552892
761,38829.578125,1503.8616943359375,-1656.5847446000214,-620.6101020888434,-1294.96826171875,1791.9376808169789
762,45560.828125,1465.5137939453125,-1564.6922750561057,-592.6888247689719,-1215.0042724609375,1720.7639356223194
763,46753.6015625,1408.935546875,-1521.002040741049,-565.5751371348429,-1194.2835693359375,1670.7189598763578
764,41327.75,1412.5411376953125,-1561.9418624912728,-584.8765063871967,-1221.331787109375,1737.4226497251561
765,45679.17578125,1466.5714111328125,-1602.5700630295582,-602.3427003435352,-1250.2841796875,1835.4185985683707
766,39914.46484375,1461.5479736328125,-1618.9918969017822,-601.7930675299274,-1271.49853515625,1771.4358949249101
767,45247.41015625,1422.4189453125,-1576.5758837521257,-591.0096887706959,-1231.957763671875,1746.8976760306148
768,37524.296875,1506.2161865234375,-1612.7972544354936,-603.5500047954349,-1261.55908203125,1846.7748295018007
769,43895.875,1477.7623291015625,-1611.5985287071526,-612.2368594321742,-1249.2021484375,1820.4652251717912
770,42936.53125,1413.472412109375,-1594.3802994961043,-609.1903114393476,-1231.487548828125,1816.6001822392732
771,43961.65625,1416.67138671875,-1583.5503245717373,-599.0803408871864,-1230.5875244140625,1763.901224120634
772,47683.48828125,1436.826904296875,-1543.4693051062554,-592.1634340683959,-1189.13232421875,1713.234956816604
773,43473.36328125,1500.2822265625,-1598.8418186003482,-602.1245879439775,-1245.896484375,1680.1345929287638
774,44673.203125,1424.685791015625,-1574.8562918593698,-587.4518002597206,-1234.255615234375,1833.6555098237877
775,41329.3046875,1362.1982421875,-1513.6913325067462,-575.0988653953038,-1173.2406005859375,1793.4991953651536
776,47302.3046875,1372.610595703125,-1494.2679692667325,-573.2637723264634,-1151.2552490234375,1690.528091107513
777,40982.125,1429.808837890625,-1574.1407597799994,-578.9491084446406,-1243.989501953125,1792.1416296384104
778,42357.8671875,1502.3199462890625,-1643.4601328738797,-622.9158784949054,-1275.6802978515625,1776.5996582197986
779,39096.8203125,1467.119873046875,-1628.293313001738,-609.6976681015352,-1273.24462890625,1773.4380190583288
780,49617.83203125,1433.823486328125,-1571.5742479663302,-604.8414601184386,-1208.4158935546875,1756.0622861858171
781,42397.421875,1424.9886474609375,-1567.013045868051,-596.9578304335073,-1212.5689697265625,1799.8606671736823
782,44136.86328125,1400.07080078125,-1524.3684105570558,-568.6255546626764,-1194.6785888671875,1719.4872606040076
783,40317.0390625,1431.951904296875,-1580.232691507304,-590.0085792885926,-1237.7801513671875,1746.894610113999
784,42438.63671875,1511.6436767578125,-1707.5121462797356,-632.6291355138253,-1343.603759765625,1759.1276013493784
785,44090.46875,1354.8831787109375,-1545.6162156163584,-584.436433444811,-1201.4747314453125,1740.4617397230952
786,47349.796875,1387.1495361328125,-1505.586081649813,-572.3785930757253,-1166.5093994140625,1806.449330016812
787,39657.484375,1399.2611083984375,-1504.7939352366793,-563.431895188214,-1176.70263671875,1703.0400117972183
788,45781.8125,1388.4801025390625,-1540.3502251152331,-568.2724809900308,-1215.09716796875,1769.6867696496795
789,42485.76953125,1411.0185546875,-1582.8807133221544,-597.9330105911486,-1231.1846923828125,1774.032211156679
790,43676.56640625,1404.1676025390625,-1534.9318274162047,-579.7016838630927,-1194.03759765625,1804.1171324106958
791,41682.28515625,1449.5234375,-1574.6890964515658,-583.184966341421,-1239.380126953125,1854.8918549660807
792,40452.87109375,1436.7991943359375,-1605.5840859759865,-606.5002567734834,-1248.854736328125,1790.878748237515
793,42516.86328125,1500.41650390625,-1643.6819485514147,-630.8511720153224,-1266.03857421875,1791.463870929599
794,41483.96875,1386.0201416015625,-1529.8543314765807,-583.8270116854129,-1182.5341796875,1814.4466919576878
795,43882.29296875,1420.187255859375,-1599.2803371322052,-596.3939812195197,-1253.60791015625,1738.5911517986217
796,46275.9296875,1356.651611328125,-1534.1960120601457,-584.1873261993628,-1187.5108642578125,1767.2291948353395
797,44211.55859375,1526.3699951171875,-1651.7220377828444,-622.781120576568,-1286.176025390625,1718.340770586957
798,44793.2578125,1577.7857666015625,-1691.7632183895043,-626.8177576034857,-1331.181884765625,1806.5538216347861
799,43172.53125,1372.06982421875,-1523.3718581954456,-579.1923856534504,-1180.224365234375,1738.867818572392
800,42301.8984375,1367.4141845703125,-1539.550575540149,-588.0759320196969,-1189.34326171875,1737.8514049293617
801,42008.89453125,1450.751953125,-1602.6007585887874,-606.1211918954812,-1245.599365234375,1813.3317492275312
802,40811.44140625,1393.9832763671875,-1521.7861680636834,-569.1452391172479,-1190.8011474609375,1794.0871756490963
803,42139.79296875,1420.150390625,-1594.1707862305589,-611.5709899590485,-1228.249755859375,1836.3945034524654
804,45285.41015625,1385.0224609375,-1566.352249149444,-593.7062059425997,-1215.8076171875,1781.0599615511842
805,45514.671875,1446.6441650390625,-1622.0781810013264,-618.4990520097,-1254.473876953125,1807.6858691509997
806,46012.62890625,1463.899658203125,-1566.0205868463686,-608.0698875982969,-1197.4383544921875,1894.5524226862055
807,43318.26953125,1475.4515380859375,-1568.8862885543133,-587.7045255332243,-1226.4771728515625,1757.9627636952282
808,46271.4609375,1366.142333984375,-1531.041580121854,-585.8527704133481,-1181.486083984375,1842.4854130082413
809,47494.84765625,1327.54931640625,-1532.500858909061,-589.2040963409298,-1179.120849609375,1820.6681871454907
810,44445.6953125,1333.1112060546875,-1538.7854782446316,-576.2006717165029,-1203.23095703125,1803.9912687334809
811,48378.53125,1345.7828369140625,-1500.5711928102319,-589.5046395662372,-1138.833251953125,1811.1753387202764
812,42584.54296875,1480.2265625,-1582.3165883772947,-618.1568838804901,-1205.19970703125,1858.64007874333
813,48819.765625,1423.43115234375,-1524.6492029091319,-588.5992517722744,-1170.0625,1709.8636979990945
814,43821.17578125,1360.22607421875,-1525.1594353041623,-590.3889541632508,-1168.463134765625,1834.3559177580264
815,40371.3515625,1318.2137451171875,-1505.4814905212243,-580.7767847854626,-1155.880859375,1794.762026372864
816,44796.2890625,1299.70068359375,-1464.6350168533804,-559.1907492436648,-1131.805419921875,1778.1522457381357
817,41507.7109375,1466.4527587890625,-1578.3731914502105,-612.0622550440487,-1207.888671875,1878.332554730108
818,46337.328125,1397.3980712890625,-1516.705424991934,-587.5585989869519,-1161.43359375,1849.679577395336
819,53832.19921875,1407.8905029296875,-1574.702946906269,-597.3713169057037,-1221.66455078125,1796.4126695184223
820,48136.8671875,1357.0438232421875,-1544.2164155003761,-591.1088531840737,-1191.384521484375,1806.0102416933282
821,46177.32421875,1338.7816162109375,-1480.9132413576026,-589.1705511442987,-1114.6783447265625,1865.7847626888226
822,42539.890625,1410.8338623046875,-1540.9061052763807,-600.4942310869666,-1175.514892578125,1809.5119877761906
823,44647.77734375,1302.5655517578125,-1482.7060914839592,-578.3855652003523,-1130.400634765625,1740.7173647480704
824,39693.72265625,1295.6778564453125,-1462.3391439241573,-571.8384440516336,-1113.1258544921875,1810.1782178039148
825,41093.3984375,1359.1015625,-1478.8005603664471,-578.1253817255524,-1125.843994140625,1842.240627671098
826,47240.90234375,1360.314697265625,-1494.505705513451,-579.1971039849517,-1144.1357421875,1856.360837429643
827,42250.4921875,1323.8570556640625,-1531.416043565269,-612.6429210363286,-1148.466552734375,1844.5445468475607
828,45502.28125,1352.2216796875,-1539.1220830536226,-592.4692260921713,-1183.316162109375,1789.7305618596538
829,43120.1015625,1365.552490234375,-1488.0954272240938,-591.2110629406363,-1121.10546875,1867.1362751510344
830,41970.3359375,1392.6409912109375,-1496.8419890476866,-574.1664830748466,-1153.344482421875,1824.9369248703642
831,45148.7578125,1447.5035400390625,-1607.3214642287817,-611.3007804806928,-1245.02587890625,1868.1175429525367
832,41888.55078125,1243.247314453125,-1418.0998143594425,-560.2573281136985,-1072.3031005859375,1810.1039288989848
833,46101.32421875,1344.8726806640625,-1472.3403920770227,-581.6582546236529,-1113.3526611328125,1776.1632471218916
834,43135.09375,1374.6851806640625,-1505.8942968630922,-581.3885912085643,-1155.632080078125,1772.8896658105343
835,46863.96875,1333.388671875,-1510.5787325671608,-606.1618097102004,-1130.521240234375,1865.804908754659
836,42744.5859375,1341.173828125,-1500.739436079502,-574.2205569037569,-1158.148681640625,1812.4194907328645
837,42515.86328125,1468.9920654296875,-1584.3287062419859,-619.5868695446571,-1205.92724609375,1907.9429580120059
838,42845.33203125,1392.8397216796875,-1503.120252376989,-584.3945140863848,-1148.4072265625,1863.7403769490777
839,44833.0,1319.204345703125,-1497.312351555331,-594.6736955412199,-1128.29833984375,1811.5925147159887
840,43969.63671875,1359.524169921875,-1526.6409127158358,-595.6840275972396,-1163.696044921875,1831.2579370828187
841,45118.140625,1559.6690673828125,-1680.1438380435739,-649.317690810531,-1288.53271484375,1866.6453523499215
842,41622.08984375,1382.5523681640625,-1497.601304335219,-583.5452538910107,-1142.570068359375,1849.0285412959984
843,40682.609375,1349.748779296875,-1532.362695980045,-594.8861080195484,-1171.845703125,1843.3090261441619
844,38395.9140625,1396.1673583984375,-1566.402931256176,-611.219609693208,-1193.9791259765625,1900.9618418596765
845,40632.97265625,1438.934814453125,-1542.330576301136,-601.2505844028228,-1176.3499755859375,1847.736407539168
846,47740.57421875,1433.3387451171875,-1525.8692632001535,-594.8698358808354,-1163.749267578125,1836.8897185422961
847,43479.7265625,1336.9466552734375,-1494.6185969349895,-586.3280198004994,-1135.36328125,1850.1238883746703
848,42255.7265625,1326.133056640625,-1489.3066497367024,-581.1782381244152,-1135.1605224609375,1818.390093033304
849,50747.30859375,1401.236328125,-1539.093372901055,-589.5569474606691,-1186.9205322265625,1812.2496206931369
850,41161.46484375,1408.9228515625,-1493.1725234666687,-591.9892646662739,-1126.47900390625,1830.911669761951
851,50042.55078125,1432.7454833984375,-1501.6610985467275,-584.0782262275993,-1146.978515625,1797.8148359499544
852,50228.40234375,1385.1517333984375,-1524.5258230429972,-600.2066229958916,-1155.39892578125,1817.9473997766818
853,44114.296875,1295.4261474609375,-1511.863448316777,-583.0236042435151,-1161.0498046875,1843.5263932600076
854,45684.6328125,1278.8292236328125,-1521.1325547306374,-599.2489533165974,-1152.3544921875,1886.7867818607135
855,55370.453125,1326.7216796875,-1522.6315936659084,-609.0383136790797,-1141.9915771484375,1842.0061781547554
856,42007.6875,1528.2218017578125,-1603.9792984078163,-615.7218314838119,-1235.32177734375,1849.8519581866822
857,45428.1328125,1412.058349609375,-1452.2045542978049,-563.2403539166153,-1111.205322265625,1812.3511848715941
858,54912.05859375,1320.9427490234375,-1393.4950865607027,-538.3307103029701,-1068.95556640625,1841.9932543490431
859,42895.08203125,1250.0064697265625,-1430.3092215165198,-562.5549568110778,-1084.69287109375,1845.1838123407883
860,38642.31640625,1272.904052734375,-1477.9863353141786,-566.7584543443486,-1139.034912109375,1843.477296145297
861,40958.9453125,1259.1954345703125,-1440.178470963764,-571.7108573934652,-1085.58447265625,1811.151399175217
862,48177.6484375,1439.668701171875,-1539.385863293082,-601.4277343330236,-1172.4476318359375,1858.6233200491674
863,46006.66796875,1427.6812744140625,-1512.243462278756,-599.0426645047651,-1141.5009765625,1869.8391707384972
864,53153.1328125,1363.793212890625,-1486.4915821832706,-577.0104543578911,-1136.851318359375,1910.4712785220556
865,49043.25,1253.885986328125,-1465.5104038551945,-589.9663849475357,-1094.4300537109375,1834.0956223859334
866,46904.9609375,1362.334716796875,-1579.379462405765,-600.3241090026738,-1223.8192138671875,1919.4549644980439
867,53417.90234375,1331.709228515625,-1510.1282644477853,-601.4326961414138,-1135.8695068359375,1895.180466491595
868,50956.41015625,1477.4853515625,-1551.6928806469498,-600.7059629671929,-1188.733642578125,1909.5666767900104
869,49505.25,1539.7161865234375,-1584.5218241944524,-610.6292700834188,-1217.36572265625,1882.0938384033764
870,61349.5390625,1482.3299560546875,-1549.028757023937,-596.2118057390066,-1191.021240234375,1814.845429826665
871,54069.8671875,1302.4334716796875,-1461.3296669248975,-563.7600991027912,-1121.9619140625,1858.9211498191453
872,42331.3203125,1237.417724609375,-1432.1982654118287,-560.0729662315297,-1090.1566162109375,1795.4702384619527
873,45430.2265625,1380.259521484375,-1573.5461556454075,-608.0168879886044,-1206.91162109375,1855.898481393969
874,46654.4921875,1429.937744140625,-1532.5429932963923,-590.1339090472907,-1178.0113525390625,1908.8893237001575
875,45737.69140625,1418.0135498046875,-1523.5240290120385,-611.8335481091542,-1139.613037109375,1899.4855788152763
876,48931.09375,1417.66357421875,-1546.4501015762014,-598.3670651609225,-1185.103759765625,1865.7663393656546
877,48938.94921875,1357.951416015625,-1573.4706920168883,-612.088408075418,-1201.7279052734375,1827.1252450915053
878,42453.27734375,1229.5643310546875,-1448.633246993038,-554.5715283026425,-1117.5771484375,1866.1124288872004
879,53170.921875,1320.307373046875,-1498.2239531632285,-584.0988123279769,-1142.656494140625,1873.1383241302362
880,44205.8984375,1447.41455078125,-1528.3328825484336,-591.4237983118118,-1171.136474609375,1793.0105119510204
881,48429.3203125,1432.69775390625,-1479.036132652479,-577.605560780483,-1126.7882080078125,1880.733795122575
882,52162.16796875,1386.0142822265625,-1492.785421608237,-589.6787601721819,-1128.88330078125,1872.6481355170074
883,41937.12109375,1286.8447265625,-1491.3111259693642,-585.4391125539678,-1132.340087890625,1838.403098595969
884,51074.859375,1305.6441650390625,-1516.5252344407231,-580.7006427189426,-1169.7806396484375,1881.0659420192294
885,48270.55859375,1374.734619140625,-1553.5175160414967,-612.1766744069253,-1176.676025390625,1839.432514748154
886,42393.43359375,1398.3748779296875,-1471.308343508167,-575.8890691913457,-1119.274169921875,1845.6432576627358
887,49358.6796875,1384.7947998046875,-1432.1682282034467,-575.6602031755422,-1070.635009765625,1807.296412249392
888,48220.42578125,1382.5635986328125,-1485.0256527597105,-587.156527808497,-1122.33642578125,1846.6936488302597
889,47770.4453125,1430.2017822265625,-1647.4955704318054,-635.5313626842267,-1264.955322265625,1968.1922689374733
890,49146.2109375,1388.8516845703125,-1627.10246817188,-619.2799184338902,-1259.7781982421875,1914.3081418229629
891,54556.54296875,1196.5223388671875,-1404.771816801583,-555.5017494331352,-1061.587646484375,1761.0767964754962
892,50659.78125,1435.9495849609375,-1568.013932341208,-597.5544328151839,-1213.0743408203125,1806.6641896938872
893,39170.96875,1464.824462890625,-1557.6416021089435,-580.025410388726,-1222.020263671875,1856.9225245419289
894,44375.63671875,1419.3521728515625,-1564.8854325926172,-604.3016281874161,-1200.729736328125,1883.0400410743441
895,40327.61328125,1197.3072509765625,-1403.2644976735953,-556.0994409256521,-1058.956298828125,1830.7735726081496
