Wnight963/UAV_optim/maddpg-master/experiments/learning_curves/exp_4/agent_1_traj.csv
,q_loss,p_loss,target_q,rew,target_q_next,target_q_std
0,289280.46875,3.5925095081329346,-337.4323568930298,-337.2061263378369,-0.2827881872653961,418.09752491887355
1,290279.625,8.681140899658203,-338.9523560936616,-338.723072488851,-0.28660452365875244,423.8389111848467
2,282235.34375,15.713579177856445,-341.2215568750423,-340.9868755072455,-0.2933517098426819,418.9835061768228
3,290451.25,27.273513793945312,-377.3576405584272,-377.14621681265885,-0.26427966356277466,409.8675816598906
4,259391.140625,39.81131362915039,-341.3588406624307,-341.1569963638831,-0.25230535864830017,415.80207687742046
5,231501.28125,56.072837829589844,-321.35670576549603,-321.1624478321016,-0.24282242357730865,413.3954601061318
6,218510.28125,80.20682525634766,-322.32346580614603,-322.1179327350378,-0.256916344165802,422.22597376761973
7,214156.875,109.0028076171875,-339.1605585826075,-338.9613901269777,-0.24896055459976196,432.88492783592926
8,183581.53125,148.96377563476562,-364.986192999241,-364.8059459256757,-0.2253088504076004,410.37308471519015
9,155970.109375,189.77041625976562,-339.48831800325047,-339.2914811476587,-0.2460460662841797,428.11093260484495
10,134326.125,246.47813415527344,-371.7903549019068,-371.6013513812852,-0.23625439405441284,421.90235273904705
11,107276.703125,304.3605041503906,-371.6783099830059,-371.469040112682,-0.26158735156059265,420.5406281101904
12,81305.046875,379.26385498046875,-362.43919795840225,-362.21555794550653,-0.2795500159263611,425.9368358786224
13,72241.890625,454.1186828613281,-366.48987748768445,-366.2412435689384,-0.31079238653182983,432.3647150365611
14,71692.7421875,499.9414978027344,-360.1029616123118,-359.8472914162901,-0.31958773732185364,424.2326905872743
15,95020.0078125,554.3838500976562,-378.2334700876242,-377.933504893678,-0.37495648860931396,433.95368833787694
16,107108.90625,541.4609985351562,-335.3049263547852,-334.9759490729812,-0.41122162342071533,421.98932587343273
17,122369.2578125,584.98828125,-378.49825155970984,-378.0900790609529,-0.5102156400680542,445.2966796369936
18,125128.75,565.9791259765625,-352.4573371063678,-351.9833358389478,-0.5925015807151794,434.529510664628
19,101699.859375,543.75146484375,-375.69494713233667,-375.1376772771947,-0.696587324142456,423.8031080515008
20,97854.953125,525.9220581054688,-385.93168359605187,-385.2591653523574,-0.84064781665802,429.05044611818715
21,91604.7265625,503.1756591796875,-392.1155363360283,-391.26308876408893,-1.0655595064163208,439.49632206628957
22,73497.53125,419.0251770019531,-349.7465482576832,-348.8154845240491,-1.1638296842575073,456.3651330626801
23,59390.37890625,368.81158447265625,-348.16971089450453,-347.0792213914066,-1.3631118535995483,429.2251162186775
24,58328.9921875,336.57568359375,-357.64777485949094,-356.37296485351044,-1.5935125350952148,426.18428429844926
25,59741.796875,346.960693359375,-405.72027035244844,-404.13808199031496,-1.9777355194091797,442.070853566441
26,62967.0703125,320.6747741699219,-369.42336816551244,-367.70213916050113,-2.151536226272583,427.6828321438234
27,64049.47265625,338.40765380859375,-394.37298430564874,-392.358636344453,-2.517934799194336,430.6854045265137
28,58744.421875,335.02691650390625,-347.21098592167084,-345.00562795298003,-2.756697416305542,446.33241181750094
29,58218.52734375,370.1416931152344,-386.0198896563452,-383.44719785117337,-3.215864658355713,432.746832216293
30,50462.390625,362.5577697753906,-343.12223141170335,-340.4518101568357,-3.338026523590088,419.0936143311684
31,59468.25390625,407.5496520996094,-358.9852449083247,-355.81865701957264,-3.9582347869873047,446.1544216372572
32,54662.54296875,409.3639221191406,-376.5846754486765,-373.0543184799002,-4.4129462242126465,430.79908327595547
33,62056.64453125,414.1530456542969,-388.7418439320697,-384.74766364227406,-4.992725372314453,450.323492407788
34,56497.609375,392.5425720214844,-374.9516957645022,-370.5665608598219,-5.481418609619141,441.08334636825055
35,62884.5,361.581787109375,-373.2883106427222,-368.61920395139157,-5.83638334274292,448.1291646845002
36,49902.29296875,360.7654724121094,-382.474345522817,-377.2422582920648,-6.540109157562256,435.3628298748572
37,51573.578125,345.686279296875,-361.9454662007577,-356.26240940737256,-7.10382080078125,438.6065070685955
38,60530.58984375,336.2466735839844,-373.8104086426431,-367.7490226835124,-7.576732635498047,434.92458186763776
39,53425.6640625,353.159912109375,-373.82595959393274,-367.1694030051489,-8.320695877075195,438.4584385556791
40,51815.671875,377.4734802246094,-381.3881014573241,-374.1074995572401,-9.100751876831055,449.56962695779265
41,53121.828125,371.8043212890625,-367.38797766355526,-359.8354609785248,-9.440646171569824,450.59329219944794
42,49542.6640625,371.11395263671875,-363.0620386742114,-354.94993065411114,-10.140134811401367,452.3518449827362
43,45022.52734375,370.48077392578125,-373.6624583038886,-364.69775849624193,-11.205875396728516,438.07579508995394
44,50447.5546875,379.4635925292969,-394.0963395111827,-384.47244523923405,-12.029868125915527,445.1487537075543
45,59247.109375,364.94921875,-382.5028816987511,-372.47636930727003,-12.533140182495117,461.864342175386
46,50646.875,373.7270202636719,-375.4476596705106,-364.8556705594833,-13.239986419677734,455.6881600657391
47,54906.07421875,400.1455383300781,-398.2434811663709,-386.44924958095044,-14.742790222167969,465.4911367450504
48,55607.16015625,381.1560974121094,-395.4698526626457,-383.2505369268216,-15.274144172668457,455.0577507027749
49,46769.42578125,377.0506591796875,-395.2893107994796,-382.0236319765902,-16.58209800720215,451.9249989168052
50,54409.875,357.6055603027344,-392.48064147547177,-379.20306819848827,-16.596965789794922,467.0978282296737
51,54341.796875,387.4854431152344,-405.5649101981616,-390.7136259909064,-18.564105987548828,461.2054098284318
52,55456.28515625,410.8548583984375,-432.30643475562437,-415.9916080081229,-20.39353370666504,457.28664192399367
53,50326.5625,397.06793212890625,-403.06616592981914,-386.9370020963357,-20.161455154418945,477.3770114551887
54,53793.5078125,408.771484375,-411.7463040416594,-394.5307241176546,-21.51947593688965,467.36279154779123
55,59324.1328125,380.8983154296875,-399.46184751960305,-381.81500649617726,-22.058551788330078,473.4216339826399
56,54661.68359375,378.1551208496094,-401.7608154187813,-383.3014696848569,-23.074180603027344,468.47974239796173
57,52101.4921875,384.436279296875,-416.9752006721233,-396.8867197021683,-25.1106014251709,472.4596862901054
58,49460.16015625,373.3980407714844,-409.67771418131247,-389.0687921416941,-25.761152267456055,459.7153287342729
59,51556.72265625,373.4490051269531,-399.1879884105855,-378.7439510760548,-25.55504608154297,465.25170939256816
60,47002.234375,386.7085876464844,-386.3221815185547,-365.07972125586514,-26.55307388305664,460.1896966301761
61,51453.7578125,436.6120910644531,-419.7998021769472,-395.70750254958875,-30.115375518798828,476.9624733584748
62,50066.3984375,418.9674987792969,-422.1475209781303,-397.661741582067,-30.607223510742188,467.3730715366597
63,49831.51953125,405.7840576171875,-419.8589407244391,-394.345549292337,-31.891738891601562,464.2592634621482
64,48376.71875,385.2469787597656,-420.63130052830843,-394.1773603289522,-33.06742477416992,470.0517349392838
65,50775.0234375,371.67291259765625,-417.46355750989375,-389.94894035033855,-34.393272399902344,469.50451529662075
66,46295.07421875,358.6017150878906,-420.1008748879954,-392.186290532846,-34.89323425292969,478.35147311083904
67,46533.43359375,366.9997863769531,-416.93927449025625,-388.0544644759834,-36.10601043701172,472.14660430708705
68,49446.484375,376.516357421875,-399.79948262076545,-370.9989102888347,-36.00071716308594,467.34140473981245
69,51153.51953125,410.5125732421875,-411.963686917116,-381.28122023499657,-38.353084564208984,482.129815208575
70,45580.83203125,399.23345947265625,-396.6751454287755,-366.1415522177115,-38.1669921875,463.53269418275715
71,51129.109375,427.9488220214844,-422.0551332377294,-388.0532928561374,-42.50230026245117,495.47629436802134
72,43610.1328125,419.8437805175781,-429.4777518490488,-394.18704656206955,-44.113380432128906,484.9412005882159
73,51436.859375,414.2341003417969,-449.54852051682235,-411.72950011921034,-47.273773193359375,501.8331523332796
74,44470.890625,376.7820129394531,-421.60017410410717,-384.93791753179306,-45.82781982421875,475.27982738186745
75,44821.171875,379.6290588378906,-428.9846435763777,-391.5480650344564,-46.79572296142578,473.7166670793616
76,46000.5234375,398.60125732421875,-426.28987145960434,-386.60878001875705,-49.60136413574219,497.73855477000023
77,45342.734375,414.36785888671875,-430.4579239116852,-390.33622697052647,-50.152122497558594,490.3339791398062
78,50542.39453125,426.9004211425781,-433.9789207715665,-392.3373567286391,-52.05195617675781,495.9096210822596
79,43157.40625,419.3397521972656,-429.8139470140483,-386.9415896227617,-53.59044647216797,483.5733967011575
80,46679.7109375,405.4268798828125,-436.26675670063764,-391.6913451134292,-55.719261169433594,494.15602882360577
81,46873.7734375,388.1529846191406,-446.46512918233816,-401.2524062807631,-56.515907287597656,485.0857294475593
82,45904.61328125,408.1792907714844,-449.3450863137847,-401.86830562012676,-59.345977783203125,494.5128403279963
83,46057.01953125,413.38427734375,-435.14411564545173,-387.8609817790117,-59.10391616821289,489.8481431297182
84,43909.78515625,452.1419982910156,-460.09728320045315,-408.85070981862293,-64.05821990966797,508.65611565337196
85,41635.2265625,431.6723937988281,-444.278869219791,-393.68613891169963,-63.24091339111328,487.6183425630486
86,41049.6328125,443.0944519042969,-460.6310889247951,-408.04398563085425,-65.73387908935547,502.25542526471594
87,43347.62890625,438.87261962890625,-459.59529188646366,-404.05931551583006,-69.41996765136719,509.0653923011554
88,39027.375,395.3338623046875,-441.3319296856537,-387.22992339658765,-67.62751007080078,487.4046172197177
89,40080.67578125,406.3525390625,-464.9105510647671,-406.53359837989854,-72.97119140625,512.2660824106034
90,49869.1328125,406.58428955078125,-474.08180432272735,-416.1382940088248,-72.42938995361328,511.451962688101
91,40807.91796875,392.9387512207031,-435.4354551725876,-379.1661466262624,-70.33663940429688,511.31270870206833
92,40682.7734375,456.14190673828125,-483.0446254840091,-420.7190695003577,-77.90694427490234,509.2789468358341
93,39762.6328125,460.2385559082031,-456.4653407550583,-394.1559383684586,-77.88675689697266,502.0333134188587
94,47327.80078125,490.8478698730469,-495.9550284470941,-428.566108057792,-84.23615264892578,524.4032562758457
95,42970.8828125,449.49359130859375,-459.1160054372948,-393.4649928097938,-82.06376647949219,524.1239580286332
96,40735.37109375,431.0097351074219,-474.10083807673504,-406.10461839576453,-84.99527740478516,510.83992573569424
97,39854.8046875,427.6444091796875,-470.1294256250376,-401.1819415621985,-86.18435668945312,506.3808398942492
98,40747.05859375,467.82525634765625,-499.9143499908393,-425.01891103733857,-93.61930084228516,529.650926473537
99,38715.5703125,456.4601135253906,-469.00891831708947,-397.05589495130334,-89.94127655029297,511.6664525690339
100,40162.19921875,487.2191467285156,-489.2668714921313,-414.1627349554942,-93.88017272949219,508.25792842518456
101,42832.88671875,464.65191650390625,-476.57452249580194,-402.7549293881016,-92.27449035644531,527.2312165447195
102,40027.0078125,449.71038818359375,-471.44833939682024,-396.12482822123593,-94.15438842773438,510.1651642603563
103,39713.5859375,429.8858337402344,-470.94602895670005,-394.25361520986667,-95.86551666259766,506.30989468365055
104,38696.53125,441.80780029296875,-493.77872636788186,-412.42620939958965,-101.69064331054688,528.4142381456924
105,37438.66015625,449.9018859863281,-490.5208129891704,-406.7264958887056,-104.74288940429688,542.022395067208
106,35260.71875,474.87542724609375,-487.68661419780244,-403.87911592844887,-104.75936889648438,525.4377073534251
107,40854.92578125,499.4322814941406,-500.43055731696813,-414.1247148843032,-107.8823013305664,556.7188725888914
108,34132.14453125,512.7980346679688,-494.33268374178135,-406.1991645775413,-110.16690063476562,535.8771575330782
109,36176.00390625,498.3116455078125,-494.3126507951232,-405.40731820983876,-111.13166809082031,545.8549786847685
110,37108.99609375,461.6247863769531,-488.48914254171876,-399.7060316768741,-110.97889709472656,521.0542959056208
111,34695.63671875,482.9056701660156,-526.0522702555901,-427.65861922519116,-122.9920654296875,530.3632560579211
112,36953.6171875,447.0522155761719,-501.76858247306666,-407.36890011827927,-117.99960327148438,532.6951616263405
113,37279.125,452.2997131347656,-504.1567676319863,-409.4767803494475,-118.34999084472656,530.9020222445395
114,36471.5390625,495.6604309082031,-503.1777704872465,-404.1476047922199,-123.78770446777344,538.7541116865817
115,35165.34375,543.2098999023438,-534.9796853743358,-430.2077565017544,-130.96490478515625,547.3901407146894
116,39406.3828125,538.2802124023438,-527.8174547397931,-422.21408339746336,-132.00421142578125,554.9121570954799
117,35581.15625,523.2496337890625,-519.8036321856575,-413.0447905848529,-133.44854736328125,530.8469449011451
118,34719.66796875,476.18402099609375,-506.48382751902363,-401.0126553202074,-131.83895874023438,539.6404606822624
119,39029.32421875,494.21356201171875,-540.1137266457586,-428.16523481836,-139.93560791015625,550.130809109347
120,37773.2578125,492.0308837890625,-535.3526120338123,-422.4688873899519,-141.10464477539062,558.202393649085
121,43670.4375,519.6649169921875,-550.8410763604718,-434.81106443476517,-145.03750610351562,554.9681119022192
122,36935.203125,518.8007202148438,-520.1801046036018,-406.10161963693764,-142.59811401367188,541.5289724904419
123,34883.7734375,514.7514038085938,-514.042145768677,-399.19397711891963,-143.56021118164062,552.273196942859
124,33960.6640625,508.6598205566406,-518.7966776945956,-401.75708106584864,-146.29949951171875,571.2180100677136
125,33772.14453125,486.7601013183594,-509.294626732706,-393.03705717565015,-145.32196044921875,537.6133816461374
126,34711.49609375,494.92901611328125,-527.4937530900232,-404.0790701783026,-154.2683563232422,568.7716839977919
127,35470.0546875,463.258056640625,-504.1962390395168,-387.9717149650034,-145.2806396484375,558.2371297311381
128,33958.75390625,500.5984802246094,-520.8372175823006,-396.0148852560012,-156.0279083251953,554.7041393771905
129,38791.765625,546.571533203125,-565.5715295194801,-433.3449935933379,-165.28317260742188,583.1042809193872
130,36501.8984375,562.94873046875,-578.0248648015748,-442.13693420881987,-169.85992431640625,572.5349348247025
131,35016.49609375,523.869873046875,-546.5159389467083,-415.3636763088975,-163.94033813476562,581.3274455148885
132,33644.5234375,538.0423583984375,-565.2049308548799,-428.6592738994981,-170.68206787109375,568.7337722966812
133,36387.88671875,524.0774536132812,-551.9834073655217,-417.39895158148397,-168.23057556152344,561.8370578559004
134,34755.3671875,531.9573364257812,-562.7600493865591,-425.84434832156785,-171.14462280273438,584.1758388679514
135,36363.82421875,570.2978515625,-590.7629407942375,-446.76390176020425,-179.99879455566406,587.2829182410203
136,38088.5546875,564.0794067382812,-578.4924386299937,-436.1920666309795,-177.87547302246094,590.2152319296378
137,35514.578125,535.6475830078125,-558.2979495549698,-416.8528706949328,-176.8063507080078,606.0322934071685
138,30201.5625,540.5073852539062,-581.0964489574873,-432.98023264420715,-185.145263671875,602.9681046713548
139,35290.75,556.664794921875,-599.2385827136817,-445.8531987025877,-191.7317352294922,591.3068722852487
140,34636.06640625,586.62744140625,-601.297828732127,-446.0561578696115,-194.05209350585938,629.6048382278012
141,30942.37109375,580.9315795898438,-578.8813138655586,-429.4690902008874,-186.76528930664062,614.4347902580259
142,34072.02734375,602.5625,-602.2340986028327,-446.29712479948194,-194.9212188720703,601.0404324460974
143,31784.94140625,575.1881713867188,-589.2762546352792,-432.9923659196805,-195.3548583984375,615.4043714915251
144,33846.75390625,554.1985473632812,-598.3788877244083,-438.10823854095986,-200.33831787109375,639.7724036910132
145,35162.375,560.3206176757812,-610.7023765085698,-443.3995239291774,-209.12857055664062,636.9147157307623
146,35326.671875,552.10205078125,-599.8290201209936,-441.19363152128483,-198.2942352294922,629.2494067704712
147,37848.359375,574.455810546875,-588.1346417856512,-428.89633477443056,-199.04788208007812,618.3399201768252
148,40653.953125,630.64501953125,-628.9015720416779,-459.4602922688342,-211.80160522460938,655.148112895216
149,35442.5546875,614.8822631835938,-605.4464693936455,-439.16727814378044,-207.8489990234375,637.4113303489913
150,36776.44140625,577.30615234375,-591.7783979899567,-426.8644359360301,-206.1424560546875,616.8869056378944
151,33885.0859375,617.0516967773438,-660.0623679601097,-477.91035619866784,-227.6900177001953,642.9746707930076
152,36471.49609375,579.8987426757812,-622.653103165027,-445.1885750508181,-221.83065795898438,667.6633699663734
153,34893.63671875,625.3553466796875,-653.8932627321785,-470.54039473958363,-229.19110107421875,667.8952729783393
154,35867.6328125,630.7487182617188,-635.4579193775389,-453.0350162014446,-228.02862548828125,672.5421069280095
155,34197.43359375,618.6710815429688,-615.5899221104244,-437.61388693101713,-222.4700469970703,646.8027692762792
156,35213.01953125,624.652587890625,-617.2404784465565,-432.63948556392063,-230.75123596191406,661.2262430863334
157,33153.4921875,631.96630859375,-647.96259436697,-454.4074024084723,-241.94398498535156,661.5682011642551
158,33480.36328125,611.6469116210938,-641.8947536007319,-449.670028392312,-240.28091430664062,649.4762071691486
159,34988.9296875,613.7431030273438,-635.9040526276706,-442.20222475792,-242.12728881835938,688.8000481775332
160,34788.23828125,621.3773803710938,-636.9275896115743,-443.6338711394394,-241.61715698242188,683.9320594408118
161,32143.046875,640.1359252929688,-650.6764328774296,-453.8381082327803,-246.0478973388672,663.3304185918066
162,32835.7109375,602.2861938476562,-607.4115877856733,-419.9007082367083,-234.3885955810547,661.5440264243139
163,36759.77734375,660.0451049804688,-671.5430692427403,-466.9697774916032,-255.71661376953125,701.526782828249
164,32181.591796875,620.8706665039062,-629.9050136697513,-437.9557477058179,-239.93658447265625,664.934104566366
165,32483.869140625,643.3113403320312,-641.5619175538452,-438.625283391544,-253.67080688476562,668.2906292449669
166,34197.59375,683.8130493164062,-690.8789628166819,-471.8347701466756,-273.80523681640625,704.5246986999891
167,33913.546875,639.4330444335938,-659.1257432626298,-447.26101230210344,-264.8309326171875,686.7945938099796
168,31512.2421875,642.3892211914062,-654.9738025665597,-444.34349627281415,-263.28790283203125,686.2977203321901
169,34339.890625,682.647216796875,-678.6610758339474,-459.97920932513193,-273.3523254394531,714.1315995653284
170,33692.140625,695.4660034179688,-682.186197705623,-460.4363338357398,-277.18731689453125,718.3787510631203
171,34520.42578125,673.5939331054688,-676.6359851165892,-459.7702552392366,-271.0821533203125,727.09109016965
172,33445.3359375,652.6857299804688,-676.2345716856541,-454.22409080561533,-277.51312255859375,677.7915252395169
173,35329.625,639.9144897460938,-663.7646558775504,-441.5001174427041,-277.8306884765625,721.1420617632278
174,32480.9296875,662.499267578125,-684.8817418698469,-455.33918877749386,-286.9281921386719,689.8655018328649
175,38575.3984375,715.2191162109375,-706.4841931699568,-471.424868735371,-293.82415771484375,700.9462532551671
176,29967.90234375,700.4710693359375,-678.8948737810106,-449.9386017592364,-286.1953125,740.6663042352462
177,39714.1640625,704.3736572265625,-713.2754742222678,-470.3659429731618,-303.63690185546875,757.7408559171525
178,33888.140625,668.5257568359375,-707.5546597955114,-470.45597877705643,-296.37335205078125,728.26480496642
179,35987.76171875,665.7613525390625,-689.2945242578801,-450.56511173508443,-298.4117736816406,734.3863715792003
180,31564.796875,665.7418212890625,-668.5596956132085,-437.4217986758439,-288.92236328125,738.629966278289
181,30942.830078125,654.3789672851562,-671.7181881303293,-440.98617943877815,-288.4150085449219,696.9939912448564
182,35500.453125,657.3435668945312,-695.5891449017763,-453.34109880880794,-302.81005859375,730.8864974606944
183,30475.236328125,659.3909912109375,-699.4688225386703,-449.7504970367804,-312.14788818359375,746.3805516026974
184,37294.56640625,685.7246704101562,-706.0411159319835,-452.97897859744586,-316.32769775390625,744.887843303637
185,30745.205078125,711.1076049804688,-723.1510586453651,-466.39623799454904,-320.9435119628906,733.0876076983268
186,30448.64453125,673.7813110351562,-692.5291908094955,-446.75072638786565,-307.22308349609375,732.1479635797166
187,36389.140625,716.4437866210938,-749.5331952861817,-479.8801704890401,-337.0662841796875,759.2793946798789
188,34597.6328125,688.7044677734375,-707.2708204573603,-454.13621210815626,-316.41827392578125,707.382832374833
189,31115.890625,708.8824462890625,-720.5063988332878,-456.0086272734459,-330.6222229003906,733.9631869998576
190,32699.671875,727.799560546875,-744.7106771519636,-471.3033741105577,-341.7591552734375,748.0718721598756
191,38830.50390625,720.1982421875,-771.0064597537983,-493.16675263794696,-347.29962158203125,753.3081436836846
192,35020.28515625,706.0130615234375,-754.5189821937454,-478.85850636783124,-344.5755920410156,771.0353007566441
193,31761.77734375,718.086669921875,-738.9553034745461,-463.52258777619124,-344.2908935546875,748.7187123931237
194,34601.7734375,743.6741333007812,-741.3226279829305,-466.692027677051,-343.28826904296875,763.3817408855966
195,37203.859375,717.2390747070312,-721.1707044523947,-455.63619329408203,-331.91815185546875,753.7176951396195
196,34669.9453125,710.886474609375,-727.319797591497,-452.7225136974173,-343.2466125488281,757.9764159446777
197,36653.796875,725.6250610351562,-757.1061035940409,-476.2586395697653,-351.059326171875,780.6631125964811
198,30741.40234375,764.8336791992188,-776.9655681313432,-487.1522742893496,-362.2666015625,793.1581585910855
199,37654.59765625,778.065185546875,-786.1826784725146,-487.574400315651,-373.2603454589844,771.9657234706624
200,34092.01171875,725.5582885742188,-749.5821079768491,-465.0131519030797,-355.7112121582031,774.688025307854
201,31375.962890625,746.6495971679688,-775.2727497279758,-480.2204654369617,-368.81536865234375,810.7691479158208
202,32958.5859375,763.2307739257812,-775.883410553482,-474.94523621502947,-376.1727294921875,788.3838708493079
203,34282.5234375,714.7640991210938,-720.7816698344635,-433.64144205585825,-358.92529296875,811.6057323922657
204,31100.890625,773.9259033203125,-787.564324064381,-488.75091722737125,-373.5167541503906,792.4718790243177
205,35493.21875,810.6746215820312,-808.1286065972872,-503.1997876700475,-381.1610412597656,824.3548261594988
206,30542.60546875,806.27099609375,-784.189484345063,-478.68683207294663,-381.8782958984375,835.4993068580013
207,31703.296875,756.26708984375,-766.5998319939179,-463.7250553442565,-378.59344482421875,800.1014556841576
208,33766.4375,748.0462646484375,-776.4386616383655,-470.6425814864201,-382.2451171875,817.0105589463752
209,37139.109375,781.5482788085938,-805.1646944110873,-490.02775294530545,-393.9211730957031,800.9969500869164
210,34226.05859375,798.83154296875,-810.7785378861013,-497.0398984531643,-392.17327880859375,815.578566239714
211,36200.78515625,838.4277954101562,-834.9490619280084,-506.66906596167826,-410.3499755859375,836.5555728152722
212,35059.625,803.3684692382812,-808.8082897294794,-481.3647516915124,-409.3044128417969,828.9937423524648
213,34570.46484375,771.7684326171875,-813.8084481236931,-488.7544995335336,-406.31744384765625,823.2212318583703
214,38965.0390625,731.6326904296875,-784.7719677964537,-472.55229167228896,-390.27459716796875,853.8347848521277
215,32610.484375,780.1779174804688,-806.3734519953645,-481.19449688278047,-406.47369384765625,839.320871285213
216,29340.259765625,786.5499877929688,-772.4489276330709,-458.30819286070994,-392.6759033203125,831.3265373742954
217,35534.15625,810.8690185546875,-806.640428062182,-484.56344880482936,-402.5962219238281,821.9355375539116
218,30102.703125,791.992919921875,-805.6269958772664,-475.2141465965625,-413.01605224609375,810.0473214780021
219,28377.53515625,757.316650390625,-813.880926056749,-481.990694598465,-414.86279296875,835.8830207650759
220,36652.046875,770.182373046875,-846.8891768601054,-500.1433784527966,-433.4322509765625,860.1114073322922
221,39057.87109375,784.4440307617188,-846.278879451062,-501.1672421270372,-431.3895568847656,852.15835305487
222,40124.6796875,776.9476928710938,-791.535229070716,-465.99993931325014,-406.91912841796875,839.308768988876
223,33495.0546875,801.98681640625,-790.6945322495118,-466.81551170497454,-404.8487854003906,836.9112832465481
224,33967.06640625,858.5091552734375,-850.1832527873701,-497.3571494293993,-441.0326232910156,847.2140572656155
225,29936.44921875,784.174560546875,-807.8409146379247,-469.4320185793596,-423.0111083984375,820.545600284359
226,33777.2890625,809.3529052734375,-867.5625332574068,-505.6625119812495,-452.3750305175781,873.4955336394515
227,29475.205078125,752.5317993164062,-816.3468077718404,-472.7487796752838,-429.49755859375,845.0061432768991
228,32333.591796875,790.3045043945312,-828.162906323478,-478.7163731635663,-436.80816650390625,867.8812576652355
229,30461.5078125,848.4421997070312,-850.7265103979549,-490.33604472154286,-450.48809814453125,890.9909068604721
230,36043.8125,845.4095458984375,-840.2008263628452,-483.20454461793304,-446.245361328125,856.2171600174755
231,30003.525390625,799.9609985351562,-820.7209286080636,-470.87925850208467,-437.3020935058594,867.3083757737896
232,36026.6015625,798.5366821289062,-857.2132181771703,-493.01117899579907,-455.2525634765625,884.882592486436
233,37460.90234375,806.5679321289062,-864.5483630259896,-498.73540240355334,-457.2662048339844,884.7180783664649
234,40484.55859375,832.6946411132812,-869.7949459332536,-499.6677940632478,-462.658935546875,873.1214856703456
235,46944.98046875,874.3057861328125,-889.4489766717703,-513.4993535924517,-469.93701171875,868.9749959525116
236,41888.859375,838.4954223632812,-851.7559817007361,-492.25691226810125,-449.37384033203125,892.6134979938937
237,32403.171875,823.3597412109375,-872.8961201758859,-498.7425872828615,-467.69189453125,894.1439978706521
238,41605.453125,798.7354125976562,-862.982709344253,-493.43746768828476,-461.9315490722656,887.8550917404111
239,53522.23046875,837.7890014648438,-893.107367792776,-511.40787924626295,-477.1243591308594,903.3164283084543
240,39676.40625,882.6828002929688,-907.5358654372412,-515.2653253098968,-490.3381652832031,917.5394758325975
241,59201.66796875,885.4570922851562,-914.6525139388161,-527.5372294153551,-483.89410400390625,922.9992799278848
242,38386.5390625,875.3175659179688,-916.260826112045,-523.278810735507,-491.2275390625,909.707549324086
243,45160.1875,827.636962890625,-885.2932079405368,-500.8576749535122,-480.5444030761719,926.8520581940328
244,44291.0859375,852.3621826171875,-905.7619063067153,-514.7682218891471,-488.74212646484375,941.1024897706101
245,47700.0546875,893.1004028320312,-912.5773386661406,-517.0447260674066,-494.415771484375,911.7719102806819
246,41982.59765625,896.1986694335938,-912.8506218098187,-517.7336683653843,-493.89617919921875,889.2319082886534
247,44387.73828125,847.1061401367188,-866.1280181287347,-492.7305857701018,-466.7467956542969,940.7422458609872
248,49709.01953125,854.5224609375,-909.1016545694247,-514.617096317971,-493.105712890625,906.6571088387468
249,38376.09765625,874.8106079101562,-929.9102776688746,-520.7738009930811,-511.4205627441406,908.6520914599229
250,34368.203125,888.2463989257812,-912.3721474632516,-507.6381950340128,-505.91741943359375,930.2195047699967
251,43892.28125,856.3193359375,-856.233396647717,-478.0816252027033,-472.689697265625,927.1154731747839
252,43778.61328125,902.8427734375,-891.1996092405687,-497.3196509977389,-492.3499450683594,941.252003060702
253,39230.421875,916.0606689453125,-925.9106988656658,-515.9862938392299,-512.405517578125,932.1804094831091
254,42892.859375,845.7171630859375,-892.9606716527768,-503.6614981469862,-486.62396240234375,937.1097182845696
255,40932.19921875,871.914794921875,-905.5191207480027,-504.92969179305857,-500.73681640625,923.9107722894992
256,42086.80078125,901.6405639648438,-922.2400321422081,-508.3665030701022,-517.3419189453125,990.4761196370413
257,40839.359375,949.6539306640625,-947.568709621477,-530.3809259515172,-521.4847412109375,966.0381510482147
258,43900.515625,908.9239501953125,-902.3473783438333,-497.8499827311612,-505.62176513671875,930.2661661634635
259,38504.9609375,925.4889526367188,-957.1030467988877,-525.9316744227847,-538.9642333984375,930.8983403018858
260,37609.55078125,849.8304443359375,-891.9956402686007,-499.60486272085006,-490.48846435546875,945.6799308703548
261,34824.578125,847.3512573242188,-864.9439870616651,-477.6136037892892,-484.1629943847656,952.721522123613
262,39796.12109375,896.317138671875,-909.4660748238025,-499.02397020364197,-513.0526123046875,969.3689352507004
263,36749.58984375,874.8230590820312,-901.5536197395156,-488.45905091321083,-516.3682250976562,956.2491203452792
264,37812.67578125,906.6633911132812,-955.2825512937969,-525.9562918166398,-536.6578369140625,950.8534616134166
265,37718.0078125,857.9332275390625,-897.733152060797,-495.22529333497357,-503.13482666015625,958.0801577753522
266,41053.0625,947.1659545898438,-969.2406303993093,-527.5430945981893,-552.1219482421875,931.1265635645607
267,38037.1640625,906.7997436523438,-932.9049713853162,-511.61685059102,-526.6101684570312,973.1922576178105
268,36492.06640625,893.0701904296875,-935.4761573397703,-506.95525648874775,-535.651123046875,929.2154983054008
269,42984.0625,909.1963500976562,-972.1576815972851,-534.4679370400311,-547.1121826171875,987.3475299911801
270,45267.828125,922.3250732421875,-958.4696316782739,-519.9995347947236,-548.087646484375,982.1632685698521
271,38078.8515625,973.028076171875,-1000.396800276429,-541.4024324305602,-573.7429809570312,990.5743562403401
272,35126.8203125,918.358154296875,-955.8362710069368,-511.8101650006572,-555.0325927734375,1002.8814094805259
273,41668.83984375,908.5366821289062,-944.1339040676633,-515.2938575886691,-536.050048828125,990.6945262793067
274,38682.28125,927.4180297851562,-966.8436919477701,-528.6247276128668,-547.773681640625,955.9580977168076
275,37328.3046875,908.6656494140625,-962.965087311445,-520.4334480424507,-553.16455078125,955.5748182423819
276,38622.703125,883.6915893554688,-955.7586146412959,-504.181709292399,-564.4711303710938,966.0421036744015
277,41114.37109375,822.7974853515625,-893.7996990871395,-487.9051473483222,-507.36822509765625,1001.9385334235878
278,37120.625,934.7293701171875,-956.064218516158,-515.8639620649386,-550.2503662109375,981.6088552808853
279,41217.03125,963.3866577148438,-985.3837564419345,-528.0493944410555,-571.66796875,995.3579211430163
280,34954.6171875,871.6781616210938,-922.8984969513214,-501.44998968129073,-526.8106689453125,1009.88203870125
281,39240.6484375,913.1792602539062,-965.2082053975912,-518.548698105082,-558.3243408203125,1010.1592699119501
282,39106.7265625,955.4844970703125,-983.8586995460815,-529.8977118932434,-567.4512939453125,989.2530331523301
283,44573.890625,906.0118408203125,-942.7687573027629,-513.3245068203955,-536.8052978515625,991.0614786222645
284,39438.22265625,948.7461547851562,-993.933282154964,-523.914705278564,-587.523193359375,1008.1802012065044
285,41613.6484375,952.640380859375,-992.0549775885202,-531.2911795407783,-575.9547119140625,1002.0397904270468
286,39338.5546875,1008.9095458984375,-1031.067751991702,-542.8541401380669,-610.2670288085938,1015.8160212052067
287,38823.21484375,951.8751831054688,-978.1868180260362,-506.3116300097035,-589.843994140625,1029.9329379021651
288,38150.48828125,992.2235717773438,-1041.5311546965286,-542.6048610437911,-623.6578369140625,1013.9682099342824
289,41957.51171875,922.2427368164062,-970.4247923164089,-519.8889152256698,-563.1698608398438,1035.4874835194018
290,31803.263671875,941.419189453125,-958.3692283897876,-505.4708914152097,-566.1228637695312,1021.9467914038523
291,43635.90234375,940.0320434570312,-965.2560252316553,-520.3414259072649,-556.1432495117188,1010.8100237334476
292,37606.69921875,955.8967895507812,-999.3694214591305,-524.6540617015692,-593.3942260742188,1026.0223842590046
293,43777.6640625,942.981689453125,-996.7318188460816,-529.3808308767427,-584.188720703125,1009.0894924307136
294,37993.80078125,1025.7703857421875,-1058.665455844426,-560.1094211186612,-623.195068359375,1054.0499854793723
295,35101.90625,1004.0089111328125,-1033.8476516633598,-529.4684983326424,-630.4739379882812,1036.7549361947242
296,40301.2890625,964.4827880859375,-1015.6150057694899,-528.8895392781146,-608.4068603515625,1025.1497915257469
297,37722.578125,975.5864868164062,-1001.4522210104213,-526.9411978114218,-593.1387939453125,1054.6262873828869
298,38822.46875,964.468017578125,-998.0907119477794,-526.2876759053834,-589.7537841796875,1024.1030717335525
299,34209.80078125,913.23486328125,-982.6397362331866,-502.2981849593117,-600.4268798828125,1005.3564461480595
300,37705.91015625,958.0487060546875,-1030.6859705838617,-537.4464761770573,-616.5493774414062,1040.5217609549516
301,39510.75,998.5184326171875,-1037.1702784156184,-538.7507197359334,-623.0244140625,998.2984526476394
302,39064.046875,1017.9953002929688,-1040.5125396413937,-535.64605904056,-631.0831298828125,1051.2933821410204
303,36791.60546875,934.2802124023438,-983.9412964185079,-505.1862366215636,-598.44384765625,1059.9473706167985
304,33204.45703125,991.767822265625,-1038.4078931801878,-523.7189157911502,-643.3612060546875,1062.8658525211163
305,37382.78125,974.2772216796875,-995.8532464879154,-516.9526016760672,-598.6258544921875,1038.6776036476515
306,40023.375,1064.788330078125,-1086.936749479066,-565.6156240633535,-651.6513671875,1096.6499105135663
307,39884.7421875,1009.2499389648438,-1054.3911858618083,-542.674828842963,-639.6455078125,1086.2309878734263
308,38351.57421875,982.580322265625,-1023.9457546730096,-521.1540032780765,-628.4896240234375,1053.2447369734357
309,40370.73828125,986.7294311523438,-1009.4292681666566,-520.1952637013521,-611.54248046875,1030.8594222152428
310,36887.109375,1014.0760498046875,-1038.102242949028,-533.0242004409718,-631.3475341796875,1077.4040639819286
311,39289.85546875,1073.7435302734375,-1122.728114309104,-574.1819343766549,-685.6827392578125,1109.0604747076493
312,40443.109375,999.5899658203125,-1043.4842873794842,-523.7896764872478,-649.6182861328125,1140.6183581730018
313,36143.2109375,1044.694580078125,-1046.6201277759292,-525.9760555684933,-650.8050537109375,1076.629216078769
314,34809.09375,1019.3853149414062,-1030.2723956744621,-525.1355563547899,-631.4210205078125,1070.464760073738
315,38639.2890625,1015.1265258789062,-1063.486269531584,-543.9058094622553,-649.4755859375,1098.837153657579
316,38078.484375,971.0667114257812,-1019.782919339573,-521.0581542549357,-623.406005859375,1071.0956502243123
317,31403.38671875,1082.41650390625,-1098.0803407345961,-550.0223819450537,-685.0724487304688,1059.4491792731144
318,30831.01171875,1037.97998046875,-1059.5709940093475,-531.5807063109147,-659.9879150390625,1029.2635221055489
319,38048.421875,1001.2184448242188,-1055.434076948265,-538.6092136084906,-646.0310668945312,1062.1889497778814
320,34287.2734375,974.21875,-1027.3356012762843,-521.3365452863593,-632.498779296875,1064.4993007123853
321,38599.26171875,1023.3260498046875,-1051.1200533203355,-529.4326730243434,-652.1092529296875,1080.2178311918658
322,40245.13671875,1030.7559814453125,-1048.3081867562,-537.9649180734389,-637.9290771484375,1114.6834087196198
323,40868.10546875,1062.632568359375,-1094.8581629335274,-559.3857516776163,-669.3405151367188,1107.132355076298
324,38326.03515625,1049.2803955078125,-1116.4371002709813,-561.3130931786582,-693.905029296875,1125.137685784852
325,41259.171875,976.040283203125,-1042.7465929688688,-534.9347669028944,-634.7647705078125,1081.8694108577483
326,44699.34765625,1017.4019775390625,-1039.6672927081886,-521.2348311524206,-648.04052734375,1081.8053477692538
327,42548.1640625,1089.170166015625,-1092.1026730533276,-557.1219653557573,-668.7258911132812,1130.154827408512
328,34407.47265625,1061.0797119140625,-1072.2268256281827,-535.3059022742648,-671.151123046875,1087.5477997351445
329,41634.3203125,1069.7371826171875,-1129.1606131667013,-567.5742419877763,-701.9829711914062,1111.815147409453
330,45653.08984375,1059.2799072265625,-1116.0611493155343,-560.5596262481978,-694.3768920898438,1112.8424909308571
331,40976.578125,1122.8717041015625,-1154.7591670008705,-580.724559245105,-717.543212890625,1150.609433516955
332,38799.265625,1062.520263671875,-1064.111589998016,-533.8666980236859,-662.80615234375,1088.2791154993827
333,36839.7421875,1075.701416015625,-1084.7026347343165,-548.2465412821905,-670.5701293945312,1046.4990134686166
334,34635.23828125,1061.9090576171875,-1108.8996803595314,-549.9707031945329,-698.6612548828125,1175.028153075803
335,37586.44921875,1054.852783203125,-1091.9441865074796,-543.1342343042486,-686.012451171875,1100.477490635596
336,37818.03515625,1076.903076171875,-1087.2407810469253,-537.9311721077283,-686.636962890625,1157.7598346010843
337,37706.64453125,1158.693115234375,-1167.5536360898902,-567.8198477402245,-749.667236328125,1172.6118330963072
338,35634.2734375,1080.0733642578125,-1117.5783656700496,-551.6391430200993,-707.4240112304688,1115.5033796757004
339,36961.80078125,1152.639892578125,-1184.5881604239073,-589.5077412053672,-743.8505249023438,1149.3433349814366
340,32594.640625,1041.353759765625,-1075.7571558932534,-525.589534811931,-687.7095336914062,1073.9240429392296
341,34612.41015625,1091.9781494140625,-1120.1643754549098,-545.4420831585077,-718.40283203125,1141.7672865369866
342,36816.125,1128.89013671875,-1140.469703131973,-559.2335087426595,-726.5452270507812,1118.17034215176
343,34066.45703125,1111.015380859375,-1141.5166887686817,-562.8758641032731,-723.301025390625,1116.0914814641492
344,36316.6328125,1097.8243408203125,-1146.1956355604411,-575.3621958944086,-713.541748046875,1142.1584396514327
345,34214.8828125,1093.8385009765625,-1123.5658200293487,-550.6486153771807,-716.146484375,1134.9595272481884
346,36265.9609375,1134.4644775390625,-1157.1880137329085,-569.638805950908,-734.4365234375,1190.6428770802263
347,32564.06640625,1093.5960693359375,-1133.3515787802044,-542.5505377290177,-738.5012817382812,1135.1950796365695
348,30128.6796875,1024.5687255859375,-1088.3969300081174,-520.9216475619154,-709.3441162109375,1114.2866416539891
349,37101.4140625,1003.778564453125,-1064.4240436711575,-528.8778939105333,-669.4327392578125,1153.1998379612662
350,39712.2890625,1093.2103271484375,-1104.9590252016574,-533.9990021330209,-713.699951171875,1114.8597556184818
351,39060.15625,1133.38671875,-1127.9269476752197,-543.5837190644286,-730.4290161132812,1168.128014883166
352,39082.31640625,1102.271240234375,-1115.0929048410035,-535.6088396297185,-724.3551025390625,1127.7543774543715
353,39112.4609375,1094.592529296875,-1139.5608804778815,-555.2745602877499,-730.35791015625,1178.499312436828
354,33881.1875,1116.480712890625,-1135.4977596514009,-547.732266879276,-734.7069091796875,1123.2259449641829
355,40105.9453125,1168.1922607421875,-1163.376634917637,-561.3839781222357,-752.4908447265625,1173.9490366841337
356,41349.2421875,1141.9853515625,-1126.9467938126973,-536.2368032427482,-738.387451171875,1184.123547517537
357,42889.72265625,1150.249755859375,-1167.2658582137576,-566.0881737103364,-751.4721069335938,1160.955619063187
358,31318.38671875,1081.6396484375,-1118.4728459076941,-523.7241184785948,-743.4359130859375,1128.6288207899174
359,36663.6875,1133.2515869140625,-1194.940217396474,-568.4880318409266,-783.0652465820312,1195.0020650833878
360,39279.09375,1161.3001708984375,-1181.4498160901994,-559.2655606601435,-777.7302856445312,1185.7245271833478
361,35406.671875,1212.525634765625,-1174.627999812295,-557.3378271232596,-771.6126708984375,1160.9530841529154
362,41230.3984375,1223.3297119140625,-1168.3395695519682,-554.3171274430167,-767.528076171875,1170.2029598684564
363,40118.13671875,1262.903076171875,-1233.0831672051042,-580.6346136237546,-815.5606689453125,1161.7193009707728
364,41164.1328125,1135.6329345703125,-1159.8328307266684,-545.2683542472648,-768.20556640625,1195.2009263285045
365,35189.2734375,1115.6578369140625,-1162.6763166163414,-539.2719725560694,-779.2554321289062,1162.4311963910204
366,39076.9765625,1117.254150390625,-1143.6793768680534,-539.1325024211659,-755.68359375,1182.895383106377
367,37659.9453125,1228.7857666015625,-1203.6650183867591,-573.1709389248326,-788.1175537109375,1223.3572528932657
368,35641.53515625,1220.677734375,-1178.010946523754,-554.6790241787972,-779.1649169921875,1185.3444661067085
369,40611.66015625,1169.13330078125,-1153.0781327447776,-538.9863119918773,-767.6148071289062,1178.5242384713574
370,36759.953125,1168.6165771484375,-1223.1919678479558,-568.8117493310601,-817.9752197265625,1228.098283356678
371,38092.09375,1156.70556640625,-1219.1687190200237,-562.505270585654,-820.829345703125,1227.932929275842
372,39025.14453125,1156.0460205078125,-1199.310861406678,-559.4659169678274,-799.80615234375,1234.4388387711065
373,37901.921875,1242.0283203125,-1223.2310722603224,-567.4035414324369,-819.784423828125,1224.5126046153907
374,37605.29296875,1246.580078125,-1211.7598397001427,-564.7816761858564,-808.7227172851562,1252.2043259343868
375,40851.22265625,1236.69921875,-1229.0772528687894,-566.786995820462,-827.8628540039062,1202.3114747325487
376,36390.4453125,1156.33984375,-1220.130359138369,-563.2155628135961,-821.1434326171875,1273.0120641427088
377,35448.984375,1207.9476318359375,-1278.4401749551296,-580.4671212137675,-872.46630859375,1209.4410321590817
378,38642.59765625,1226.5972900390625,-1271.5473214434815,-583.3580609338713,-860.236572265625,1241.0871850919953
379,34416.44140625,1203.23974609375,-1191.1785950113294,-546.0669563695526,-806.3895263671875,1196.679928198317
380,38395.85546875,1270.81494140625,-1261.9985309878077,-583.2466503911832,-848.4398193359375,1246.8102874506526
381,38298.81640625,1170.519775390625,-1192.8543489119818,-545.5146873514016,-809.174560546875,1243.707429603917
382,34800.4375,1110.5145263671875,-1202.6928300957702,-548.3070140790702,-817.9822387695312,1189.255050786336
383,40123.44921875,1152.3177490234375,-1262.142002066381,-569.7082952152638,-865.5421142578125,1212.6275149254961
384,39028.31640625,1105.0479736328125,-1177.9619634342685,-537.1836867154416,-800.9728393554688,1224.0584778303833
385,32941.78125,1247.1605224609375,-1273.178506653604,-580.0246229740205,-866.4422607421875,1240.0616891081438
386,35193.74609375,1226.307861328125,-1217.9884588620512,-540.7481624617126,-846.5503540039062,1278.1667245527697
387,38868.421875,1271.233154296875,-1291.7071307594247,-586.0270016460038,-882.1002197265625,1260.2528212028044
388,38310.66796875,1149.297119140625,-1232.762651588895,-550.3703675185207,-852.9903564453125,1262.3663720820946
389,34165.828125,1168.7574462890625,-1278.8365649077887,-580.1703942475219,-873.3327026367188,1259.2826595502536
390,36817.80859375,1157.499267578125,-1236.0769956342272,-552.393246043413,-854.6046752929688,1177.7487544664737
391,37368.3828125,1187.8173828125,-1212.885049695512,-548.6444883901994,-830.3006591796875,1272.0371504072793
392,37663.56640625,1219.84033203125,-1225.74115409661,-547.5443109633022,-847.74609375,1277.8407982886154
393,36924.4609375,1187.361083984375,-1231.8141068283085,-558.6842387016477,-841.4122924804688,1238.3457626632353
394,33016.21484375,1076.3695068359375,-1172.5935014332808,-522.4006201746569,-812.7410888671875,1219.3324279146325
395,36981.1953125,1021.1465454101562,-1154.8962191021822,-515.9772696791038,-798.648681640625,1209.529993930979
396,37112.3984375,1110.5814208984375,-1210.4460041195252,-542.7471535453203,-834.62353515625,1247.6855680358542
397,34286.296875,1188.9718017578125,-1230.0719622927843,-545.9216676089105,-855.1878662109375,1250.1199659023207
398,34706.3046875,1175.430908203125,-1200.1376176582653,-529.780082150316,-837.9468994140625,1263.487574820443
399,37183.2578125,1164.8856201171875,-1218.5450176975532,-540.6319661304196,-847.3912963867188,1233.1443067789953
400,31807.337890625,1173.682373046875,-1295.6034093883516,-566.3349724068466,-911.5855712890625,1216.8408904326345
401,32282.662109375,1114.2242431640625,-1246.649659686085,-554.3153922164963,-865.4178466796875,1314.5867986770836
402,38916.6796875,1137.817138671875,-1248.2164708018304,-546.6526304015889,-876.9547729492188,1220.9761651430533
403,37079.203125,1177.53271484375,-1220.1864349902762,-541.8370501313515,-847.936767578125,1300.144281128053
404,38542.23828125,1246.7613525390625,-1258.488010186286,-548.5410907790558,-887.43359375,1281.9620305281842
405,38424.2265625,1292.5703125,-1328.9953396488636,-577.5737718064526,-939.2769775390625,1297.8625362666814
406,34035.42578125,1133.37890625,-1232.1758084950475,-540.8291817786608,-864.1832885742188,1241.660180139169
407,34562.171875,1102.56298828125,-1211.7029831662626,-533.1922547828258,-848.138427734375,1234.4228704341501
408,36382.90234375,1223.7918701171875,-1316.5678797944959,-580.187061455757,-920.47607421875,1307.4371127869767
409,33921.68359375,1249.2744140625,-1277.0952886101395,-549.0206774317264,-910.09326171875,1255.252540754491
410,37484.36328125,1263.7064208984375,-1295.4649417509331,-579.5325693855999,-894.9154052734375,1264.719042477509
411,34187.64453125,1252.1220703125,-1304.6689157617238,-567.3454371639953,-921.6544189453125,1282.8137004581022
412,38551.68359375,1139.6507568359375,-1256.295382153357,-563.4065591412339,-866.1110229492188,1280.9431598116037
413,32918.89453125,1137.3424072265625,-1253.6207119732476,-542.7542344372099,-888.5831298828125,1259.9728642071868
414,36865.16796875,1183.892578125,-1258.1750876036726,-542.9135465708351,-894.076904296875,1310.7489595178217
415,39895.12890625,1311.400146484375,-1340.016709764704,-600.0210252344905,-924.99462890625,1271.876643605442
416,36852.58984375,1279.501220703125,-1275.1507675172372,-550.8050282192958,-905.43212890625,1262.5261963977628
417,41594.26953125,1238.1390380859375,-1269.4790981735514,-564.0401268269347,-881.7987060546875,1290.3343497425951
418,39140.6953125,1137.665283203125,-1239.870815280488,-551.1410537022988,-860.9122314453125,1280.2673433932578
419,37328.546875,1163.63427734375,-1282.8178000494775,-554.5504683148052,-910.3341064453125,1290.7028942582456
420,41379.9921875,1119.7156982421875,-1220.7715936274071,-538.1857071188547,-853.2322998046875,1333.51665939316
421,33548.90625,1192.650390625,-1227.4139176980932,-527.9746731748212,-874.2990112304688,1240.7790001069218
422,42779.9765625,1271.8570556640625,-1300.978646762947,-570.5224579812012,-913.0701904296875,1275.0945382420825
423,41482.3671875,1228.5594482421875,-1284.5472340361546,-564.8047291842621,-899.6781005859375,1296.33720136798
424,39073.8359375,1197.7578125,-1314.1170239319629,-559.1349431287101,-943.7276000976562,1315.0261508733088
425,34643.7265625,1210.2093505859375,-1333.4246858319289,-572.8833942323943,-950.6766357421875,1318.5199502162898
426,34362.17578125,1111.0286865234375,-1201.1595324900486,-509.4748623703158,-864.6058349609375,1282.6391439428423
427,37033.22265625,1271.203857421875,-1316.7135710399148,-573.5958632323441,-928.8970947265625,1338.6321813718796
428,35592.02734375,1277.044921875,-1309.3178879275083,-569.4742566559094,-924.8045654296875,1346.1613117244108
429,46046.2578125,1184.2679443359375,-1251.533664872773,-552.7727246241608,-873.451171875,1265.3468407853159
430,39287.75,1147.9322509765625,-1259.7032699459623,-542.179623593755,-896.904541015625,1265.889537044187
431,51871.0234375,1155.9891357421875,-1287.4427511170422,-556.1757916411766,-914.083740234375,1262.501016533171
432,42280.55859375,1248.058349609375,-1337.6110576836095,-572.0674897877666,-956.9295043945312,1294.48927915365
433,40399.5546875,1233.8931884765625,-1252.4085676915029,-535.8893136586079,-895.6490478515625,1246.4747062378578
434,48405.34765625,1346.3392333984375,-1351.0592092134857,-586.4430105560327,-955.770263671875,1281.3947335794685
435,44601.609375,1301.178955078125,-1338.7119512838042,-574.8525340062295,-954.8242797851562,1260.1399825828805
436,43775.61328125,1200.9678955078125,-1308.1831849459554,-551.6804984221232,-945.6282958984375,1330.7948838405748
437,43252.77734375,1185.125244140625,-1320.729796622418,-563.1082788872571,-947.02685546875,1327.676745027429
438,45094.75390625,1207.8297119140625,-1320.579517690876,-568.9941307083625,-939.4817504882812,1314.3954597446766
439,35465.2734375,1260.731201171875,-1302.709870687332,-549.6070945110358,-941.3784790039062,1314.1664937368957
440,33945.1484375,1321.4156494140625,-1352.033752104384,-576.7574831665726,-969.0953369140625,1325.0888126603027
441,41120.5546875,1295.630126953125,-1350.4005036379356,-578.1497171252179,-965.3134765625,1333.3948925955197
442,47855.4375,1222.1988525390625,-1328.9757931926845,-573.3067398851363,-944.5863037109375,1370.1716900639972
443,46903.671875,1180.3134765625,-1286.8299450267318,-556.0034481559161,-913.5330810546875,1349.5959377291783
444,35844.51953125,1291.654296875,-1346.7319878226767,-575.8878487619259,-963.55517578125,1346.4287092657553
445,44346.1796875,1323.0584716796875,-1352.6993344596149,-566.9349502654308,-982.2055053710938,1312.6118665234762
446,40342.546875,1320.0247802734375,-1390.081345953905,-584.7947238774236,-1006.6082763671875,1363.301336428314
447,42966.4140625,1257.85595703125,-1333.0100452552174,-564.297629624521,-960.8905029296875,1343.9161955670013
448,41375.08203125,1350.658935546875,-1392.6494102537913,-596.4797413938958,-995.2120971679688,1383.8553799625508
449,49164.4609375,1281.5135498046875,-1319.4447278929522,-569.9409456498568,-936.8796997070312,1375.7722916724854
450,49320.30859375,1295.711181640625,-1374.3764252326773,-582.2685727752137,-990.134765625,1354.7281326020136
451,39182.16796875,1262.87451171875,-1350.512228355558,-567.5675047650947,-978.680908203125,1353.3357475802277
452,51154.49609375,1278.087158203125,-1331.1509303054431,-564.0550142496484,-958.869873046875,1367.2277071485505
453,44777.58203125,1296.9969482421875,-1350.4075603673095,-565.8350427216711,-980.7156372070312,1295.570312487446
454,36164.03515625,1328.7607421875,-1412.39666096893,-588.4804198113627,-1029.895263671875,1333.6107375546824
455,42953.8984375,1277.6331787109375,-1353.3454704552364,-566.2158556633104,-983.9119873046875,1355.8278259695708
456,48491.9921875,1379.700927734375,-1425.8081995374987,-602.6922441550527,-1028.89501953125,1392.1799294090895
457,43940.7578125,1343.4093017578125,-1377.4605101385396,-580.3028154741281,-996.4471435546875,1386.9145220541864
458,45096.44140625,1232.5216064453125,-1295.9596100771744,-548.8583685876745,-933.8765869140625,1363.8289608880118
459,45537.18359375,1316.33056640625,-1395.9413070307776,-591.0178832830591,-1006.154296875,1377.9022288381875
460,52295.73046875,1304.2420654296875,-1355.8441856740303,-585.0598491865005,-963.48046875,1366.6126343085514
461,46435.46484375,1287.3302001953125,-1318.5762532865351,-538.244177840576,-975.4150390625,1329.1497065356325
462,46126.0234375,1335.387939453125,-1416.0040932373822,-588.6619826243005,-1034.1776123046875,1373.1827300301866
463,45442.9921875,1342.6434326171875,-1422.2422012471877,-592.9674088385241,-1036.593505859375,1359.0492209428323
464,43911.9453125,1328.734619140625,-1365.4704097989802,-571.8247740749125,-992.0570678710938,1417.9666066026464
465,53277.6953125,1416.7799072265625,-1463.7145250746253,-612.4697544732335,-1064.0560302734375,1392.2944736956806
466,50788.48828125,1354.548583984375,-1420.5058686859688,-583.5994817416898,-1046.133056640625,1405.7448445834523
467,64518.97265625,1256.59716796875,-1334.9191743818985,-568.0496246418859,-958.5869140625,1352.1667974902678
468,50459.515625,1306.51513671875,-1342.2671453004489,-561.1630731572185,-976.380126953125,1393.4933871639603
469,61512.6953125,1375.2421875,-1411.7968293044028,-594.7797020050938,-1021.2714233398438,1396.4571466412006
470,48789.8828125,1327.8868408203125,-1402.8200473478676,-594.5134640220231,-1010.3832397460938,1413.809291089674
471,41285.359375,1325.41162109375,-1411.7154355090731,-578.1507510583069,-1041.955810546875,1355.2896690688424
472,45642.6640625,1347.244873046875,-1412.7767163564556,-586.9667745840841,-1032.262451171875,1420.7669465923611
473,40099.3828125,1349.147705078125,-1399.7815120304906,-591.0653937126481,-1010.8951416015625,1355.8617532729513
474,59770.9296875,1370.630615234375,-1434.293985448902,-612.0989322171858,-1027.7437744140625,1418.0471736092632
475,49466.9921875,1311.8563232421875,-1422.586295845929,-597.3824317922922,-1031.5047607421875,1379.4842607760343
476,51853.14453125,1331.83349609375,-1438.2811303719222,-615.2527568063974,-1028.7855224609375,1433.2291482107828
477,49978.328125,1265.377685546875,-1337.8178040212053,-561.4866666248101,-970.4139404296875,1394.1705813602548
478,55329.421875,1360.5567626953125,-1433.6126160631954,-614.98828938483,-1023.2803955078125,1421.9266824470158
479,52684.09765625,1355.802001953125,-1457.0966506067552,-626.1156709503272,-1038.726318359375,1446.1429829772287
480,42930.0625,1267.1951904296875,-1387.162355563376,-576.9515043168848,-1012.7635498046875,1411.2446391808558
481,55229.4609375,1348.242431640625,-1488.959172914474,-642.9391770622867,-1057.52490234375,1406.6632570316594
482,44532.234375,1379.1927490234375,-1443.8355329255662,-604.1778559342115,-1049.572021484375,1428.7221225912938
483,45872.1796875,1395.6859130859375,-1457.3019445584591,-608.2381741949791,-1061.3297119140625,1440.0866910993702
484,50758.75390625,1329.6680908203125,-1429.98825371214,-594.8488954464419,-1043.924072265625,1506.1476201747269
485,44242.30859375,1362.4302978515625,-1460.7582937008685,-602.0004369578307,-1073.4473876953125,1461.445578826556
486,50683.171875,1368.1575927734375,-1445.173273499765,-596.1752740421224,-1061.2474365234375,1487.8369861057208
487,45481.91796875,1299.2073974609375,-1396.6874173686006,-574.1622473709381,-1028.156494140625,1438.9494235308618
488,47020.27734375,1288.9306640625,-1371.2668245726884,-576.629346337138,-993.2968139648438,1391.5493892080688
489,47551.40234375,1316.217041015625,-1388.654906526976,-576.9795545246681,-1014.59423828125,1400.6601230773417
490,41210.609375,1365.687744140625,-1442.4519422800936,-596.2049935610688,-1057.8087158203125,1454.7354232850357
491,45371.55078125,1290.5614013671875,-1404.6132290584335,-575.9782765549907,-1035.793701171875,1421.0909548601946
492,43687.4921875,1304.997314453125,-1411.7936372363895,-574.8242186949078,-1046.2119140625,1398.7366420741132
493,49485.6796875,1395.34033203125,-1466.9740214370731,-612.1384835672638,-1068.54443359375,1450.270374138208
494,47941.87890625,1430.8096923828125,-1474.757309984363,-600.6856408066519,-1092.589599609375,1459.8488928358324
495,51466.3046875,1306.0947265625,-1373.3718340875475,-575.2038706468777,-997.7099609375,1374.8803259167328
496,39304.4921875,1354.2669677734375,-1459.377469940523,-590.7219660735153,-1085.8193359375,1453.5549991802145
497,50267.546875,1472.695556640625,-1576.6331733609886,-662.2890271473079,-1142.93017578125,1524.677180277454
498,53555.12109375,1427.7139892578125,-1478.583504105039,-603.0597506044957,-1094.4046630859375,1487.1581935180893
499,52268.59765625,1417.6279296875,-1466.4133556687862,-595.6552906238597,-1088.447509765625,1446.815848794216
500,59548.48046875,1499.0076904296875,-1586.0937849606225,-650.0269791585697,-1170.08349609375,1502.6226115516642
501,48205.3125,1400.7503662109375,-1487.2358464741678,-611.9686634761812,-1094.083984375,1473.5761860238872
502,46434.69140625,1331.9859619140625,-1374.092310953015,-559.3556949551825,-1018.4207763671875,1410.7541168775292
503,49113.60546875,1490.74072265625,-1540.2974244713669,-632.3001966282609,-1134.99658203125,1473.2921404775716
504,49401.1875,1316.4244384765625,-1401.963303302456,-574.2170740316105,-1034.6827392578125,1418.0042998368674
505,54776.7109375,1361.43359375,-1446.7962339462415,-598.6182009869888,-1060.22265625,1401.1823769653206
506,47482.0625,1489.0052490234375,-1534.3905979921412,-636.1978880166378,-1122.7408447265625,1539.6626616355006
507,40883.21484375,1397.2740478515625,-1441.3233399296723,-598.3187953440549,-1053.755615234375,1453.615974036804
508,48876.265625,1438.4595947265625,-1521.238841719922,-624.8764492068406,-1120.452880859375,1488.7906917265427
509,46507.0078125,1376.426513671875,-1453.006653505148,-596.108257750751,-1071.123046875,1425.0197747934308
510,50236.8515625,1506.6966552734375,-1538.1809573774672,-623.8373360435924,-1142.9295654296875,1468.8872666894908
511,45337.41015625,1491.084716796875,-1514.4883764265699,-627.7270693984476,-1108.45166015625,1479.8244601371093
512,65345.6640625,1387.880859375,-1445.595873703054,-596.9437620563347,-1060.815185546875,1427.174006028065
513,51822.46484375,1445.6563720703125,-1509.4016296154962,-615.547942009303,-1117.317138671875,1483.0600258436739
514,50695.30078125,1344.7425537109375,-1398.6714054578674,-574.7461798275579,-1029.9066162109375,1422.823370325096
515,50833.2421875,1494.6209716796875,-1580.9705393899749,-643.1264608721299,-1172.3050537109375,1457.3850861742517
516,45325.6328125,1353.677490234375,-1435.66351386305,-586.149787056037,-1061.8922119140625,1484.9627999544898
517,65801.0703125,1519.8323974609375,-1555.7212022466083,-630.755439552242,-1156.2071533203125,1468.268229601714
518,49346.80859375,1420.24267578125,-1453.6633755004575,-599.3436701545568,-1067.899658203125,1456.6019873036566
519,52229.9609375,1487.075927734375,-1563.6741610969266,-644.925438718762,-1148.435791015625,1519.401077401665
520,55138.59375,1382.1480712890625,-1505.3688955094217,-614.8185428041515,-1113.18798828125,1556.5850839929121
521,50491.9375,1329.6461181640625,-1443.61064592093,-590.2128376741496,-1066.747314453125,1469.830703974504
522,55081.9921875,1425.6820068359375,-1491.5616589655044,-602.3071888659957,-1111.568115234375,1509.2370102802972
523,47148.8359375,1436.412353515625,-1491.1084149571939,-602.1878269466442,-1111.150634765625,1542.4683021543844
524,46189.79296875,1395.9521484375,-1487.550460987097,-610.7961110432877,-1095.94287109375,1441.079849624088
525,57079.07421875,1352.3709716796875,-1459.0032252658584,-600.73188617867,-1072.839111328125,1481.8604030163465
526,48378.78125,1472.2598876953125,-1553.3330000098842,-622.0676171671646,-1164.081787109375,1585.877058995046
527,44449.4296875,1360.5084228515625,-1473.07227897343,-592.6154796052422,-1100.571044921875,1524.764516971233
528,48157.00390625,1501.4683837890625,-1614.7551007675293,-661.9386305844698,-1191.0205078125,1501.3026875353453
529,38868.92578125,1362.564697265625,-1459.4580293008362,-593.1459748913767,-1082.8900146484375,1472.121448910265
530,45786.79296875,1339.3970947265625,-1465.4096606942983,-590.9993067371817,-1093.012939453125,1490.9203114776665
531,49022.1875,1343.656005859375,-1462.7293135704053,-594.9773553484631,-1084.68994140625,1510.624441669559
532,47811.13671875,1354.4312744140625,-1459.0511534799675,-583.022926337723,-1095.0352783203125,1453.175825459186
533,49970.88671875,1428.11083984375,-1551.2948782395397,-619.668357337621,-1164.533203125,1567.917756589912
534,47798.0625,1345.707763671875,-1468.758448157857,-599.5367579203348,-1086.527099609375,1536.616681909715
535,40941.3203125,1424.3409423828125,-1524.2960271906059,-608.5383501905899,-1144.6971435546875,1501.6159510260177
536,43196.9921875,1369.1416015625,-1494.263623237542,-595.8194968396122,-1123.05517578125,1501.4327310013068
537,43662.20703125,1418.1077880859375,-1551.8885151571812,-623.3801124577628,-1160.635498046875,1440.9749438563063
538,51293.76171875,1340.347900390625,-1460.1629467189227,-599.8368686855686,-1075.407470703125,1550.7732575211298
539,51256.16796875,1359.623779296875,-1481.7721429362243,-587.5386196195429,-1117.7919921875,1522.8777219292094
540,44476.2109375,1397.2166748046875,-1518.567042647343,-621.1878144476971,-1121.72412109375,1533.6419393484823
541,45345.9765625,1459.62060546875,-1582.8282778618106,-640.7431597011345,-1177.6064453125,1564.700537392275
542,40390.54296875,1367.0350341796875,-1484.4086138121556,-590.1231782775146,-1117.8568115234375,1600.2237760230114
543,42039.28125,1356.1754150390625,-1490.1504249747406,-597.7271075721394,-1115.5291748046875,1590.4957031384909
544,52591.5625,1443.9410400390625,-1566.4059054401428,-649.2618555991635,-1146.43017578125,1611.955581321184
545,39927.59765625,1391.087646484375,-1503.142268244992,-603.1919246689181,-1124.93798828125,1523.9004031051024
546,41686.28515625,1376.873291015625,-1489.2006211448415,-600.3191089300392,-1111.101806640625,1542.788326018495
547,38723.14453125,1307.6593017578125,-1426.1046711399476,-569.8082075223117,-1070.37060546875,1604.2947375240333
548,37843.62109375,1372.4959716796875,-1466.4942520813295,-596.9353183209174,-1086.94873046875,1577.3659471156855
549,41832.19921875,1407.504150390625,-1495.3152171043146,-590.1643756416092,-1131.4384765625,1584.4669340749115
550,48242.5859375,1326.1964111328125,-1461.5471845082989,-590.9278829336217,-1088.274169921875,1528.9374571636824
551,48418.2578125,1421.781494140625,-1552.7582398393765,-626.6487768945859,-1157.6368408203125,1542.6800996661116
552,40292.3046875,1442.8709716796875,-1507.5773021799187,-606.3440557446936,-1126.5416259765625,1556.5017658941485
553,40101.984375,1564.8721923828125,-1626.3470381670631,-644.0310408839025,-1227.89501953125,1564.6064921453421
554,41049.109375,1416.2225341796875,-1531.333012658184,-615.8167936323337,-1144.395263671875,1597.0011099599274
555,47227.81640625,1451.2447509765625,-1585.9650404871686,-635.5918964100313,-1187.9664306640625,1583.73310058734
556,45388.40625,1434.2962646484375,-1557.694033897405,-631.5746306483796,-1157.6492919921875,1559.5572257322135
557,42883.1953125,1449.809814453125,-1500.6978409834269,-603.9934309501263,-1120.8804931640625,1557.5326486557474
558,46349.671875,1410.2506103515625,-1461.7626461138125,-589.9662331503924,-1089.74560546875,1526.1319042246682
559,47013.0390625,1425.1756591796875,-1520.129292245125,-600.2837947696072,-1149.806884765625,1666.2224506367022
560,45224.125,1340.9532470703125,-1500.9535206464545,-597.7286143227907,-1129.031005859375,1550.0070366174589
561,42722.42578125,1382.1727294921875,-1558.832483395422,-616.7968939094341,-1177.54443359375,1643.2547417360452
562,42458.83984375,1413.1435546875,-1534.1687066285572,-614.8179270468353,-1149.1884765625,1508.8179835210153
563,42048.69140625,1408.31298828125,-1466.7329713682273,-585.4287367324903,-1101.6302490234375,1570.1251471013272
564,48076.08203125,1530.85302734375,-1586.2777735278214,-638.2640707073934,-1185.01708984375,1590.1709563767067
565,46229.53125,1486.7293701171875,-1580.349295895301,-626.7545176883566,-1191.993408203125,1623.3038339396267
566,46796.828125,1294.8175048828125,-1472.3406533078887,-580.4273469598627,-1114.8917236328125,1541.1419486953046
567,45143.62109375,1361.107421875,-1569.8928661231955,-634.6747451683578,-1169.022705078125,1572.654757222325
568,47706.0546875,1252.9072265625,-1415.4504276137477,-563.3912530522005,-1065.073974609375,1570.3405987382023
569,44360.296875,1464.1485595703125,-1541.6164871339533,-612.5965877063418,-1161.27490234375,1638.7261163839655
570,47363.25390625,1485.9464111328125,-1540.5559670044304,-624.9991332827329,-1144.446044921875,1658.2021376947052
571,48814.21484375,1456.262939453125,-1527.5907106799632,-600.598192292787,-1158.7406005859375,1571.4462826924491
572,45933.71484375,1383.50390625,-1551.3472400647493,-628.7455078446211,-1153.252197265625,1602.8549994473478
573,37161.21484375,1314.0032958984375,-1482.9431695423486,-575.9700628902228,-1133.71630859375,1562.8048875117306
574,44549.5,1386.9541015625,-1530.7195460389173,-609.0455232689892,-1152.092529296875,1651.9653473846306
575,44747.62109375,1509.30615234375,-1581.5841188674535,-620.9653069304045,-1200.7734375,1662.5181028966351
576,51666.0078125,1486.677978515625,-1535.7849368539773,-599.8837300387345,-1169.87646484375,1543.2014142850942
577,48193.625,1584.5484619140625,-1680.0895061848469,-663.1331238265864,-1271.195556640625,1591.600522319871
578,45684.203125,1371.786376953125,-1534.141473934937,-595.3460031302625,-1173.494384765625,1600.2976851995284
579,48470.3828125,1394.6141357421875,-1567.5601624494789,-617.6269130712744,-1187.4166259765625,1674.8744542790303
580,50579.671875,1404.9290771484375,-1548.042401146819,-609.571492522326,-1173.088623046875,1612.3403818305312
581,45700.59765625,1469.462646484375,-1534.731340410903,-605.6436170035673,-1161.359619140625,1617.2577098904728
582,45288.74609375,1509.32666015625,-1556.7948939043008,-620.5719080283216,-1170.27880859375,1585.3949380141503
583,48256.5078125,1468.4129638671875,-1558.2157598418153,-620.4927231095701,-1172.15380859375,1556.5497474878512
584,43279.2578125,1357.1856689453125,-1529.9917711561397,-603.0671888409032,-1158.65576171875,1622.3835283736337
585,41762.7890625,1443.579345703125,-1633.1938575035622,-639.1344052857448,-1242.5743408203125,1690.5826471830728
586,49268.421875,1438.2459716796875,-1582.5046554295577,-615.3956379996845,-1208.88623046875,1599.5213799886433
587,55414.19140625,1507.1326904296875,-1588.170356691665,-630.1172483899061,-1197.56640625,1582.7708161207718
588,41704.40234375,1509.32080078125,-1552.4622206939111,-606.5950512660396,-1182.333984375,1595.0990602823144
589,49368.5703125,1566.9613037109375,-1635.1331279055773,-622.9477367058954,-1265.231689453125,1644.6200659005785
590,41528.71875,1497.60107421875,-1666.7255733858783,-653.5431894890953,-1266.4779052734375,1624.8678226574643
591,42744.17578125,1421.0955810546875,-1615.6968888461872,-634.4376248199776,-1226.5740966796875,1655.4458137078882
592,51886.578125,1463.30615234375,-1618.2035330111423,-628.6899078702816,-1236.89208984375,1657.3776315123912
593,43918.52734375,1450.04541015625,-1530.7985170925979,-594.6761636842984,-1170.1529541015625,1696.2880777811204
594,44306.8203125,1518.145263671875,-1576.9195269534061,-615.2136264204676,-1202.13232421875,1592.4878283593787
595,39771.0859375,1444.2662353515625,-1545.149553993689,-604.286856346084,-1176.078369140625,1605.0703051287119
596,43396.33984375,1401.04638671875,-1562.5259755682603,-612.3980850873916,-1187.659912109375,1581.3355005210044
597,46883.60546875,1406.755615234375,-1566.0922324019066,-614.9235675650696,-1188.9609375,1651.8643688838463
598,46376.59765625,1592.869873046875,-1698.0921699320722,-658.9713798982848,-1298.9010009765625,1640.495834926794
599,43125.15234375,1472.951416015625,-1525.9751362647755,-599.3281693672656,-1158.3087158203125,1640.942029425354
600,56245.78125,1575.346923828125,-1631.7227947447352,-633.7369124900451,-1247.4822998046875,1660.5177089404713
601,45121.9921875,1434.88427734375,-1545.4198185850314,-602.5450584905601,-1178.5933837890625,1670.9812963318777
602,40838.63671875,1366.7950439453125,-1505.4567229512872,-572.1702632769734,-1166.608154296875,1638.593438403459
603,42023.5625,1384.230224609375,-1501.493848249588,-573.8794982322414,-1159.5179443359375,1573.5025063615553
604,44190.9453125,1532.854736328125,-1604.648566509815,-622.7786553319861,-1227.33740234375,1627.184430386062
605,52165.7109375,1551.1380615234375,-1603.2634470102123,-625.7624293795532,-1221.876220703125,1638.3649008579225
606,47741.80078125,1514.0960693359375,-1608.252804626949,-626.3035069148109,-1227.4365234375,1678.8185313011882
607,42349.15234375,1540.7958984375,-1677.03946275641,-658.0283480508233,-1273.763916015625,1660.7437469164086
608,39976.77734375,1539.0284423828125,-1637.8566478481875,-628.8081980450437,-1261.310546875,1660.2945557794083
609,37054.66015625,1530.239990234375,-1603.36245661806,-607.1510956479203,-1245.26416015625,1629.354720189811
610,44718.59765625,1526.1146240234375,-1624.635069658883,-628.6648205359431,-1244.962890625,1735.4315456179904
611,44828.6640625,1538.4730224609375,-1616.4602435461825,-632.5206267319732,-1229.924560546875,1628.9431214233152
612,46954.66015625,1438.4627685546875,-1522.5653756560105,-594.1349954199322,-1160.5379638671875,1645.8067359117101
613,35754.609375,1494.874755859375,-1592.692424447103,-610.1468252309731,-1228.181884765625,1672.193548533506
614,45354.5625,1551.8272705078125,-1634.9492248277052,-624.7271607975347,-1262.777587890625,1664.4465712737988
615,39577.06640625,1453.8798828125,-1507.114649344826,-597.0575884947402,-1137.5712890625,1700.262528527119
616,45118.79296875,1459.206298828125,-1512.1234077294673,-590.2201320720221,-1152.379150390625,1612.1970857094884
617,45200.05078125,1442.5220947265625,-1533.7046352304842,-576.9613683276666,-1195.9290771484375,1689.7804079774335
618,40569.51171875,1457.527587890625,-1559.1175295477626,-596.1335123618958,-1203.7301025390625,1691.9076316903179
619,43413.18359375,1569.343505859375,-1633.1336262530444,-621.554973532146,-1264.473388671875,1737.5837510095698
620,39712.828125,1496.614501953125,-1566.4780923427052,-612.6890899089135,-1192.2362060546875,1692.9530655844646
621,51288.90625,1491.148193359375,-1594.466434424714,-618.8895465492444,-1219.47119140625,1740.7669396212502
622,49902.6875,1547.9471435546875,-1664.3194284990268,-641.9496045052841,-1277.96240234375,1746.4881689962808
623,41750.04296875,1503.82958984375,-1592.2788905750049,-614.4433708461953,-1222.29443359375,1674.271641974039
624,51273.69921875,1517.2144775390625,-1600.685725003707,-618.4812260092633,-1227.755615234375,1654.4664846704472
625,44945.63671875,1495.40869140625,-1602.8978673001975,-617.0539283682815,-1232.304931640625,1687.0609971371853
626,41784.20703125,1517.802001953125,-1614.0287236061317,-621.3775520984452,-1240.81396484375,1689.8524461839788
627,43338.89453125,1513.8751220703125,-1604.6196621683584,-611.4577681821929,-1241.452392578125,1685.0627767229305
628,43060.1328125,1580.6673583984375,-1668.4541482043855,-651.4085953341269,-1271.306884765625,1691.012120248842
629,40517.2734375,1388.0244140625,-1486.6048438287767,-570.3823824360461,-1145.278076171875,1665.073507296035
630,50016.96875,1499.59521484375,-1604.1826096313662,-619.3675311718259,-1231.018798828125,1664.443959013481
631,44954.34765625,1411.71044921875,-1482.4060189495126,-569.0510231853725,-1141.6937255859375,1677.6544528968504
632,39064.1171875,1455.4117431640625,-1549.402218324093,-594.3126013936081,-1193.8619384765625,1779.646190211443
633,39625.484375,1578.3170166015625,-1666.1797818635926,-638.7170513366684,-1284.328369140625,1636.39052875057
634,46757.63671875,1409.8326416015625,-1509.718740922171,-585.2690376236616,-1155.562255859375,1710.7372724411691
635,47865.5234375,1509.9556884765625,-1614.0956037524602,-613.895358091777,-1250.250244140625,1788.2472155660712
636,36849.5625,1538.35595703125,-1596.2642553221597,-607.2304097371338,-1236.292236328125,1672.3828130407271
637,43433.546875,1510.990478515625,-1573.909467486976,-605.7572603151054,-1210.1903076171875,1723.7523952099705
638,41129.71875,1529.0418701171875,-1659.493683950694,-622.0117472485617,-1296.8524169921875,1710.8053828160382
639,42983.984375,1459.6072998046875,-1587.456475531365,-599.617738388534,-1234.7984619140625,1657.1042999327283
640,38542.96875,1565.5823974609375,-1630.698072181316,-606.5070243362802,-1280.23876953125,1668.4385746154944
641,43793.046875,1578.5042724609375,-1640.2283139589385,-615.5886684703785,-1280.799560546875,1729.1386789319397
642,44073.8515625,1559.056640625,-1663.4040954887712,-628.165507177993,-1294.04833984375,1734.2880800736611
643,53891.5078125,1572.478759765625,-1683.6469592582366,-629.4173463063246,-1317.7869873046875,1847.332635042349
644,47192.84765625,1523.2752685546875,-1603.3234805056263,-619.210104579655,-1230.141845703125,1725.007650557822
645,43206.046875,1534.7305908203125,-1615.087073723565,-623.6651857014401,-1239.27734375,1724.2293953138603
646,39069.52734375,1500.265869140625,-1608.7265176487863,-610.5527887430749,-1247.717041015625,1771.4930123990725
647,47513.0703125,1479.7032470703125,-1578.8152959806907,-596.3864662081064,-1228.0360107421875,1701.4418701167776
648,49800.609375,1504.7943115234375,-1577.125186684939,-608.0052775802343,-1211.39990234375,1787.9758974045521
649,39922.01171875,1577.957275390625,-1661.3025503598126,-622.2683375963912,-1298.792724609375,1800.2318900108205
650,42885.3984375,1523.7000732421875,-1621.985941919891,-622.3517613040489,-1249.542724609375,1695.0287823473382
651,40615.32421875,1506.6690673828125,-1635.1718065945124,-617.3095788171206,-1272.3277587890625,1723.011733640597
652,41690.0703125,1497.140380859375,-1617.807537912965,-620.5658739794198,-1246.552001953125,1655.1572568871604
653,43273.94140625,1503.2916259765625,-1569.757571213727,-606.4709761929113,-1204.1082763671875,1747.3683788699384
654,47260.140625,1488.648681640625,-1556.2468279149823,-597.9678840091891,-1197.8486328125,1710.9624852035088
655,42307.3671875,1392.807373046875,-1531.5642491555536,-582.738703363272,-1186.031982421875,1681.3430960554308
656,36565.21484375,1460.2982177734375,-1589.933861852554,-596.6128341504609,-1241.6513671875,1703.9277461356428
657,38640.71484375,1527.52587890625,-1598.8449060947842,-602.8859134235624,-1244.94873046875,1765.7529561783535
658,40145.25390625,1466.0048828125,-1536.4514779831966,-578.1824933205485,-1197.836181640625,1715.4972574889512
659,43061.58984375,1473.7667236328125,-1608.5662977362622,-620.4414430913153,-1235.1561279296875,1716.3798240147737
660,47880.16796875,1510.6279296875,-1624.1700588448464,-601.9743944298966,-1277.74462890625,1720.5233817999592
661,44081.7578125,1446.1136474609375,-1515.3458929319122,-567.2051763761974,-1185.17578125,1678.9996156970112
662,44938.53125,1480.012451171875,-1574.7103434376186,-599.9605662205958,-1218.437255859375,1718.3290400540598
663,42511.58984375,1456.455810546875,-1588.4420503990132,-603.8991753713565,-1230.6785888671875,1742.9457082746712
664,50528.01953125,1424.5562744140625,-1558.702432151387,-601.9043796086837,-1195.99755859375,1650.759582822872
665,45330.25390625,1571.60986328125,-1640.9069364162876,-613.7092587734355,-1283.9970703125,1696.7485788868346
666,51716.4609375,1625.1339111328125,-1697.641254061163,-641.0411058195685,-1320.750244140625,1782.1936027496645
667,48805.90234375,1484.633056640625,-1592.3110032778025,-603.4313715901017,-1236.099609375,1733.3731731866767
668,38447.984375,1410.5084228515625,-1543.2295841632572,-578.3232008444306,-1206.1329345703125,1723.8896088618721
669,41902.4765625,1506.744384765625,-1629.4476744645076,-603.0246905543642,-1283.02880859375,1739.4522562775815
670,47676.984375,1589.867919921875,-1650.391050469802,-626.462544612513,-1279.91064453125,1772.605101304234
671,46676.32421875,1511.166259765625,-1558.1795558128701,-582.9334083570362,-1219.0577392578125,1763.714805052836
672,47547.0625,1527.34814453125,-1633.4384673090194,-612.968047163776,-1275.588134765625,1662.7972110001565
673,52259.71484375,1529.3673095703125,-1637.8867193871063,-615.9773759955426,-1277.38671875,1781.2943612625786
674,41811.03515625,1531.6610107421875,-1601.2434232519581,-607.2335099679992,-1242.512451171875,1746.1347715015777
675,50461.66796875,1529.7850341796875,-1615.476527534922,-609.6036935631031,-1257.341064453125,1767.6995857275476
676,44770.62890625,1585.9371337890625,-1717.8420536099188,-634.530983177405,-1354.1387939453125,1774.6538064425195
677,39530.828125,1425.304443359375,-1526.4763949100054,-568.0623192366338,-1198.017578125,1746.6206365159837
678,47014.546875,1538.579345703125,-1602.6327545729687,-594.583398285251,-1260.0616455078125,1774.9313352565573
679,51561.1875,1575.32470703125,-1655.4826417760237,-633.6956712366327,-1277.233642578125,1813.8269502896892
680,42230.375,1579.9866943359375,-1708.1537446032476,-635.9597661719388,-1340.242431640625,1794.854285952308
681,42459.9140625,1489.469482421875,-1619.5591048729361,-598.439194458419,-1276.39990234375,1807.3083492673582
682,48216.4296875,1491.8978271484375,-1587.729497053877,-598.1176408652517,-1237.014892578125,1703.6608830378818
683,43230.1796875,1434.54248046875,-1531.5763474173104,-585.6582692987477,-1182.397705078125,1825.896587582869
684,39467.9375,1591.3458251953125,-1732.4679063033786,-627.1392851066317,-1381.6607666015625,1661.8284850708912
685,41740.7734375,1508.33935546875,-1652.6808315304415,-619.1584126397343,-1291.903076171875,1729.7713033619616
686,47871.640625,1528.396728515625,-1614.300989115734,-618.4295676655437,-1244.83935546875,1759.4405490251897
687,47636.8984375,1583.129638671875,-1662.6685792663725,-613.3671562561423,-1311.626708984375,1758.3795008400336
688,37543.9609375,1490.85498046875,-1647.191987848426,-615.4974922777662,-1289.6181640625,1747.6346409703726
689,39241.71484375,1431.9517822265625,-1587.1367020546595,-603.011632400299,-1230.1563720703125,1761.740131728493
690,45002.875,1564.9693603515625,-1666.1458949507692,-631.4971799198083,-1293.3109130859375,1739.5471893878387
691,42742.13671875,1537.4168701171875,-1622.5888186184034,-608.9662789088018,-1267.028076171875,1759.8649904098138
692,40729.38671875,1485.1488037109375,-1612.1291675915802,-597.3159178143227,-1268.5166015625,1803.3661400548926
693,43001.0,1360.997314453125,-1497.4868278901981,-581.2311627544422,-1145.319580078125,1777.3919649909105
694,39665.79296875,1461.0220947265625,-1551.2283169696543,-582.0515068071862,-1211.470947265625,1804.5423211627487
695,45988.421875,1500.30712890625,-1632.3978855417624,-615.9201544636444,-1270.59716796875,1752.8450362934586
696,51229.02734375,1622.1937255859375,-1733.8055600841983,-648.2144009729368,-1356.9888916015625,1825.1400309425742
697,40235.7578125,1670.5777587890625,-1743.0774253068073,-661.4873027773156,-1351.987548828125,1874.5706461586456
698,42543.8203125,1648.9957275390625,-1729.9557368026872,-650.0641311438578,-1349.864501953125,1801.4227178101644
699,49105.15625,1417.2633056640625,-1554.1724600775792,-594.4368504217518,-1199.6695556640625,1764.5296828642174
700,53444.140625,1548.1785888671875,-1698.7942347058813,-634.349587413461,-1330.555908203125,1780.2025922925566
701,49739.1953125,1566.7186279296875,-1672.954543522936,-634.1240361677526,-1298.5380859375,1839.5565240077694
702,43628.03515625,1604.7928466796875,-1701.8855117136557,-637.7443713690099,-1330.1763916015625,1871.728548873018
703,37504.671875,1403.8131103515625,-1546.7219522236637,-581.475156164614,-1206.5584716796875,1733.641372211181
704,42110.80859375,1490.5401611328125,-1630.6529729311244,-610.7717400851548,-1274.8515625,1827.1725234092771
705,37754.1875,1492.45751953125,-1592.4895548479049,-594.6674841243191,-1247.277587890625,1774.2177246964134
706,48279.44140625,1486.274658203125,-1593.4084448660094,-595.8808933216449,-1246.909423828125,1776.0046134445322
707,49177.4765625,1524.6964111328125,-1661.9519507446955,-624.2877538644873,-1297.080322265625,1815.1865951166737
708,43493.7109375,1508.006591796875,-1618.3072514754879,-609.36213518243,-1261.181396484375,1798.353279880149
709,37355.3125,1515.1507568359375,-1637.0063562522014,-596.1732350858229,-1301.0413818359375,1788.8392221379922
710,43856.6015625,1561.1834716796875,-1673.2649483951777,-620.1089504230805,-1316.445068359375,1853.6369121107282
711,46774.1328125,1560.00830078125,-1628.5327975252585,-613.3332064153567,-1268.99951171875,1814.5984111604275
712,40693.796875,1481.2493896484375,-1561.5573642674058,-589.7523340233755,-1214.75634765625,1783.0603441458645
713,49081.359375,1493.912109375,-1631.6660997761712,-611.5827190771066,-1275.104248046875,1868.1513805674433
714,41552.75390625,1469.653564453125,-1612.0651767768134,-607.413650511967,-1255.814453125,1826.222693927083
715,40454.2890625,1569.885498046875,-1659.3217420107449,-625.1661665615388,-1292.6944580078125,1828.1945228210598
716,43348.859375,1598.7537841796875,-1700.253600653779,-653.9029247726835,-1307.9383544921875,1871.3020403298435
717,41633.20703125,1427.78369140625,-1563.2016914702854,-591.0860455835137,-1215.14453125,1793.335433834148
718,39364.37109375,1511.4010009765625,-1667.8363583105602,-618.4625175434152,-1311.71728515625,1830.0829150222273
719,43218.2578125,1507.0533447265625,-1601.9279363832788,-593.871521320136,-1260.070556640625,1814.0321302761847
720,48403.94921875,1521.0977783203125,-1621.692305764525,-615.9753010715979,-1257.146240234375,1878.7911879783212
721,41209.10546875,1379.700439453125,-1518.6663339207485,-571.3656893927207,-1184.1258544921875,1808.8488052727168
722,37688.71875,1436.1636962890625,-1569.6655700316294,-588.5408828228354,-1226.406005859375,1732.6034456850755
723,46266.99609375,1515.9197998046875,-1619.215493491533,-594.0209819274569,-1281.4931640625,1855.9116965698574
724,41309.953125,1404.632568359375,-1519.9741861844045,-568.2595462586341,-1189.643310546875,1767.216978256455
725,39633.453125,1553.8651123046875,-1670.2800192526302,-621.6209150201867,-1310.8238525390625,1882.1640878930784
726,38318.9453125,1462.294189453125,-1596.1581516214171,-595.4723183410697,-1250.857421875,1790.2417645324906
727,43699.05859375,1397.68017578125,-1550.3982756372586,-580.1003726966724,-1212.872314453125,1801.6557134052782
728,38630.66796875,1470.3997802734375,-1591.2290802698528,-600.3891483960152,-1238.5499267578125,1850.7922979588045
729,38707.13671875,1498.698974609375,-1620.6956617361004,-616.7251505984062,-1254.963134765625,1825.3598106861161
730,35767.41796875,1539.6116943359375,-1655.3985173401666,-607.8405503851604,-1309.447509765625,1837.5495720363729
731,35465.88671875,1485.369384765625,-1603.6052908257127,-592.4812696181714,-1263.905029296875,1850.3331208220884
732,46521.92578125,1467.98974609375,-1557.624037198069,-579.6628793107332,-1222.451416015625,1811.7556801392777
733,43438.30859375,1551.4217529296875,-1648.0682409842204,-596.3695010387045,-1314.6234130859375,1807.7412106918819
734,38345.95703125,1446.5950927734375,-1621.5905145648544,-605.956668227413,-1269.5423583984375,1789.878351832772
735,36369.3125,1402.2137451171875,-1556.461548025353,-572.836654635897,-1229.5311279296875,1777.373984173459
736,44123.5625,1486.2342529296875,-1583.0685522045706,-594.359368287562,-1235.886474609375,1856.5510322990822
737,43032.84375,1527.32373046875,-1619.0274952758512,-600.177108060423,-1273.56298828125,1841.3993609038557
738,42300.8359375,1436.4727783203125,-1570.0960928391398,-583.2295807461919,-1233.583251953125,1909.835658839822
739,34319.3125,1408.9246826171875,-1537.1936074033863,-586.376005459439,-1188.52197265625,1773.6854248060554
740,37414.66796875,1575.60107421875,-1652.465092337136,-603.9273847282908,-1310.672119140625,1852.243779970735
741,39041.72265625,1611.7520751953125,-1725.7046214374388,-640.756204711101,-1356.185546875,1856.2527744763513
742,40746.5234375,1331.014892578125,-1487.7797163681398,-569.8017052809978,-1147.4725341796875,1800.5279708940661
743,46343.79296875,1506.4261474609375,-1655.7303827943463,-624.3791322836835,-1289.1890869140625,1937.7524491637978
744,37135.1171875,1626.5455322265625,-1696.586464262272,-625.8074689139452,-1338.4736328125,1869.2646700807475
745,45415.625,1572.037841796875,-1652.1725030698149,-611.0841445559902,-1301.3603515625,1888.434771206649
746,38119.7265625,1488.6175537109375,-1618.3141068161422,-591.5563786778553,-1283.4471435546875,1848.6576842668744
747,38674.125,1542.8680419921875,-1677.0762279015833,-622.5878270407075,-1318.1104736328125,1843.791781360063
748,37955.13671875,1546.36181640625,-1631.896818600983,-606.8393988350558,-1281.32177734375,1901.158972081538
749,42048.1953125,1542.7730712890625,-1628.8009304083062,-598.0296857528033,-1288.464111328125,1767.9847295049585
750,40302.21484375,1342.0223388671875,-1491.1148977460143,-564.5958990516875,-1158.1488037109375,1805.0090827806005
751,38649.50390625,1461.638916015625,-1614.827907901294,-603.4343421952236,-1264.241943359375,1780.5713146918276
752,42915.46875,1479.4521484375,-1563.344915926074,-590.2241906448635,-1216.40087890625,1804.9860322059783
753,37334.4765625,1518.9659423828125,-1611.4744193273177,-598.2834903225813,-1266.48876953125,1858.861232726924
754,41456.83984375,1497.9290771484375,-1642.0389931211866,-611.6632457146573,-1287.9697265625,1837.7919973179237
755,35087.8125,1598.538818359375,-1732.6017155850814,-633.5261328170584,-1373.844482421875,1890.2475258787929
756,41441.01953125,1522.5625,-1601.978065793619,-593.5783374374571,-1260.4996337890625,1778.2165231695283
757,38957.12890625,1514.8212890625,-1592.5144635031065,-585.0380781047112,-1259.345458984375,1808.902070316417
758,36488.8125,1364.4617919921875,-1501.198404359835,-552.497231240588,-1185.87646484375,1719.6471293542777
759,41323.41015625,1470.3963623046875,-1604.9301777570497,-597.6970846860656,-1259.041259765625,1887.739069838967
760,44310.765625,1560.2275390625,-1657.0645607467231,-621.120229291306,-1294.930419921875,1832.7300443456081
761,43121.55859375,1569.0201416015625,-1660.6441049248517,-615.1132016440457,-1306.91357421875,1916.6386886410276
762,41289.828125,1500.8902587890625,-1639.376556004602,-595.9359045162978,-1304.30078125,1846.4363311114653
763,44729.33984375,1539.284912109375,-1674.8595897445584,-619.6724964917767,-1318.98388671875,1897.3664590994144
764,37043.55859375,1580.39599609375,-1653.261515586297,-600.2204285875288,-1316.301513671875,1822.088899600334
765,42343.78515625,1586.691162109375,-1667.2541342095924,-610.7016280604046,-1320.690673828125,1891.7588892963959
766,40352.671875,1593.0379638671875,-1733.1134934130919,-630.2515182795796,-1378.5775146484375,1925.5141514314273
767,36317.90234375,1484.7696533203125,-1621.697061191628,-601.393713756826,-1275.379150390625,1839.0872013651558
768,36375.5390625,1625.0316162109375,-1701.175389048251,-617.6224052620853,-1354.441162109375,1876.4914163668059
769,44768.78515625,1538.5401611328125,-1641.1391565742256,-601.7227819348038,-1299.2705078125,1801.027053635541
770,43282.21875,1464.117431640625,-1615.3270408675232,-595.3975713513016,-1274.911865234375,1793.4873596088903
771,43110.25390625,1565.858154296875,-1703.5623214202706,-631.6015361045258,-1339.950927734375,1876.7059509033677
772,41151.4140625,1591.951904296875,-1654.2116369858593,-599.0680821392893,-1318.929443359375,1907.4833034859614
773,37872.46875,1545.923828125,-1625.0525208683812,-609.437514034392,-1269.518798828125,1857.1634921215857
774,40649.51171875,1432.3516845703125,-1567.079559219735,-588.5837021895816,-1223.1197509765625,1897.216926634577
775,40252.08984375,1498.7730712890625,-1632.3157546106263,-601.4400760922118,-1288.594482421875,1892.1198966470063
776,36635.58203125,1567.2955322265625,-1647.371884428864,-608.0521322535028,-1299.149658203125,1874.3551053831152
777,44382.7109375,1533.331787109375,-1628.2439408353875,-596.6213311127732,-1289.5283203125,1810.7467894894041
778,37881.9609375,1517.124755859375,-1676.858305205935,-613.6082240318594,-1329.0626220703125,1878.1489377292046
779,39452.5625,1466.1697998046875,-1612.1365373285357,-587.7395344348495,-1280.4962158203125,1817.3212889917725
780,41048.6328125,1571.2838134765625,-1663.6603554882827,-618.8979204238177,-1305.953125,1832.091914275151
781,38080.1796875,1570.556640625,-1643.6597961160978,-598.6572372404552,-1306.253173828125,1875.7508078776334
782,40970.765625,1421.1815185546875,-1544.0660663714289,-569.6231026151338,-1218.0537109375,1834.9094982317597
783,47460.72265625,1522.8621826171875,-1645.2366449946865,-600.1107038614666,-1306.407470703125,1860.9473588838048
784,41544.9453125,1564.1524658203125,-1648.9227989836581,-600.5255476671257,-1310.49658203125,1817.889021371891
785,41104.375,1483.37109375,-1598.586232451586,-588.0001172494647,-1263.232666015625,1912.1006834095388
786,44223.37109375,1443.26513671875,-1546.3691368260413,-573.0166769382536,-1216.690673828125,1919.834707713949
787,43652.49609375,1677.410400390625,-1759.316626952135,-634.3249648238652,-1406.239501953125,1949.2286636930437
788,43873.96484375,1562.267822265625,-1670.250413709189,-609.605586030203,-1325.805908203125,1835.6053554627201
789,40345.66796875,1557.1015625,-1701.637850708364,-613.2532084265617,-1360.480712890625,1920.600678896448
790,38663.41015625,1418.2076416015625,-1544.7398384998835,-572.521355696563,-1215.273193359375,1834.7405028198914
791,40516.2734375,1432.533935546875,-1504.9068983501445,-552.4715211747837,-1190.544189453125,1826.582402971093
792,40146.87109375,1525.7071533203125,-1586.4217984758811,-579.9083441636087,-1258.141845703125,1813.7237076428398
793,47351.21484375,1577.6424560546875,-1711.175552430398,-631.7591460732958,-1349.2705078125,1908.084447051907
794,43066.58203125,1535.068603515625,-1667.2826379771025,-603.8106828829884,-1329.3399658203125,1911.1482717512204
795,45832.83984375,1477.2069091796875,-1580.1400195781307,-582.2999553842633,-1247.300048828125,1849.5563780295365
796,43688.87109375,1537.516845703125,-1618.185810685122,-587.7452012328072,-1288.05078125,1879.4464324210678
797,44732.57421875,1479.419189453125,-1598.9880760942847,-592.198347140735,-1258.4873046875,1895.1341382501698
798,41119.1875,1608.1385498046875,-1734.8497822681725,-618.5407472962796,-1395.38623046875,1948.9253439842146
799,42680.25390625,1607.8455810546875,-1703.13546330497,-623.4026302722875,-1349.666015625,1983.9168742638665
800,45185.38671875,1627.5791015625,-1679.8094096421855,-616.9854571638289,-1328.5299072265625,1944.8629080592498
801,41479.59375,1555.6090087890625,-1620.9481128702805,-602.0265455338106,-1273.65185546875,1830.0635862925385
802,48643.46875,1418.3314208984375,-1547.5994338293604,-581.9523838390642,-1207.058837890625,1872.6777258426064
803,42019.2265625,1563.029052734375,-1720.2330300236115,-626.2667756682255,-1367.457763671875,1856.7484066916818
804,37213.63671875,1467.5478515625,-1578.3813786009578,-582.9981684012589,-1244.22900390625,1919.0573568855716
805,45236.15234375,1615.3118896484375,-1663.9483164763324,-616.0664715518488,-1309.852294921875,1868.9228862053992
806,46972.55078125,1644.3922119140625,-1676.1253555911012,-607.1628514157957,-1336.2030029296875,1884.371604205288
807,56459.2109375,1613.2763671875,-1690.5366742665701,-616.9877911130252,-1341.9361572265625,1904.4868391627112
808,45939.2265625,1429.7318115234375,-1592.1193335590901,-601.2345321541666,-1238.60595703125,1941.8364948199635
809,46211.359375,1479.33349609375,-1641.9618038663762,-608.3208378583313,-1292.05126953125,1985.7553836364332
810,37676.4453125,1374.534423828125,-1466.5904015241608,-559.4581281183704,-1133.915283203125,1833.9371475020732
811,41323.65234375,1575.2425537109375,-1642.4276476069358,-607.561943049636,-1293.5821533203125,1934.4119309381206
812,38663.1796875,1615.1341552734375,-1709.81349448122,-618.4486469869307,-1364.2060546875,1869.8327548036273
813,40570.875,1488.806396484375,-1642.7670718646307,-594.3086104816455,-1310.572998046875,1943.6519967551951
814,38283.4765625,1391.8602294921875,-1521.944997288887,-572.5958689289585,-1186.6864013671875,1876.8324275213222
815,37176.09375,1542.42919921875,-1607.8669412293966,-582.8188962636077,-1281.31005859375,1859.0612495274165
816,44221.16015625,1521.19140625,-1605.477288462303,-607.1592497710951,-1247.8974609375,1903.8224638423421
817,47990.5859375,1458.6004638671875,-1572.815261341353,-567.6232671153743,-1256.4898681640625,1928.1438548178726
818,39657.8203125,1622.51025390625,-1756.470271007688,-636.1753560747667,-1400.36865234375,1932.3722056773252
819,38131.703125,1514.8004150390625,-1590.4811836195568,-592.2379382555762,-1247.8040771484375,1979.4427469227082
820,37129.37109375,1500.4288330078125,-1598.5587223057523,-592.1388802544104,-1258.0247802734375,1933.5784880915394
821,36952.3515625,1492.5997314453125,-1630.3819644677305,-592.1126885465198,-1297.836669921875,1913.025933708541
822,41449.81640625,1441.3470458984375,-1562.0991029481183,-590.3497270168516,-1214.686767578125,1840.4220216164224
823,38752.68359375,1568.3912353515625,-1655.3895911834131,-609.6215998209009,-1307.2099609375,1998.624923447534
824,38193.06640625,1468.2501220703125,-1582.5954436395361,-584.4605935785032,-1247.6685791015625,1970.0194999383527
825,38384.40625,1511.7259521484375,-1608.2635578323022,-586.2144729606673,-1277.561279296875,1897.5599557303776
826,37769.859375,1591.9208984375,-1701.1918763707802,-615.4974562363176,-1357.1180419921875,1959.5848112610297
827,39934.60546875,1468.895751953125,-1545.569395610827,-575.1073593766869,-1213.07763671875,1907.5058020801334
828,43598.08203125,1538.99169921875,-1641.042717056236,-607.4357025706942,-1292.0087890625,1983.831144972752
829,42596.60546875,1470.6048583984375,-1592.4676015396694,-601.1903611135762,-1239.0966796875,1966.098893251608
830,48240.640625,1655.555908203125,-1748.0900896245953,-634.4076007746498,-1392.1031494140625,2000.907035923772
831,40331.6796875,1373.826904296875,-1482.0991698678927,-563.1301650267437,-1148.711181640625,1958.8451213175952
832,36773.8515625,1532.494384765625,-1631.5680883690948,-590.1987343297573,-1301.711669921875,1973.0349138161907
833,37756.2109375,1558.8310546875,-1652.423997050174,-609.5128177492177,-1303.638916015625,1913.3954900962133
834,36363.76171875,1481.68896484375,-1605.8026637348862,-596.9766670021743,-1261.032470703125,1915.6404942556837
835,34159.24609375,1482.5316162109375,-1575.6315239045618,-587.6498876677676,-1234.97705078125,1881.984848662318
836,41430.453125,1565.130615234375,-1662.0731167939257,-609.278104063938,-1315.993896484375,2004.7020448225385
837,38463.4765625,1481.6466064453125,-1597.786377488655,-578.2252097003359,-1274.4515380859375,1955.2891953070036
838,37879.58203125,1541.7296142578125,-1634.5057294073172,-602.4763207572171,-1290.036865234375,1895.519565784302
839,39546.6484375,1519.625244140625,-1621.8669180909264,-601.5399444865154,-1275.40869140625,1945.752299251792
840,38834.734375,1365.1033935546875,-1500.8647812326033,-571.098015660845,-1162.20849609375,1953.490531695998
841,39929.1953125,1551.4954833984375,-1667.1340669128883,-611.4384712338287,-1319.6195068359375,2069.852212785961
842,42099.265625,1536.3914794921875,-1590.1156446447558,-589.3077717525847,-1251.009765625,1935.0358470299855
843,48274.703125,1500.697509765625,-1567.653477570179,-595.2597840593633,-1215.4921875,1892.1279199979172
844,39055.8203125,1402.4869384765625,-1530.972456248744,-567.2633613533214,-1204.6363525390625,1986.62035961791
845,39018.765625,1518.908203125,-1661.3305619353011,-614.89330232712,-1308.046630859375,1974.1696183216209
846,40252.9375,1520.6275634765625,-1613.4871758005238,-593.3296322471119,-1275.1968994140625,1844.26764676693
847,44250.88671875,1623.1029052734375,-1700.0894823256517,-606.4967330727361,-1366.990966796875,1972.2629478122444
848,39496.2734375,1512.2999267578125,-1646.1054087362731,-600.1201544701601,-1307.481689453125,1958.694344218414
849,39026.625,1501.65966796875,-1614.9617209253083,-591.8711389859387,-1278.86328125,1911.5204557460397
850,40549.15625,1583.4576416015625,-1637.7921514754748,-613.0444531665748,-1280.9345703125,1867.391470722969
851,42607.578125,1595.5596923828125,-1630.8725446649164,-589.9193324961038,-1301.1915283203125,1988.1191749838276
852,42627.03125,1312.1121826171875,-1424.7588708120177,-542.8199252812901,-1102.4237060546875,1912.9390412882026
853,38939.0,1484.1202392578125,-1628.3595226784214,-613.7826904525027,-1268.220947265625,1979.2028246849409
854,43338.73828125,1555.199462890625,-1644.1260092461096,-602.6789540523278,-1301.808837890625,1931.5934998827952
855,41423.9140625,1538.6171875,-1627.226482676158,-606.9148184671086,-1275.3896484375,2007.6200738334928
856,36143.45703125,1390.5968017578125,-1530.2583382657658,-563.5123786215598,-1208.4324951171875,1976.7073169029575
857,39454.77734375,1454.3319091796875,-1579.5738298937151,-588.9236964255974,-1238.312744140625,1934.5737311221972
858,35692.546875,1544.584716796875,-1595.6498098262118,-590.0158388395326,-1257.0423583984375,1867.7513261958468
859,44147.109375,1616.9432373046875,-1668.6106981202454,-610.7330201859544,-1322.34716796875,1985.1086095185237
860,39249.7734375,1376.9136962890625,-1478.6941603545624,-555.6531076922605,-1153.80126953125,1898.0135531372787
861,35892.4921875,1511.05224609375,-1628.2543792253373,-592.5100909797486,-1294.680419921875,1970.9808421902983
862,36950.14453125,1524.5467529296875,-1606.0171934549394,-583.6442818059282,-1277.966064453125,1876.0090421364469
863,40201.39453125,1614.0794677734375,-1666.9526834885114,-605.1928955654139,-1327.19970703125,1890.529342184448
864,40940.7734375,1463.193359375,-1518.5010079954036,-564.722380730904,-1192.2232666015625,1894.4054857313301
865,43786.7578125,1497.96533203125,-1644.426314899868,-593.8651992639363,-1313.201416015625,1957.8940374908116
866,40253.09375,1465.5802001953125,-1642.1412518865081,-583.0048606791183,-1323.9205322265625,1892.2507679438434
867,39712.0625,1453.2769775390625,-1603.8246343480614,-595.6519136393636,-1260.2158203125,1875.2680732574315
868,37519.3671875,1527.4361572265625,-1573.5879268739923,-571.9118380185766,-1252.09521484375,1871.266897555668
869,46691.49609375,1608.962646484375,-1664.6204372354287,-603.1842404950843,-1326.795166015625,1950.050935601823
870,49757.45703125,1486.698486328125,-1572.6239607075931,-571.352694798145,-1251.589111328125,1932.8487745916955
871,42762.95703125,1338.4468994140625,-1534.9777758396926,-563.1292885893718,-1214.8106689453125,1859.0415140947573
872,47896.3359375,1377.3387451171875,-1613.8294402070965,-606.1574985187655,-1259.5899658203125,1929.7134827372554
873,49030.7109375,1375.933349609375,-1541.2065087469337,-558.5632145497525,-1228.30419921875,1934.456372511829
874,40980.078125,1628.834716796875,-1687.2808985842578,-613.7214672053419,-1341.94921875,1960.9982089564894
875,45845.57421875,1540.845703125,-1577.0629173040666,-589.4257751103765,-1234.54638671875,1992.7133829027773
876,53467.21484375,1469.9854736328125,-1530.1611680737124,-571.2799440739101,-1198.6015625,1831.220943859843
877,45662.3515625,1393.0087890625,-1565.9462950480372,-583.7396020326966,-1227.75830078125,1987.1152692323496
878,41146.09765625,1469.0711669921875,-1663.0073215383525,-599.9400562184816,-1328.8341064453125,2016.1189404089598
879,48306.16796875,1420.1190185546875,-1581.1274255877115,-581.0533288335182,-1250.0926513671875,1916.281072143738
880,37226.5859375,1502.13623046875,-1566.4645110073254,-568.094562454404,-1247.96240234375,1948.4520131212996
881,45306.703125,1552.8560791015625,-1619.1489301964584,-593.9436191543878,-1281.506591796875,1971.9517137541682
882,46452.48046875,1423.946533203125,-1545.611398404022,-575.211154456274,-1213.000244140625,2021.989188117947
883,35246.71875,1423.6544189453125,-1643.478417864945,-598.1271581230126,-1306.68896484375,1898.7144798060665
884,41199.12890625,1335.565673828125,-1567.3514721989986,-566.3132274806853,-1251.2978515625,1987.2295367825432
885,49204.69921875,1518.182373046875,-1702.2998168697272,-618.2735777547275,-1355.0328369140625,1950.1856672509714
886,49675.0390625,1457.236083984375,-1535.6787909372129,-571.77182561293,-1204.8837890625,1964.4038048731204
887,50091.0546875,1511.514892578125,-1555.0607204071605,-576.3380433845692,-1223.4034423828125,1994.2757063504391
888,53994.8203125,1442.63916015625,-1516.3217549560297,-562.109472555824,-1192.765380859375,1870.1617427879012
889,45219.80859375,1390.2972412109375,-1573.064005310337,-581.191029997698,-1239.8411865234375,1936.723689247128
890,38473.90625,1369.6226806640625,-1558.2252666865752,-568.2393860508963,-1237.4822998046875,1971.130040295313
891,44246.5625,1455.63623046875,-1622.0635055246248,-591.6282985240639,-1288.0440673828125,1950.9864612233102
892,41625.5234375,1471.607666015625,-1533.1550337989217,-564.0827054622916,-1211.3404541015625,1904.593178247767
893,43350.1484375,1556.7288818359375,-1614.0374566006321,-595.739529674019,-1272.872314453125,1969.35418839945
894,57255.4609375,1461.1143798828125,-1568.052406506756,-577.6554031369774,-1237.996337890625,1879.4231249904988
